%%%
  VERSION:1
  LANGUAGE:ENGLISH
%%%

MODULE TRABAJO


    PROC SE380_M1()
        TPErase;
        TPWrite "----------------------------------------";
        TPWrite "   [  MB ABRERA ]  -  [Grupo GESTAMP]   ";
        TPWrite "----------------------------------------";
        TPWrite "           [DPTO. de  robotica]         ";
        TPWrite "----------------------------------------";
        TPWrite "                                        ";
        TPWrite "----------------------------------------";
        TPWrite "Soldando util 1 Ref: Revestimiento SE380";
        TPWrite "----------------------------------------";
        TPWrite "                                        ";
        TPWrite "----------------------------------------";
        !
        SetDO do_Abrir_Agua,1;
        WaitUntil di_flow1_ok=1 AND di_flow2_ok=1;
        ! Posisción reposo 
        MoveAbsJ home_pos_rob,v3000,fine,t_pinza;
        !
        WHILE di_util1_OK=0 DO
            TPWrite "Esperando Útil en condiciones para soldar";
        ENDWHILE
        TPErase;
        !
        rAnticol acA4_R3,aaActivate;
        !
        OpenHighLift gun1;
        !
        ! Mesa en posicion
        Reset do_Mesa_Free;
        !
        MoveJ [[1653.73,-201.29,918.55],[0.999125,-4.3884E-06,-0.00399353,0.041644],[-1,0,-2,0],[9E+09,9E+09,9E+09,9E+09,9E+09,9E+09]],vmax,fine,t_Pinza;
        !
        IF di_Util1_Fase1=1 THEN
            MoveL [[1880.41,-270.45,939.95],[0.997949,-0.045342,-0.00399436,0.0450018],[-1,-1,-2,0],[9E+09,9E+09,9E+09,9E+09,9E+09,9E+09]],v1000,z30,t_pinza;
            MoveL [[1877.15,-250.01,969.26],[0.997954,-0.0456438,0.00287602,0.044689],[-1,-1,-2,0],[9E+09,9E+09,9E+09,9E+09,9E+09,9E+09]],v1000,fine,t_pinza;
            !
            CloseHighLift gun1;
            ! Punto nº 1
            SetGO go_Progr_soldad,1;
            MoveL [[1880.82,-244.51,974.90],[0.997952,-0.0453742,-0.00331756,0.0449742],[-1,-1,-2,0],[9E+09,9E+09,9E+09,9E+09,9E+09,9E+09]],v1000,fine,t_pinza;
            Soldar\Aproximado;
            OpenHighLift gun1;
            !
            MoveL [[1886.52,-256.78,919.78],[0.997953,-0.0456478,0.00286248,0.0446903],[-1,-1,-2,0],[9E+09,9E+09,9E+09,9E+09,9E+09,9E+09]],v1500,z30,t_pinza;
            MoveL [[1898.84,-205.23,919.74],[0.997954,-0.0456444,0.00287085,0.0446861],[-1,-1,-2,0],[9E+09,9E+09,9E+09,9E+09,9E+09,9E+09]],v1500,z30,t_pinza;
            MoveL [[1913.56,-201.47,963.21],[0.997823,-0.0447787,-0.0163401,0.045565],[-1,-1,-2,0],[9E+09,9E+09,9E+09,9E+09,9E+09,9E+09]],v2500,fine,t_pinza;
            !
            CloseHighLift gun1;
            ! Punto nº 2
            SetGO go_Progr_soldad,2;
            MoveL [[1904.93,-197.77,969.96],[0.996259,-0.0498532,-0.0523954,0.0472923],[-1,-1,-2,0],[9E+09,9E+09,9E+09,9E+09,9E+09,9E+09]],v1000,fine,t_pinza;
            Soldar\Aproximado;
            OpenHighLift gun1;
            !
            MoveL [[1905.18,-201.34,916.50],[0.997859,-0.0445315,-0.0149463,0.0455097],[-1,-1,-2,0],[9E+09,9E+09,9E+09,9E+09,9E+09,9E+09]],vmax,fine,t_pinza;
            MoveL [[1672.80,-201.49,925.56],[0.997825,-0.0447696,-0.0163368,0.0455493],[-1,-1,-2,0],[9E+09,9E+09,9E+09,9E+09,9E+09,9E+09]],v1500,z30,t_pinza;
        ENDIF
        IF di_Util1_Fase2=1 THEN
            !
            rAnticol acA2_R1,aaActivate;
            MoveL [[1672.80,-201.49,925.56],[0.997825,-0.0447696,-0.0163368,0.0455493],[-1,-1,-2,0],[9E+09,9E+09,9E+09,9E+09,9E+09,9E+09]],v1500,z30,t_pinza;
            MoveJ [[1672.80,-201.50,1301.21],[0.997824,-0.0447749,-0.0163367,0.04555],[-1,-1,-2,0],[9E+09,9E+09,9E+09,9E+09,9E+09,9E+09]],v1500,z30,t_pinza;
            MoveJ [[2295.72,673.95,1332.99],[0.258026,-0.507658,-0.213456,0.793815],[0,-1,-3,0],[9E+09,9E+09,9E+09,9E+09,9E+09,9E+09]],v1500,z30,t_pinza;
            MoveL [[2268.79,640.45,1114.30],[0.0851656,-0.541205,-0.101836,0.830345],[0,-1,-3,0],[9E+09,9E+09,9E+09,9E+09,9E+09,9E+09]],v1500,fine,t_pinza;
            !
            CloseHighLift gun1;
            ! Punto nº 4
            SetGO go_Progr_soldad,4;
            MoveL [[2250.24,643.79,1111.47],[0.0857581,-0.491668,-0.110657,0.859455],[0,-1,-3,0],[9E+09,9E+09,9E+09,9E+09,9E+09,9E+09]],v1000,fine,t_pinza;
            Soldar\Aproximado;
            !
            MoveL [[2266.32,641.70,1108.54],[0.0932674,-0.659991,-0.0818368,0.740956],[0,-2,-2,0],[9E+09,9E+09,9E+09,9E+09,9E+09,9E+09]],v1500,fine,t_pinza;
            !
            rAnticol acA1_R1,aaActivate;
            !
            ! Punto nº 5
            SetGO go_Progr_soldad,5;
            MoveL [[2242.99,648.08,1072.02],[0.0663778,-0.695008,-0.0590872,0.713489],[0,-2,-2,0],[9E+09,9E+09,9E+09,9E+09,9E+09,9E+09]],v1000,fine,t_pinza;
            Soldar\Aproximado;
            !
            ! Punto nº 6
            SetGO go_Progr_soldad,6;
            MoveL [[2242.76,648.10,1094.23],[0.0663787,-0.695015,-0.0590939,0.713482],[0,-2,-2,0],[9E+09,9E+09,9E+09,9E+09,9E+09,9E+09]],v1000,fine,t_pinza;
            Soldar\Aproximado;
            OpenHighLift gun1;
            !
            MoveL [[2291.25,641.69,1122.45],[0.101314,-0.691491,-0.0924339,0.709247],[0,-2,-2,0],[9E+09,9E+09,9E+09,9E+09,9E+09,9E+09]],v1500,z30,t_pinza;
            MoveL [[2290.33,641.70,1278.05],[0.258193,-0.652241,-0.24687,0.66856],[0,-2,-1,0],[9E+09,9E+09,9E+09,9E+09,9E+09,9E+09]],v1500,fine,t_pinza;
            !
            rAnticol acA1_R1,aaDeactivate;
            rAnticol acA2_R1,aaDeactivate;
            !
            MoveJ [[1617.01,4.87,1053.85],[0.999182,-0.0115453,0.00267056,-0.0386747],[0,-1,-1,0],[9E+09,9E+09,9E+09,9E+09,9E+09,9E+09]],v1500,fine,t_pinza;
            !
            rAnticol acA3_R1,aaActivate;
            !
            MoveL [[1968.50,657.16,993.31],[0.992005,-0.00304266,-0.00256541,0.126132],[0,-1,-1,0],[9E+09,9E+09,9E+09,9E+09,9E+09,9E+09]],v1500,z30,t_pinza;
            MoveL [[2262.84,665.21,1025.74],[0.999892,-0.0026462,-0.00297419,-0.014127],[0,-1,-1,0],[9E+09,9E+09,9E+09,9E+09,9E+09,9E+09]],v1500,z30,t_pinza;
            MoveL [[2265.74,655.15,1040.56],[0.999522,-0.00259893,-0.00301851,-0.0306642],[0,-1,-1,0],[9E+09,9E+09,9E+09,9E+09,9E+09,9E+09]],v1500,fine,t_pinza;
            !
            CloseHighLift gun1;
            ! Punto nº 18
            SetGO go_Progr_soldad,18;
            MoveL [[2270.60,651.61,1049.29],[0.999172,-0.00365998,-0.0325237,-0.0241819],[0,-1,-1,0],[9E+09,9E+09,9E+09,9E+09,9E+09,9E+09]],v1000,fine,t_pinza;
            Soldar\Aproximado;
            !
            ! Punto nº 19
            SetGO go_Progr_soldad,19;
            MoveL [[2304.77,665.47,1050.50],[0.999621,0.0256866,-0.00778703,-0.00617621],[0,0,-1,0],[9E+09,9E+09,9E+09,9E+09,9E+09,9E+09]],v1000,fine,t_pinza;
            Soldar\Aproximado;
            OpenHighLift gun1;
            !
            !Abrir Brida I
            Set do_Move_Fix1;
            WHILE di_FixMoved1=0 DO
                TPWrite "Esperando centradores retrocedidos en útil";
            ENDWHILE
            TPErase;
            WaitTime 1;
            Reset do_Move_Fix1;
            !
            !
            MoveL [[2289.15,714.42,1068.44],[0.99639,-0.0136713,0.00265293,0.0837472],[0,-1,-1,0],[9E+09,9E+09,9E+09,9E+09,9E+09,9E+09]],v1500,fine,t_pinza;
            !
            CloseHighLift gun1;
            !
            ! Punto nº 20
            SetGO go_Progr_soldad,20;
            MoveL [[2331.23,713.69,1052.22],[0.991711,0.0217995,0.00724256,0.126422],[0,0,-1,0],[9E+09,9E+09,9E+09,9E+09,9E+09,9E+09]],v1000,fine,t_pinza;
            Soldar\Aproximado;
            !
            ! Punto nº 21
            SetGO go_Progr_soldad,21;
            MoveL [[2332.57,759.83,1054.23],[0.971989,-0.0264633,-0.0038685,0.2335],[0,-1,-2,0],[9E+09,9E+09,9E+09,9E+09,9E+09,9E+09]],v1000,fine,t_pinza;
            Soldar\Aproximado;
            OpenHighLift gun1;
            !
            MoveL [[2331.15,761.33,993.83],[0.99218,-0.0258613,-0.00682569,0.121914],[0,-1,-1,0],[9E+09,9E+09,9E+09,9E+09,9E+09,9E+09]],v1500,z30,t_pinza;
            MoveL [[1999.94,673.17,981.58],[0.992838,-0.0258269,-0.00696817,0.116436],[0,-1,-1,0],[9E+09,9E+09,9E+09,9E+09,9E+09,9E+09]],v1500,z30,t_pinza;
            MoveJ [[2009.14,391.57,958.14],[0.99782,-0.0241944,-0.011406,-0.0603252],[0,-1,-1,0],[9E+09,9E+09,9E+09,9E+09,9E+09,9E+09]],v1500,fine,t_pinza;
            !
            rAnticol acA3_R1,aaDeactivate;
            !
            MoveL [[2264.46,362.57,944.89],[0.995733,0.083703,-0.000284571,-0.0388505],[0,0,-1,0],[9E+09,9E+09,9E+09,9E+09,9E+09,9E+09]],v1500,z10,t_pinza;
            MoveL [[2338.16,300.49,947.68],[0.985938,0.050522,-0.00537264,-0.159199],[0,0,-1,0],[9E+09,9E+09,9E+09,9E+09,9E+09,9E+09]],v1500,z30,t_pinza;
            MoveL [[2342.39,295.80,979.49],[0.987617,0.0491037,-0.0166396,-0.148068],[0,0,-1,0],[9E+09,9E+09,9E+09,9E+09,9E+09,9E+09]],v1500,fine,t_pinza;
            !
            CloseHighLift gun1;
            ! Punto nº 12
            SetGO go_Progr_soldad,12;
            MoveL [[2341.22,294.14,991.23],[0.986795,0.0582945,-0.0323618,-0.147613],[0,0,-1,0],[9E+09,9E+09,9E+09,9E+09,9E+09,9E+09]],v1000,fine,t_pinza;
            Soldar\Aproximado;
            OpenHighLift gun1;
            !
            MoveL [[2342.39,295.80,979.49],[0.987617,0.0491037,-0.0166396,-0.148068],[0,0,-1,0],[9E+09,9E+09,9E+09,9E+09,9E+09,9E+09]],v1500,z20,t_pinza;
            MoveL [[2338.16,300.49,947.68],[0.985938,0.050522,-0.00537264,-0.159199],[0,0,-1,0],[9E+09,9E+09,9E+09,9E+09,9E+09,9E+09]],v1500,z30,t_pinza;
            MoveL [[2307.76,362.57,958.56],[0.992501,0.0836124,0.0039412,-0.0890806],[0,0,-1,0],[9E+09,9E+09,9E+09,9E+09,9E+09,9E+09]],v1500,z30,t_pinza;
            MoveL [[2307.14,366.08,999.71],[0.992504,0.0836438,0.00386213,-0.0890237],[0,0,-1,0],[9E+09,9E+09,9E+09,9E+09,9E+09,9E+09]],v1500,fine,t_pinza;
            !
            CloseHighLift gun1;
            ! Punto nº 10
            SetGO go_Progr_soldad,10;
            MoveL [[2301.97,365.58,1002.88],[0.993331,0.082186,-0.012522,-0.0798909],[0,0,-1,0],[9E+09,9E+09,9E+09,9E+09,9E+09,9E+09]],v1000,fine,t_pinza;
            Soldar\Aproximado;
            OpenHighLift gun1;
            !
            MoveL [[2313.95,365.11,947.18],[0.993429,0.0836454,0.00302671,-0.0780558],[0,0,-1,0],[9E+09,9E+09,9E+09,9E+09,9E+09,9E+09]],v1500,z30,t_pinza;
            MoveL [[2323.41,347.51,947.18],[0.99308,0.0509788,0.00881567,-0.105429],[0,0,-1,0],[9E+09,9E+09,9E+09,9E+09,9E+09,9E+09]],v1500,z30,t_pinza;
            MoveL [[2338.16,341.91,989.30],[0.989734,0.0460747,-0.0441103,-0.127897],[0,0,-1,0],[9E+09,9E+09,9E+09,9E+09,9E+09,9E+09]],v1500,fine,t_pinza;
            !
            CloseHighLift gun1;
            ! Punto nº 11
            SetGO go_Progr_soldad,11;
            MoveL [[2345.91,344.81,1001.29],[0.990313,0.0462855,-0.0439125,-0.123325],[0,0,-1,0],[9E+09,9E+09,9E+09,9E+09,9E+09,9E+09]],v1000,fine,t_pinza;
            Soldar\Aproximado;
            OpenHighLift gun1;
            !
            MoveL [[2338.16,341.91,947.67],[0.989084,0.0508805,-0.00957559,-0.13796],[0,0,-1,0],[9E+09,9E+09,9E+09,9E+09,9E+09,9E+09]],v1500,z30,t_pinza;
            MoveL [[2264.46,362.57,944.89],[0.995733,0.0837029,-0.000283937,-0.0388512],[0,0,-1,0],[9E+09,9E+09,9E+09,9E+09,9E+09,9E+09]],v1500,z30,t_pinza;
            MoveL [[2264.46,362.57,993.62],[0.995867,0.0837008,-0.000587261,-0.0352414],[0,0,-1,0],[9E+09,9E+09,9E+09,9E+09,9E+09,9E+09]],v1500,fine,t_pinza;
            !
            CloseHighLift gun1;
            ! Punto nº 9
            SetGO go_Progr_soldad,9;
            MoveL [[2269.24,364.62,1000.78],[0.995735,0.0836883,-0.000284792,-0.0388358],[0,0,-1,0],[9E+09,9E+09,9E+09,9E+09,9E+09,9E+09]],v1000,fine,t_pinza;
            Soldar\Aproximado;
            OpenHighLift gun1;
            !
            MoveL [[2271.88,362.57,958.55],[0.995733,0.0837038,-0.000286021,-0.0388396],[0,0,-1,0],[9E+09,9E+09,9E+09,9E+09,9E+09,9E+09]],v1500,z30,t_pinza;
            MoveL [[2338.16,300.50,947.68],[0.985938,0.0505247,-0.00537163,-0.159199],[0,0,-1,0],[9E+09,9E+09,9E+09,9E+09,9E+09,9E+09]],v1500,z30,t_pinza;
            MoveL [[2367.28,272.50,947.68],[0.973879,0.0520347,0.003568,-0.220994],[0,0,-1,0],[9E+09,9E+09,9E+09,9E+09,9E+09,9E+09]],v1500,z5,t_pinza;
            MoveL [[2357.87,211.29,967.28],[0.960935,0.0278811,-0.0237274,-0.274341],[0,0,-1,0],[9E+09,9E+09,9E+09,9E+09,9E+09,9E+09]],v1500,z5,t_pinza;
            MoveL [[2344.50,193.96,979.47],[0.959305,0.00926387,-0.0211119,-0.281429],[0,-1,-1,0],[9E+09,9E+09,9E+09,9E+09,9E+09,9E+09]],v1500,fine,t_pinza;
            !
            CloseHighLift gun1;
            ! Punto nº 17
            SetGO go_Progr_soldad,17;
            MoveL [[2341.03,195.16,982.06],[0.959303,0.00928209,-0.0211061,-0.281436],[0,-1,-1,0],[9E+09,9E+09,9E+09,9E+09,9E+09,9E+09]],v1000,fine,t_pinza;
            Soldar\Aproximado;
            OpenHighLift gun1;
            !
            MoveL [[2364.03,216.24,958.56],[0.961545,0.0361972,-0.00484437,-0.272209],[0,0,-1,0],[9E+09,9E+09,9E+09,9E+09,9E+09,9E+09]],v1500,z30,t_pinza;
            MoveL [[2336.67,220.11,939.03],[0.966136,0.0556464,0.0629975,-0.243959],[0,0,-1,0],[9E+09,9E+09,9E+09,9E+09,9E+09,9E+09]],v1500,z30,t_pinza;
            MoveL [[2271.73,252.27,965.98],[0.98794,0.0228855,-0.0255525,-0.150988],[0,0,-1,0],[9E+09,9E+09,9E+09,9E+09,9E+09,9E+09]],v1500,z30,t_pinza;
            MoveL [[2022.72,347.22,971.99],[0.997587,0.0112623,-0.0560584,-0.0393732],[0,-1,-1,0],[9E+09,9E+09,9E+09,9E+09,9E+09,9E+09]],v1500,z10,t_pinza;
            MoveL [[2022.74,347.21,1263.27],[0.994767,0.00422668,-0.0570228,0.0846764],[0,-1,-2,0],[9E+09,9E+09,9E+09,9E+09,9E+09,9E+09]],v1500,z30,t_pinza;
            MoveL [[2086.27,562.87,1347.97],[0.614709,-0.394264,-0.190915,0.655927],[0,-1,-2,0],[9E+09,9E+09,9E+09,9E+09,9E+09,9E+09]],v1500,z30,t_pinza;
            MoveL [[2279.61,373.45,1333.27],[0.0968181,-0.538752,-0.108532,0.829816],[0,0,-3,0],[9E+09,9E+09,9E+09,9E+09,9E+09,9E+09]],v1500,z30,t_pinza;
            MoveL [[2260.99,353.00,1073.10],[0.142536,-0.540013,-0.124984,0.82003],[0,0,-3,0],[9E+09,9E+09,9E+09,9E+09,9E+09,9E+09]],v1500,fine,t_pinza;
            !
            CloseHighLift gun1;
            ! Punto nº 3
            SetGO go_Progr_soldad,3;
            MoveL [[2244.29,358.72,1069.87],[0.113394,-0.509793,-0.116813,0.844753],[0,0,-3,0],[9E+09,9E+09,9E+09,9E+09,9E+09,9E+09]],v1000,fine,t_pinza;
            Soldar\Aproximado;
            !
            MoveL [[2250.89,360.31,1060.93],[0.0792328,-0.588302,-0.0944978,0.799183],[0,-2,-2,0],[9E+09,9E+09,9E+09,9E+09,9E+09,9E+09]],v1500,z10,t_pinza;
            !
            ! Punto nº 7
            SetGO go_Progr_soldad,7;
            MoveL [[2236.05,360.44,1040.25],[0.100912,-0.691099,-0.0935444,0.709541],[0,-2,-1,0],[9E+09,9E+09,9E+09,9E+09,9E+09,9E+09]],v1000,fine,t_pinza;
            Soldar\Aproximado;
            !
            MoveL [[2259.32,360.52,1079.23],[0.160754,-0.680651,-0.151865,0.698434],[0,-2,-1,0],[9E+09,9E+09,9E+09,9E+09,9E+09,9E+09]],v1500,z30,t_pinza;
            MoveL [[2242.79,365.99,1104.65],[0.135044,-0.896025,-0.106494,0.409343],[0,-2,-1,0],[9E+09,9E+09,9E+09,9E+09,9E+09,9E+09]],v1500,fine,t_pinza;
            !
            ! Punto nº 8
            SetGO go_Progr_soldad,8;
            MoveL [[2236.16,365.53,1087.65],[0.148,-0.892181,-0.134944,0.404844],[0,-2,-1,0],[9E+09,9E+09,9E+09,9E+09,9E+09,9E+09]],v1000,fine,t_pinza;
            Soldar\Aproximado;
            OpenHighLift gun1;
            !
            MoveL [[2527.35,367.45,1626.76],[0.201982,-0.718559,-0.198943,0.635057],[0,-2,-1,0],[9E+09,9E+09,9E+09,9E+09,9E+09,9E+09]],v1500,z30,t_pinza;
            MoveJ [[2544.55,242.84,2284.92],[0.844861,-0.00466303,-0.5344,-0.0245934],[0,-1,-1,0],[9E+09,9E+09,9E+09,9E+09,9E+09,9E+09]],v1500,z30,t_pinza;
            MoveJ [[1585.31,237.12,1213.90],[0.999182,-0.0115458,0.00266829,-0.038672],[0,-1,-1,0],[9E+09,9E+09,9E+09,9E+09,9E+09,9E+09]],v1500,fine,t_pinza;
            !
            !GOTO salto;
            !
            MoveL [[2264.46,362.57,944.89],[0.995733,0.083703,-0.000284571,-0.0388505],[0,0,-1,0],[9E+09,9E+09,9E+09,9E+09,9E+09,9E+09]],v1500,z10,t_pinza;
            MoveL [[2338.16,300.49,947.68],[0.985938,0.050522,-0.00537264,-0.159199],[0,0,-1,0],[9E+09,9E+09,9E+09,9E+09,9E+09,9E+09]],v1500,z30,t_pinza;
            MoveL [[2329.09,258.71,973.18],[0.983618,0.0444395,0.00609784,-0.174594],[0,0,-1,0],[9E+09,9E+09,9E+09,9E+09,9E+09,9E+09]],v1500,fine,t_pinza;
            !
            CloseHighLift gun1;
            ! Punto nº 13
            SetGO go_Progr_soldad,13;
            MoveL [[2323.89,259.82,984.31],[0.982839,0.0548562,0.00598368,-0.17602],[0,0,-1,0],[9E+09,9E+09,9E+09,9E+09,9E+09,9E+09]],v1000,fine,t_pinza;
            Soldar\Aproximado;
            !
            ! Punto nº 14
            SetGO go_Progr_soldad,14;
            MoveL [[2322.86,245.52,982.96],[0.978159,0.0310549,0.0341203,-0.202672],[0,0,-1,0],[9E+09,9E+09,9E+09,9E+09,9E+09,9E+09]],v1000,fine,t_pinza;
            Soldar\Aproximado;
            OpenHighLift gun1;
            !
            MoveL [[2313.53,243.91,960.93],[0.985309,0.00184277,0.0412498,-0.165712],[0,0,-1,0],[9E+09,9E+09,9E+09,9E+09,9E+09,9E+09]],v1500,z30,t_pinza;
            MoveL [[2344.34,241.68,938.15],[0.979791,0.013771,0.0783885,-0.183509],[0,0,-1,0],[9E+09,9E+09,9E+09,9E+09,9E+09,9E+09]],v1500,z30,t_pinza;
            MoveL [[2360.73,241.46,959.16],[0.981735,0.00197799,0.0257108,-0.188495],[0,0,-1,0],[9E+09,9E+09,9E+09,9E+09,9E+09,9E+09]],v1500,z30,t_pinza;
            MoveL [[2350.63,223.21,973.34],[0.962964,0.0140828,-0.0495297,-0.264668],[0,-1,-1,0],[9E+09,9E+09,9E+09,9E+09,9E+09,9E+09]],v1500,fine,t_pinza;
            !
            CloseHighLift gun1;
            ! Punto nº 15
            SetGO go_Progr_soldad,15;
            MoveL [[2350.19,226.62,982.94],[0.963693,0.0139809,-0.0496048,-0.261991],[0,-1,-1,0],[9E+09,9E+09,9E+09,9E+09,9E+09,9E+09]],v1000,fine,t_pinza;
            Soldar\Aproximado;
            !
            ! Punto nº 16
            SetGO go_Progr_soldad,16;
            MoveL [[2347.10,211.75,981.05],[0.975261,0.0160656,-0.037277,-0.217296],[0,-1,-1,0],[9E+09,9E+09,9E+09,9E+09,9E+09,9E+09]],v1000,fine,t_pinza;
            Soldar\Aproximado;
            OpenHighLift gun1;
            !
            MoveL [[2364.04,216.27,958.55],[0.96867,0.0393638,0.0272192,-0.243697],[0,0,-1,0],[9E+09,9E+09,9E+09,9E+09,9E+09,9E+09]],v1500,z30,t_pinza;
            MoveL [[2336.67,220.14,939.01],[0.969243,0.0564616,0.0622698,-0.231307],[0,0,-1,0],[9E+09,9E+09,9E+09,9E+09,9E+09,9E+09]],v1500,z30,t_pinza;
            MoveL [[2271.74,252.27,965.98],[0.989443,0.0226221,-0.0257878,-0.140804],[0,0,-1,0],[9E+09,9E+09,9E+09,9E+09,9E+09,9E+09]],v1500,z30,t_pinza;
            MoveL [[2092.22,347.21,971.99],[0.997587,0.0112624,-0.0560594,-0.0393789],[0,-1,-1,0],[9E+09,9E+09,9E+09,9E+09,9E+09,9E+09]],v1500,z30,t_pinza;
            MoveL [[1954.73,347.21,1064.25],[0.997588,0.0112512,-0.05605,-0.0393764],[0,-1,-1,0],[9E+09,9E+09,9E+09,9E+09,9E+09,9E+09]],v1500,z30,t_pinza;
            !
            !salto:
            !
            MoveJ [[1360.72,0.85,1358.61],[0.99991,-0.000629581,0.0129562,-0.00333958],[0,-1,-1,0],[9E+09,9E+09,9E+09,9E+09,9E+09,9E+09]],v1500,z30,t_pinza;
        ENDIF
        !
        MoveJ [[1360.72,0.85,1358.61],[0.99991,-0.000629581,0.0129562,-0.00333958],[0,-1,-1,0],[9E+09,9E+09,9E+09,9E+09,9E+09,9E+09]],v1500,z30,t_pinza;
        !
        ! Posisción reposo 
        MoveAbsJ home_pos_rob,v3000,fine,t_pinza;
        Set do_Mesa_Free;
        !
        rAnticol acA1_R1,aaDeactivate;
        rAnticol acA4_R3,aaDeactivate;
        !
        home_robot;
    ENDPROC

    PROC SE380_M1_5FA_813_303_A()
        TPErase;
        TPWrite "----------------------------------------";
        TPWrite "   [  MB ABRERA ]  -  [Grupo GESTAMP]   ";
        TPWrite "----------------------------------------";
        TPWrite "           [DPTO. de  robotica]         ";
        TPWrite "----------------------------------------";
        TPWrite "                                        ";
        TPWrite "----------------------------------------";
        TPWrite "Soldando util 1 Ref: Revestimiento SE380";
        TPWrite "----------------------------------------";
        TPWrite "                                        ";
        TPWrite "----------------------------------------";
        !
        SetDO do_Abrir_Agua,1;
        WaitUntil di_flow1_ok=1 AND di_flow2_ok=1;
        ! Posisción reposo 
        MoveAbsJ home_pos_rob,v3000,fine,t_pinza;
        !
        WHILE di_util1_OK=0 DO
            TPWrite "Esperando Útil en condiciones para soldar";
        ENDWHILE
        TPErase;
        !
        rAnticol acA4_R3,aaActivate;
        !
        OpenHighLift gun1;
        !
        ! Mesa en posicion
        Reset do_Mesa_Free;
        !
        MoveJ [[1653.73,-201.29,918.55],[0.999125,-4.3884E-06,-0.00399353,0.041644],[-1,0,-2,0],[9E+09,9E+09,9E+09,9E+09,9E+09,9E+09]],vmax,fine,t_Pinza;
        !
        IF di_Util1_Fase1=1 THEN
            !
            MoveL [[1880.41,-270.45,939.95],[0.997949,-0.045342,-0.00399436,0.0450018],[-1,-1,-2,0],[9E+09,9E+09,9E+09,9E+09,9E+09,9E+09]],vmax,z30,t_pinza;
            MoveL [[1879.48,-250.10,965.02],[0.997954,-0.0456413,0.00287003,0.0446793],[-1,-1,-2,0],[9E+09,9E+09,9E+09,9E+09,9E+09,9E+09]],vmax,fine,t_pinza;
            !
            CloseHighLift gun1;
            ! Punto nº 1
            SetGO go_Progr_soldad,1;
            MoveL [[1880.79,-243.61,974.87],[0.997951,-0.0453772,-0.00330788,0.044976],[-1,-1,-2,0],[9E+09,9E+09,9E+09,9E+09,9E+09,9E+09]],v2500,fine,t_pinza;
            Soldar\Aproximado;
            OpenHighLift gun1;
            !
            MoveL [[1886.52,-256.78,919.78],[0.997953,-0.0456478,0.00286248,0.0446903],[-1,-1,-2,0],[9E+09,9E+09,9E+09,9E+09,9E+09,9E+09]],vmax,z30,t_pinza;
            MoveL [[1913.56,-205.22,919.73],[0.997953,-0.045648,0.00287374,0.0446919],[-1,-1,-2,0],[9E+09,9E+09,9E+09,9E+09,9E+09,9E+09]],vmax,z30,t_pinza;
            MoveL [[1913.56,-201.47,958.68],[0.997824,-0.0447784,-0.0163435,0.0455633],[-1,-1,-2,0],[9E+09,9E+09,9E+09,9E+09,9E+09,9E+09]],vmax,fine,t_pinza;
            !
            CloseHighLift gun1;
            ! Punto nº 2
            SetGO go_Progr_soldad,2;
            MoveL [[1904.94,-198.35,970.30],[0.99626,-0.0498534,-0.0523874,0.0472943],[-1,-1,-2,0],[9E+09,9E+09,9E+09,9E+09,9E+09,9E+09]],v2500,fine,t_pinza;
            Soldar\Aproximado;
            OpenHighLift gun1;
            !
            MoveL [[1905.18,-201.34,916.50],[0.997859,-0.0445315,-0.0149463,0.0455097],[-1,-1,-2,0],[9E+09,9E+09,9E+09,9E+09,9E+09,9E+09]],vmax,fine,t_pinza;
            MoveL [[1672.80,-201.49,925.56],[0.997825,-0.0447696,-0.0163368,0.0455493],[-1,-1,-2,0],[9E+09,9E+09,9E+09,9E+09,9E+09,9E+09]],vmax,z30,t_pinza;
            !
        ENDIF
        !
        IF di_Util1_Fase2=1 THEN
            !
            rAnticol acA2_R1,aaActivate;
            !
            MoveL [[1672.80,-201.49,925.56],[0.997825,-0.0447696,-0.0163368,0.0455493],[-1,-1,-2,0],[9E+09,9E+09,9E+09,9E+09,9E+09,9E+09]],vmax,z30,t_pinza;
            MoveJ [[1672.80,-201.50,1301.21],[0.997824,-0.0447749,-0.0163367,0.04555],[-1,-1,-2,0],[9E+09,9E+09,9E+09,9E+09,9E+09,9E+09]],vmax,z30,t_pinza;
            MoveJ [[2314.64,632.24,1332.98],[0.258024,-0.507656,-0.213456,0.793817],[0,-1,-3,0],[9E+09,9E+09,9E+09,9E+09,9E+09,9E+09]],vmax,z30,t_pinza;
            MoveL [[2257.09,640.44,1114.29],[0.0851627,-0.541203,-0.101832,0.830347],[0,-1,-3,0],[9E+09,9E+09,9E+09,9E+09,9E+09,9E+09]],vmax,fine,t_pinza;
            !
            CloseHighLift gun1;
            ! Punto nº 4
            SetGO go_Progr_soldad,4;
            MoveL [[2257.44,641.41,1116.61],[0.0804461,-0.450572,-0.11458,0.881694],[0,-1,-3,0],[9E+09,9E+09,9E+09,9E+09,9E+09,9E+09]],v2500,fine,t_pinza;
            Soldar\Aproximado;
            OpenHighLift gun1;
            !
            MoveJ [[2262.65,628.53,1121.08],[0.0584421,-0.53192,-0.126659,0.835227],[0,-1,-3,0],[9E+09,9E+09,9E+09,9E+09,9E+09,9E+09]],vmax,z10,t_pinza;
            MoveJ [[2286.06,625.61,1124.86],[0.0116917,-0.614782,-0.148279,0.774545],[0,-1,-3,1],[9E+09,9E+09,9E+09,9E+09,9E+09,9E+09]],vmax,z10,t_pinza;
            MoveJ [[2295.38,623.54,1126.95],[0.0446137,-0.647485,-0.135098,0.74868],[0,0,-4,1],[9E+09,9E+09,9E+09,9E+09,9E+09,9E+09]],vmax,z10,t_pinza;
            MoveJ [[2286.32,632.20,1134.70],[0.0795657,-0.6643,-0.10142,0.736267],[0,0,-4,1],[9E+09,9E+09,9E+09,9E+09,9E+09,9E+09]],vmax,z10,t_pinza;
            MoveL [[2249.41,641.69,1108.44],[0.109705,-0.658422,-0.102025,0.737588],[0,0,-4,1],[9E+09,9E+09,9E+09,9E+09,9E+09,9E+09]],vmax,fine,t_pinza;
            !
            rAnticol acA1_R1,aaActivate;
            !
            CloseHighLift gun1;
            ! Punto nº 5
            SetGO go_Progr_soldad,5;
            MoveL [[2244.24,643.20,1073.57],[0.0663776,-0.695006,-0.0590907,0.713491],[0,0,-4,1],[9E+09,9E+09,9E+09,9E+09,9E+09,9E+09]],v2500,fine,t_pinza;
            Soldar\Aproximado;
            !
            ! Punto nº 6
            SetGO go_Progr_soldad,6;
            MoveL [[2244.63,644.48,1094.15],[0.0663634,-0.695002,-0.0590919,0.713496],[0,0,-4,1],[9E+09,9E+09,9E+09,9E+09,9E+09,9E+09]],v2500,fine,t_pinza;
            Soldar\Aproximado;
            OpenHighLift gun1;
            !
            MoveL [[2291.25,641.70,1122.40],[0.101316,-0.691482,-0.0924344,0.709256],[0,0,-4,1],[9E+09,9E+09,9E+09,9E+09,9E+09,9E+09]],vmax,z30,t_pinza;
            MoveL [[2290.32,641.69,1278.05],[0.258195,-0.652242,-0.246869,0.66856],[0,0,-3,1],[9E+09,9E+09,9E+09,9E+09,9E+09,9E+09]],vmax,fine,t_pinza;
            !
            rAnticol acA1_R1,aaDeactivate;
            rAnticol acA2_R1,aaDeactivate;
            !
            MoveJ [[1819.87,472.25,1352.19],[0.518586,-0.488724,-0.358385,0.60314],[-1,0,-3,1],[9E+09,9E+09,9E+09,9E+09,9E+09,9E+09]],vmax,z10,t_pinza;
            MoveJ [[1788.19,268.78,1380.65],[0.945811,-0.0500061,-0.11405,0.299889],[-1,-1,-2,0],[9E+09,9E+09,9E+09,9E+09,9E+09,9E+09]],vmax,z10,t_pinza;
            MoveJ [[1871.81,477.99,1009.86],[0.996698,-0.00538499,-0.00109215,0.0810091],[0,-1,-1,0],[9E+09,9E+09,9E+09,9E+09,9E+09,9E+09]],vmax,fine,t_pinza;
            !
            rAnticol acA3_R1,aaActivate;
            !
            MoveL [[1968.50,657.16,993.31],[0.992005,-0.00304266,-0.00256541,0.126132],[0,-1,-1,0],[9E+09,9E+09,9E+09,9E+09,9E+09,9E+09]],vmax,z30,t_pinza;
            MoveL [[2262.84,665.21,1025.74],[0.999892,-0.0026462,-0.00297419,-0.014127],[0,-1,-1,0],[9E+09,9E+09,9E+09,9E+09,9E+09,9E+09]],vmax,z30,t_pinza;
            MoveL [[2265.73,655.14,1047.18],[0.999522,-0.00260438,-0.00300919,-0.0306638],[0,-1,-1,0],[9E+09,9E+09,9E+09,9E+09,9E+09,9E+09]],vmax,fine,t_pinza;
            !
            CloseHighLift gun1;
            ! Punto nº 18
            SetGO go_Progr_soldad,18;
            MoveL [[2270.60,657.25,1049.29],[0.999172,-0.00365665,-0.0325219,-0.0241839],[0,-1,-1,0],[9E+09,9E+09,9E+09,9E+09,9E+09,9E+09]],v2500,fine,t_pinza;
            Soldar\Aproximado;
            !
            ! Punto nº 19
            SetGO go_Progr_soldad,19;
            MoveL [[2304.79,667.88,1050.49],[0.999621,0.0256861,-0.00778658,-0.00617509],[0,0,-1,0],[9E+09,9E+09,9E+09,9E+09,9E+09,9E+09]],v2500,fine,t_pinza;
            Soldar\Aproximado;
            OpenHighLift gun1;
            !
            MoveL [[2265.73,655.14,1047.18],[0.999522,-0.00260438,-0.00300919,-0.0306638],[0,-1,-1,0],[9E+09,9E+09,9E+09,9E+09,9E+09,9E+09]],vmax,z30,t_pinza;
            MoveL [[2207.93,663.42,1036.86],[0.999993,-0.00262807,-0.00279896,0.000287169],[0,-1,-1,0],[9E+09,9E+09,9E+09,9E+09,9E+09,9E+09]],vmax,z30,t_pinza;
            MoveL [[1968.50,657.16,993.31],[0.992005,-0.00304266,-0.00256541,0.126132],[0,-1,-1,0],[9E+09,9E+09,9E+09,9E+09,9E+09,9E+09]],vmax,fine,t_pinza;
            !
            !Abrir Brida I
            Set do_Move_Fix1;
            WHILE di_FixMoved1=0 DO
                TPWrite "Esperando centradores retrocedidos en útil";
            ENDWHILE
            TPErase;
            WaitTime 1;
            Reset do_Move_Fix1;
            !
            MoveJ [[2009.14,391.57,958.14],[0.99782,-0.0241944,-0.011406,-0.0603252],[0,-1,-1,0],[9E+09,9E+09,9E+09,9E+09,9E+09,9E+09]],vmax,fine,t_pinza;
            !
            rAnticol acA3_R1,aaDeactivate;
            !
            MoveL [[2264.46,362.57,944.89],[0.995733,0.083703,-0.000284571,-0.0388505],[0,0,-1,0],[9E+09,9E+09,9E+09,9E+09,9E+09,9E+09]],vmax,z10,t_pinza;
            MoveL [[2338.16,300.49,947.68],[0.985938,0.050522,-0.00537264,-0.159199],[0,0,-1,0],[9E+09,9E+09,9E+09,9E+09,9E+09,9E+09]],vmax,z30,t_pinza;
            MoveL [[2342.38,295.80,989.57],[0.987617,0.0491053,-0.0166318,-0.148069],[0,0,-1,0],[9E+09,9E+09,9E+09,9E+09,9E+09,9E+09]],vmax,fine,t_pinza;
            !
            CloseHighLift gun1;
            ! Punto nº 12
            SetGO go_Progr_soldad,12;
            MoveL [[2338.10,287.84,985.50],[0.986795,0.0582918,-0.0323582,-0.147614],[0,0,-1,0],[9E+09,9E+09,9E+09,9E+09,9E+09,9E+09]],v2500,fine,t_pinza;
            Soldar\Aproximado;
            OpenHighLift gun1;
            !
            MoveL [[2342.39,295.80,979.49],[0.987617,0.0491037,-0.0166396,-0.148068],[0,0,-1,0],[9E+09,9E+09,9E+09,9E+09,9E+09,9E+09]],vmax,z20,t_pinza;
            MoveL [[2338.16,300.49,947.68],[0.985938,0.050522,-0.00537264,-0.159199],[0,0,-1,0],[9E+09,9E+09,9E+09,9E+09,9E+09,9E+09]],vmax,z30,t_pinza;
            MoveL [[2307.76,362.57,958.56],[0.992501,0.0836124,0.0039412,-0.0890806],[0,0,-1,0],[9E+09,9E+09,9E+09,9E+09,9E+09,9E+09]],vmax,z30,t_pinza;
            MoveL [[2302.91,368.54,999.71],[0.992505,0.0836419,0.0038619,-0.0890156],[0,0,-1,0],[9E+09,9E+09,9E+09,9E+09,9E+09,9E+09]],vmax,fine,t_pinza;
            !
            CloseHighLift gun1;
            ! Punto nº 10
            SetGO go_Progr_soldad,10;
            MoveL [[2307.18,368.35,1002.48],[0.99333,0.0821934,-0.0125176,-0.0798999],[0,0,-1,0],[9E+09,9E+09,9E+09,9E+09,9E+09,9E+09]],v2500,fine,t_pinza;
            Soldar\Aproximado;
            OpenHighLift gun1;
            !
            MoveL [[2313.95,365.11,947.18],[0.993429,0.0836454,0.00302671,-0.0780558],[0,0,-1,0],[9E+09,9E+09,9E+09,9E+09,9E+09,9E+09]],vmax,z30,t_pinza;
            MoveL [[2323.41,347.51,947.18],[0.99308,0.0509788,0.00881567,-0.105429],[0,0,-1,0],[9E+09,9E+09,9E+09,9E+09,9E+09,9E+09]],vmax,z30,t_pinza;
            MoveL [[2338.19,343.95,997.01],[0.989735,0.0460721,-0.0441282,-0.127887],[0,0,-1,0],[9E+09,9E+09,9E+09,9E+09,9E+09,9E+09]],vmax,fine,t_pinza;
            !
            CloseHighLift gun1;
            ! Punto nº 11
            SetGO go_Progr_soldad,11;
            MoveL [[2341.17,342.87,998.90],[0.990315,0.0462941,-0.0439097,-0.12331],[0,0,-1,0],[9E+09,9E+09,9E+09,9E+09,9E+09,9E+09]],v2500,fine,t_pinza;
            Soldar\Aproximado;
            OpenHighLift gun1;
            !
            MoveL [[2338.16,341.91,947.67],[0.989084,0.0508805,-0.00957559,-0.13796],[0,0,-1,0],[9E+09,9E+09,9E+09,9E+09,9E+09,9E+09]],vmax,z30,t_pinza;
            MoveL [[2264.46,362.57,944.89],[0.995733,0.0837029,-0.000283937,-0.0388512],[0,0,-1,0],[9E+09,9E+09,9E+09,9E+09,9E+09,9E+09]],vmax,z30,t_pinza;
            MoveL [[2264.46,362.57,996.53],[0.995868,0.0836959,-0.000590988,-0.0352371],[0,0,-1,0],[9E+09,9E+09,9E+09,9E+09,9E+09,9E+09]],vmax,fine,t_pinza;
            !
            CloseHighLift gun1;
            ! Punto nº 9
            SetGO go_Progr_soldad,9;
            MoveL [[2252.13,367.75,1001.20],[0.995736,0.0836785,-0.000279639,-0.0388192],[0,0,-1,0],[9E+09,9E+09,9E+09,9E+09,9E+09,9E+09]],v2500,fine,t_pinza;
            Soldar\Aproximado;
            OpenHighLift gun1;
            !
            MoveL [[2271.88,362.57,958.55],[0.995733,0.0837038,-0.000286021,-0.0388396],[0,0,-1,0],[9E+09,9E+09,9E+09,9E+09,9E+09,9E+09]],vmax,z30,t_pinza;
            MoveL [[2338.16,300.50,947.68],[0.985938,0.0505247,-0.00537163,-0.159199],[0,0,-1,0],[9E+09,9E+09,9E+09,9E+09,9E+09,9E+09]],vmax,z30,t_pinza;
            MoveL [[2367.28,272.50,947.68],[0.973879,0.0520347,0.003568,-0.220994],[0,0,-1,0],[9E+09,9E+09,9E+09,9E+09,9E+09,9E+09]],vmax,z5,t_pinza;
            MoveL [[2357.87,211.29,967.28],[0.960935,0.0278811,-0.0237274,-0.274341],[0,0,-1,0],[9E+09,9E+09,9E+09,9E+09,9E+09,9E+09]],vmax,z5,t_pinza;
            MoveL [[2344.51,196.94,979.48],[0.959305,0.0092635,-0.0211168,-0.281429],[0,-1,-1,0],[9E+09,9E+09,9E+09,9E+09,9E+09,9E+09]],vmax,fine,t_pinza;
            !
            CloseHighLift gun1;
            ! Punto nº 17
            SetGO go_Progr_soldad,17;
            MoveL [[2342.27,196.39,982.04],[0.959303,0.00927359,-0.0211024,-0.281438],[0,-1,-1,0],[9E+09,9E+09,9E+09,9E+09,9E+09,9E+09]],v2500,fine,t_pinza;
            Soldar\Aproximado;
            !
            ! Punto nº 16
            SetGO go_Progr_soldad,16;
            MoveL [[2343.80,211.71,977.86],[0.959301,0.00926695,-0.0209516,-0.281453],[0,-1,-1,0],[9E+09,9E+09,9E+09,9E+09,9E+09,9E+09]],v2500,fine,t_pinza;
            Soldar\Aproximado;
            !
            ! Punto nº 15
            SetGO go_Progr_soldad,15;
            MoveL [[2348.99,230.33,983.92],[0.962321,0.00902317,-0.0211493,-0.270943],[0,-1,-1,0],[9E+09,9E+09,9E+09,9E+09,9E+09,9E+09]],v2500,fine,t_pinza;
            Soldar\Aproximado;
            OpenHighLift gun1;
            !
            MoveL [[2350.63,223.21,973.34],[0.962964,0.0140828,-0.0495297,-0.264668],[0,-1,-1,0],[9E+09,9E+09,9E+09,9E+09,9E+09,9E+09]],vmax,fine,t_pinza;
            MoveL [[2360.73,241.46,959.16],[0.981735,0.00197799,0.0257108,-0.188495],[0,0,-1,0],[9E+09,9E+09,9E+09,9E+09,9E+09,9E+09]],vmax,z30,t_pinza;
            MoveL [[2344.34,241.68,938.15],[0.979791,0.013771,0.0783885,-0.183509],[0,0,-1,0],[9E+09,9E+09,9E+09,9E+09,9E+09,9E+09]],vmax,z30,t_pinza;
            MoveL [[2313.53,243.91,960.93],[0.985309,0.00184277,0.0412498,-0.165712],[0,0,-1,0],[9E+09,9E+09,9E+09,9E+09,9E+09,9E+09]],vmax,z30,t_pinza;
            !
            ! Punto nº 13
            SetGO go_Progr_soldad,13;
            MoveL [[2325.19,257.62,980.80],[0.982839,0.0548586,0.00599527,-0.176018],[0,0,-1,0],[9E+09,9E+09,9E+09,9E+09,9E+09,9E+09]],v2500,fine,t_pinza;
            CloseHighLift gun1;
            Soldar\Aproximado;
            !
            ! Punto nº 14
            SetGO go_Progr_soldad,14;
            MoveL [[2321.90,244.53,979.63],[0.978156,0.0309569,0.0344471,-0.202648],[0,0,-1,0],[9E+09,9E+09,9E+09,9E+09,9E+09,9E+09]],v2500,fine,t_pinza;
            Soldar\Aproximado;
            OpenHighLift gun1;
            !
            MoveL [[2271.73,252.27,965.98],[0.98794,0.0228855,-0.0255525,-0.150988],[0,0,-1,0],[9E+09,9E+09,9E+09,9E+09,9E+09,9E+09]],vmax,z30,t_pinza;
            MoveL [[2022.72,347.22,971.99],[0.997587,0.0112623,-0.0560584,-0.0393732],[0,-1,-1,0],[9E+09,9E+09,9E+09,9E+09,9E+09,9E+09]],vmax,z10,t_pinza;
            MoveL [[2086.27,562.87,1347.97],[0.614709,-0.394264,-0.190915,0.655927],[0,-1,-2,0],[9E+09,9E+09,9E+09,9E+09,9E+09,9E+09]],vmax,z30,t_pinza;
            MoveL [[2279.61,373.45,1333.27],[0.0968181,-0.538752,-0.108532,0.829816],[0,0,-3,0],[9E+09,9E+09,9E+09,9E+09,9E+09,9E+09]],vmax,z30,t_pinza;
            MoveJ [[2279.61,373.45,1333.27],[0.0968181,-0.538752,-0.108532,0.829816],[0,0,-3,0],[9E+09,9E+09,9E+09,9E+09,9E+09,9E+09]],vmax,z30,t_pinza;
            MoveJ [[2265.50,359.28,1101.88],[0.130785,-0.654846,-0.156527,0.727717],[0,-1,-3,1],[9E+09,9E+09,9E+09,9E+09,9E+09,9E+09]],vmax,z10,t_pinza;
            !
            ! Punto nº 7
            SetGO go_Progr_soldad,7;
            MoveJ [[2239.86,360.91,1056.72],[0.100899,-0.691061,-0.0935327,0.709582],[0,0,-3,1],[9E+09,9E+09,9E+09,9E+09,9E+09,9E+09]],v2500,fine,t_pinza;
            CloseHighLift gun1;
            Soldar\Aproximado;
            OpenHighLift gun1;
            !
            MoveJ [[2253.01,352.64,1073.14],[0.142532,-0.540019,-0.124985,0.820026],[0,0,-3,0],[9E+09,9E+09,9E+09,9E+09,9E+09,9E+09]],vmax,fine,t_pinza;
            !
            CloseHighLift gun1;
            ! Punto nº 3
            SetGO go_Progr_soldad,3;
            MoveL [[2250.57,357.09,1079.24],[0.0825496,-0.45481,-0.10354,0.880689],[0,0,-3,0],[9E+09,9E+09,9E+09,9E+09,9E+09,9E+09]],v2500,fine,t_pinza;
            Soldar\Aproximado;
            OpenHighLift gun1;
            !
            MoveJ [[2254.86,356.12,1093.31],[0.0852867,-0.523187,-0.0911327,0.843028],[0,-1,-3,0],[9E+09,9E+09,9E+09,9E+09,9E+09,9E+09]],vmax,z1,t_pinza;
            MoveJ [[2334.27,297.80,1165.83],[0.031902,-0.746616,-0.0518748,0.662461],[0,0,-4,1],[9E+09,9E+09,9E+09,9E+09,9E+09,9E+09]],vmax,z1,t_pinza;
            MoveJ [[2241.79,366.65,1105.14],[0.0380539,-0.822581,-0.0475438,0.565378],[0,0,-4,1],[9E+09,9E+09,9E+09,9E+09,9E+09,9E+09]],vmax,z1,t_pinza;
            !
            ! Punto nº 7
            SetGO go_Progr_soldad,7;
            MoveL [[2237.56,360.98,1092.25],[0.126641,-0.878812,-0.102193,0.448563],[0,0,-3,1],[9E+09,9E+09,9E+09,9E+09,9E+09,9E+09]],v2500,fine,t_pinza;
            CloseHighLift gun1;
            Soldar\Aproximado;
            OpenHighLift gun1;
            !
            MoveJ [[2242.50,368.93,1126.99],[0.0675345,-0.836602,-0.0689865,0.539238],[0,0,-3,1],[9E+09,9E+09,9E+09,9E+09,9E+09,9E+09]],vmax,z1,t_pinza;
            MoveJ [[2204.97,227.05,1211.07],[0.244644,-0.735795,-0.176539,0.606291],[0,0,-3,1],[9E+09,9E+09,9E+09,9E+09,9E+09,9E+09]],vmax,z30,t_pinza;
            MoveJ [[1697.72,503.36,1523.70],[0.785418,-0.193169,-0.323091,0.491341],[-1,0,-2,0],[9E+09,9E+09,9E+09,9E+09,9E+09,9E+09]],vmax,z30,t_pinza;
            MoveJ [[1360.72,0.85,1358.61],[0.99991,-0.000629581,0.0129562,-0.00333958],[0,-1,-1,0],[9E+09,9E+09,9E+09,9E+09,9E+09,9E+09]],vmax,z30,t_pinza;
            !
            GOTO saltoR2_M1;
            !
            MoveL [[2264.46,362.57,944.89],[0.995733,0.083703,-0.000284571,-0.0388505],[0,0,-1,0],[9E+09,9E+09,9E+09,9E+09,9E+09,9E+09]],vmax,z10,t_pinza;
            MoveL [[2338.16,300.49,947.68],[0.985938,0.050522,-0.00537264,-0.159199],[0,0,-1,0],[9E+09,9E+09,9E+09,9E+09,9E+09,9E+09]],vmax,z30,t_pinza;
            MoveL [[2329.07,258.72,961.14],[0.983618,0.0444409,0.00610637,-0.174595],[0,0,-1,0],[9E+09,9E+09,9E+09,9E+09,9E+09,9E+09]],vmax,fine,t_pinza;
            !
            CloseHighLift gun1;
            ! Punto nº 13
            SetGO go_Progr_soldad,13;
            MoveL [[2323.89,259.82,984.31],[0.982839,0.0548562,0.00598368,-0.17602],[0,0,-1,0],[9E+09,9E+09,9E+09,9E+09,9E+09,9E+09]],v2500,fine,t_pinza;
            Soldar\Aproximado;
            !
            ! Punto nº 14
            SetGO go_Progr_soldad,14;
            MoveL [[2322.86,245.52,982.96],[0.978159,0.0310549,0.0341203,-0.202672],[0,0,-1,0],[9E+09,9E+09,9E+09,9E+09,9E+09,9E+09]],v2500,fine,t_pinza;
            Soldar\Aproximado;
            OpenHighLift gun1;
            !
            MoveL [[2313.53,243.91,960.93],[0.985309,0.00184277,0.0412498,-0.165712],[0,0,-1,0],[9E+09,9E+09,9E+09,9E+09,9E+09,9E+09]],vmax,z30,t_pinza;
            MoveL [[2344.34,241.68,938.15],[0.979791,0.013771,0.0783885,-0.183509],[0,0,-1,0],[9E+09,9E+09,9E+09,9E+09,9E+09,9E+09]],vmax,z30,t_pinza;
            MoveL [[2360.73,241.46,959.16],[0.981735,0.00197799,0.0257108,-0.188495],[0,0,-1,0],[9E+09,9E+09,9E+09,9E+09,9E+09,9E+09]],vmax,z30,t_pinza;
            MoveL [[2350.63,223.21,973.34],[0.962964,0.0140828,-0.0495297,-0.264668],[0,-1,-1,0],[9E+09,9E+09,9E+09,9E+09,9E+09,9E+09]],vmax,fine,t_pinza;
            !
            CloseHighLift gun1;
            ! Punto nº 15
            SetGO go_Progr_soldad,15;
            MoveL [[2350.19,226.62,982.94],[0.963693,0.0139809,-0.0496048,-0.261991],[0,-1,-1,0],[9E+09,9E+09,9E+09,9E+09,9E+09,9E+09]],v2500,fine,t_pinza;
            Soldar\Aproximado;
            !
            ! Punto nº 16
            SetGO go_Progr_soldad,16;
            MoveL [[2347.10,211.75,981.05],[0.975261,0.0160656,-0.037277,-0.217296],[0,-1,-1,0],[9E+09,9E+09,9E+09,9E+09,9E+09,9E+09]],v2500,fine,t_pinza;
            Soldar\Aproximado;
            OpenHighLift gun1;
            !
            MoveL [[2364.04,216.27,958.55],[0.96867,0.0393638,0.0272192,-0.243697],[0,0,-1,0],[9E+09,9E+09,9E+09,9E+09,9E+09,9E+09]],vmax,z30,t_pinza;
            MoveL [[2336.67,220.14,939.01],[0.969243,0.0564616,0.0622698,-0.231307],[0,0,-1,0],[9E+09,9E+09,9E+09,9E+09,9E+09,9E+09]],vmax,z30,t_pinza;
            MoveL [[2271.74,252.27,965.98],[0.989443,0.0226221,-0.0257878,-0.140804],[0,0,-1,0],[9E+09,9E+09,9E+09,9E+09,9E+09,9E+09]],vmax,z30,t_pinza;
            MoveL [[2092.22,347.21,971.99],[0.997587,0.0112624,-0.0560594,-0.0393789],[0,-1,-1,0],[9E+09,9E+09,9E+09,9E+09,9E+09,9E+09]],vmax,z30,t_pinza;
            MoveL [[1954.73,347.21,1064.25],[0.997588,0.0112512,-0.05605,-0.0393764],[0,-1,-1,0],[9E+09,9E+09,9E+09,9E+09,9E+09,9E+09]],vmax,z30,t_pinza;
            !
            saltoR2_M1:
            !
            MoveJ [[1360.72,0.85,1358.61],[0.99991,-0.000629581,0.0129562,-0.00333958],[0,-1,-1,0],[9E+09,9E+09,9E+09,9E+09,9E+09,9E+09]],vmax,z30,t_pinza;
            !
        ENDIF
        !
        MoveJ [[1360.72,0.85,1358.61],[0.99991,-0.000629581,0.0129562,-0.00333958],[0,-1,-1,0],[9E+09,9E+09,9E+09,9E+09,9E+09,9E+09]],vmax,z30,t_pinza;
        !
        ! Posisción reposo 
        MoveAbsJ home_pos_rob,v3000,fine,t_pinza;
        Set do_Mesa_Free;
        !
        rAnticol acA1_R1,aaDeactivate;
        rAnticol acA4_R3,aaDeactivate;
        !
        home_robot;
        !
        RETURN ;
    ENDPROC

    PROC SE380_M1_NEW_OLD()
        TPErase;
        TPWrite "----------------------------------------";
        TPWrite "   [  MB ABRERA ]  -  [Grupo GESTAMP]   ";
        TPWrite "----------------------------------------";
        TPWrite "           [DPTO. de  robotica]         ";
        TPWrite "----------------------------------------";
        TPWrite "                                        ";
        TPWrite "----------------------------------------";
        TPWrite "Soldando util 1 Ref: Revestimiento SE380";
        TPWrite "----------------------------------------";
        TPWrite "                                        ";
        TPWrite "----------------------------------------";
        !
        SetDO do_Abrir_Agua,1;
        WaitUntil di_flow1_ok=1 AND di_flow2_ok=1;
        ! Posisción reposo 
        MoveAbsJ home_pos_rob,v3000,fine,t_pinza;
        !
        WHILE di_util1_OK=0 DO
            TPWrite "Esperando Útil en condiciones para soldar";
        ENDWHILE
        TPErase;
        !
        rAnticol acA4_R3,aaActivate;
        !
        OpenHighLift gun1;
        !
        ! Mesa en posicion
        Reset do_Mesa_Free;
        !
        MoveJ [[1653.73,-201.29,918.55],[0.999125,-4.3884E-06,-0.00399353,0.041644],[-1,0,-2,0],[9E+09,9E+09,9E+09,9E+09,9E+09,9E+09]],vmax,fine,t_Pinza;
        !
        !
        IF di_Util1_Fase2=1 THEN
            !
            rAnticol acA3_R1,aaActivate;
            !
            MoveL [[1672.80,-201.49,925.56],[0.997825,-0.0447696,-0.0163368,0.0455493],[-1,-1,-2,0],[9E+09,9E+09,9E+09,9E+09,9E+09,9E+09]],vmax,z30,t_pinza;
            MoveL [[1968.50,657.16,993.31],[0.992005,-0.00304266,-0.00256541,0.126132],[0,-1,-1,0],[9E+09,9E+09,9E+09,9E+09,9E+09,9E+09]],vmax,z30,t_pinza;
            MoveL [[2262.83,665.21,1025.75],[0.998344,-0.00339003,-0.0557095,-0.013965],[0,-1,-1,0],[9E+09,9E+09,9E+09,9E+09,9E+09,9E+09]],vmax,z30,t_pinza;
            MoveL [[2265.73,655.15,1047.18],[0.998007,-0.00420454,-0.0550941,-0.0304825],[0,-1,-1,0],[9E+09,9E+09,9E+09,9E+09,9E+09,9E+09]],vmax,fine,t_pinza;
            !
            !CloseHighLift gun1;
            ! Punto nº 18
            SetGO go_Progr_soldad,18;
            MoveL [[2277.66,659.78,1053.92],[0.999172,-0.00365364,-0.0325158,-0.0241828],[0,-1,-1,0],[9E+09,9E+09,9E+09,9E+09,9E+09,9E+09]],v2500,fine,t_pinza;
            Soldar\Aproximado;
            !
            ! Punto nº 19
            SetGO go_Progr_soldad,19;
            MoveL [[2308.30,668.53,1054.03],[0.999621,0.0256906,-0.00778409,-0.00617546],[0,0,-1,0],[9E+09,9E+09,9E+09,9E+09,9E+09,9E+09]],v2500,fine,t_pinza;
            Soldar\AbrirTotal;
            !OpenHighLift gun1;
            !
            MoveL [[2265.73,655.13,1047.17],[0.998301,-0.00403022,-0.0494742,-0.0305112],[0,-1,-1,0],[9E+09,9E+09,9E+09,9E+09,9E+09,9E+09]],vmax,z30,t_pinza;
            MoveL [[2207.93,663.43,1036.86],[0.999369,-0.00262027,-0.0354119,0.000376814],[0,-1,-1,0],[9E+09,9E+09,9E+09,9E+09,9E+09,9E+09]],vmax,z30,t_pinza;
            MoveL [[1968.50,657.16,993.31],[0.992005,-0.00304271,-0.00256524,0.126133],[0,-1,-1,0],[9E+09,9E+09,9E+09,9E+09,9E+09,9E+09]],vmax,z30,t_pinza;
            MoveJ [[1968.50,403.91,1167.45],[0.972932,-0.00329954,-0.00222737,0.231058],[0,-1,-2,0],[9E+09,9E+09,9E+09,9E+09,9E+09,9E+09]],vmax,fine,t_pinza;
            !
            rAnticol acA3_R1,aaDeactivate;
            !
            MoveJ [[1979.43,615.06,1417.10],[0.635267,-0.199494,-0.208583,0.716331],[-1,0,-3,0],[9E+09,9E+09,9E+09,9E+09,9E+09,9E+09]],vmax,z30,t_pinza;
            MoveJ [[2279.61,373.45,1333.27],[0.0968186,-0.538752,-0.108532,0.829815],[0,0,-3,0],[9E+09,9E+09,9E+09,9E+09,9E+09,9E+09]],vmax,z30,t_pinza;
            MoveJ [[2265.50,359.28,1101.88],[0.130785,-0.654846,-0.156527,0.727717],[0,-1,-3,1],[9E+09,9E+09,9E+09,9E+09,9E+09,9E+09]],vmax,z10,t_pinza;
            !
            ! Punto nº 7
            SetGO go_Progr_soldad,7;
            MoveL [[2235.23,362.20,1049.79],[0.100898,-0.691058,-0.0935319,0.709585],[0,0,-3,1],[9E+09,9E+09,9E+09,9E+09,9E+09,9E+09]],v2500,fine,t_pinza;
            !CloseHighLift gun1;
            Soldar\Aproximado;
            !
            MoveL [[2249.09,362.20,1049.79],[0.100894,-0.691058,-0.0935316,0.709585],[0,0,-3,1],[9E+09,9E+09,9E+09,9E+09,9E+09,9E+09]],vmax,z5,t_pinza;
            !
            ! Punto nº 3
            SetGO go_Progr_soldad,3;
            MoveL [[2245.93,359.03,1075.61],[0.137187,-0.483453,-0.162303,0.849182],[0,-2,-2,1],[9E+09,9E+09,9E+09,9E+09,9E+09,9E+09]],v2500,fine,t_pinza;
            Soldar\AbrirTotal;
            !OpenHighLift gun1;
            !
            MoveL [[2259.67,362.20,1085.83],[0.100894,-0.691058,-0.0935318,0.709585],[0,0,-4,1],[9E+09,9E+09,9E+09,9E+09,9E+09,9E+09]],vmax,z5,t_pinza;
            MoveL [[2259.67,362.20,1085.82],[0.200841,-0.820522,-0.233956,0.481322],[0,0,-3,1],[9E+09,9E+09,9E+09,9E+09,9E+09,9E+09]],vmax,z5,t_pinza;
            !
            ! Punto nº 8
            SetGO go_Progr_soldad,8;
            MoveL [[2236.72,362.47,1089.81],[0.241047,-0.835778,-0.19433,0.45344],[0,0,-3,1],[9E+09,9E+09,9E+09,9E+09,9E+09,9E+09]],v2500,fine,t_pinza;
            !CloseHighLift gun1;
            Soldar\AbrirTotal;
            !OpenHighLift gun1;
            !
            MoveL [[2259.67,362.20,1085.82],[0.200842,-0.820522,-0.233956,0.481322],[0,0,-3,1],[9E+09,9E+09,9E+09,9E+09,9E+09,9E+09]],vmax,z10,t_pinza;
            rAnticol acA2_R1,aaActivate;
            MoveL [[2259.68,362.20,1233.98],[0.11445,-0.779777,-0.179928,0.588621],[0,0,-3,1],[9E+09,9E+09,9E+09,9E+09,9E+09,9E+09]],vmax,fine,t_pinza;
            !
            !
            MoveJ [[2314.64,632.24,1332.98],[0.258024,-0.507656,-0.213456,0.793817],[0,-1,-3,0],[9E+09,9E+09,9E+09,9E+09,9E+09,9E+09]],vmax,z30,t_pinza;
            MoveL [[2257.09,640.44,1114.29],[0.0851627,-0.541203,-0.101832,0.830347],[0,-1,-3,0],[9E+09,9E+09,9E+09,9E+09,9E+09,9E+09]],vmax,fine,t_pinza;
            !
            !CloseHighLift gun1;
            ! Punto nº 4
            SetGO go_Progr_soldad,4;
            MoveL [[2252.37,639.90,1115.92],[0.0804485,-0.450576,-0.114582,0.881692],[0,-1,-3,0],[9E+09,9E+09,9E+09,9E+09,9E+09,9E+09]],v2500,fine,t_pinza;
            Soldar\AbrirTotal;
            !OpenHighLift gun1;
            !
            MoveL [[2262.34,639.91,1111.66],[0.074617,-0.555203,-0.0931449,0.823108],[0,-1,-3,0],[9E+09,9E+09,9E+09,9E+09,9E+09,9E+09]],vmax,z10,t_pinza;
            MoveL [[2262.34,639.92,1111.66],[0.0823872,-0.624309,-0.0863418,0.772007],[0,-2,-2,0],[9E+09,9E+09,9E+09,9E+09,9E+09,9E+09]],vmax,fine,t_pinza;
            !
            !CloseHighLift gun1;
            ! Punto nº 5
            SetGO go_Progr_soldad,5;
            MoveL [[2242.78,645.90,1073.34],[0.0819133,-0.652369,-0.080084,0.749194],[0,-2,-2,0],[9E+09,9E+09,9E+09,9E+09,9E+09,9E+09]],v2500,fine,t_pinza;
            Soldar\Aproximado;
            !
            ! Punto nº 6
            SetGO go_Progr_soldad,6;
            MoveL [[2242.83,645.94,1092.28],[0.0959087,-0.651528,-0.0930604,0.746761],[0,-2,-2,0],[9E+09,9E+09,9E+09,9E+09,9E+09,9E+09]],v2500,fine,t_pinza;
            Soldar\AbrirTotal;
            !OpenHighLift gun1;
            !
            MoveL [[2262.34,639.92,1111.66],[0.0823854,-0.62431,-0.0863415,0.772007],[0,-2,-2,0],[9E+09,9E+09,9E+09,9E+09,9E+09,9E+09]],vmax,z30,t_pinza;
            MoveL [[2276.32,624.12,1253.14],[0.128914,-0.663163,-0.119205,0.727589],[0,-2,-2,0],[9E+09,9E+09,9E+09,9E+09,9E+09,9E+09]],vmax,z30,t_pinza;
            MoveL [[2279.33,429.17,1288.18],[0.128913,-0.663161,-0.119205,0.727591],[0,-2,-2,0],[9E+09,9E+09,9E+09,9E+09,9E+09,9E+09]],vmax,fine,t_pinza;
            !
            rAnticol acA2_R1,aaDeactivate;
            !
            MoveL [[1778.73,363.05,1417.11],[0.635267,-0.199497,-0.208584,0.71633],[-1,0,-3,0],[9E+09,9E+09,9E+09,9E+09,9E+09,9E+09]],vmax,z30,t_pinza;
            MoveL [[1757.30,299.73,1167.45],[0.972932,-0.00330079,-0.00222888,0.231056],[0,-1,-2,0],[9E+09,9E+09,9E+09,9E+09,9E+09,9E+09]],vmax,z30,t_pinza;
            !
            !Abrir Brida I
            !Set do_Move_Fix1;
            !WHILE di_FixMoved1=0 DO
            !TPWrite"Esperando centradores retrocedidos en útil";
            !ENDWHILE
            !TPErase;
            !WaitTime 1;
            !Reset do_Move_Fix1;
            !
            MoveL [[2090.25,397.45,973.71],[0.998031,-0.00251087,-0.00309492,-0.0626029],[0,-1,-1,0],[9E+09,9E+09,9E+09,9E+09,9E+09,9E+09]],vmax,z30,t_pinza;
            MoveL [[2252.15,367.75,997.61],[0.995736,0.0836806,-0.000305963,-0.0388198],[0,0,-1,0],[9E+09,9E+09,9E+09,9E+09,9E+09,9E+09]],vmax,fine,t_pinza;
            !
            !CloseHighLift gun1;
            ! Punto nº 9
            SetGO go_Progr_soldad,9;
            MoveL [[2255.67,367.75,1004.83],[0.995737,0.0836762,-0.000283113,-0.0388156],[0,0,-1,0],[9E+09,9E+09,9E+09,9E+09,9E+09,9E+09]],v2500,fine,t_pinza;
            Soldar\AbrirTotal;
            !OpenHighLift gun1;
            !
            MoveL [[2323.41,347.51,947.18],[0.99308,0.0509803,0.00881673,-0.105429],[0,0,-1,0],[9E+09,9E+09,9E+09,9E+09,9E+09,9E+09]],vmax,z5,t_pinza;
            !
            ! Punto nº 10
            !SetGO go_Progr_soldad, 10;
            !MoveL [[2307.18,368.35,1006.26],[0.99333,0.0821927,-0.0125177,-0.079899],[0,0,-1,0],[9E+09,9E+09,9E+09,9E+09,9E+09,9E+09]], v2500, fine, t_pinza;
            !CloseHighLift gun1;
            !Soldar\Aproximado;
            !OpenHighLift gun1;
            !
            MoveL [[2313.95,365.11,947.18],[0.993429,0.0836454,0.00302671,-0.0780558],[0,0,-1,0],[9E+09,9E+09,9E+09,9E+09,9E+09,9E+09]],vmax,z30,t_pinza;
            MoveL [[2338.19,343.95,997.01],[0.989735,0.0460721,-0.0441282,-0.127887],[0,0,-1,0],[9E+09,9E+09,9E+09,9E+09,9E+09,9E+09]],vmax,fine,t_pinza;
            !
            !CloseHighLift gun1;
            ! Punto nº 11
            !SetGO go_Progr_soldad, 11;
            !MoveL [[2341.18,342.87,1001.29],[0.990315,0.0462949,-0.0439216,-0.123307],[0,0,-1,0],[9E+09,9E+09,9E+09,9E+09,9E+09,9E+09]], v2500, fine, t_pinza;
            !Soldar\Aproximado;
            !OpenHighLift gun1;
            !
            MoveL [[2313.95,365.11,947.18],[0.993429,0.0836454,0.00302671,-0.0780558],[0,0,-1,0],[9E+09,9E+09,9E+09,9E+09,9E+09,9E+09]],vmax,z30,t_pinza;
            MoveL [[2333.66,309.41,947.18],[0.981734,0.082993,0.0108567,-0.170859],[0,0,-1,0],[9E+09,9E+09,9E+09,9E+09,9E+09,9E+09]],vmax,z30,t_pinza;
            !
            ! Punto nº 12
            SetGO go_Progr_soldad,12;
            MoveL [[2338.09,287.85,991.61],[0.985592,0.0585502,-0.0318934,-0.155446],[0,0,-1,0],[9E+09,9E+09,9E+09,9E+09,9E+09,9E+09]],v2500,fine,t_pinza;
            !CloseHighLift gun1;
            Soldar\AbrirTotal;
            !OpenHighLift gun1;
            !
            MoveL [[2331.52,272.27,981.06],[0.980288,0.0502382,-0.017321,-0.190293],[0,0,-1,0],[9E+09,9E+09,9E+09,9E+09,9E+09,9E+09]],vmax,z30,t_pinza;
            !
            ! Punto nº 13
            SetGO go_Progr_soldad,13;
            MoveL [[2323.74,256.09,985.49],[0.98044,0.0535063,-0.00045919,-0.189403],[0,0,-1,0],[9E+09,9E+09,9E+09,9E+09,9E+09,9E+09]],v2500,fine,t_pinza;
            !CloseHighLift gun1;
            Soldar\Aproximado;
            !
            ! Punto nº 14
            SetGO go_Progr_soldad,14;
            MoveL [[2323.75,243.78,983.47],[0.980441,0.0535076,-0.000465159,-0.1894],[0,0,-1,0],[9E+09,9E+09,9E+09,9E+09,9E+09,9E+09]],v2500,fine,t_pinza;
            Soldar\AbrirTotal;
            !OpenHighLift gun1;
            !
            MoveL [[2323.75,243.78,945.55],[0.978405,0.0656845,0.063161,-0.185528],[0,0,-1,0],[9E+09,9E+09,9E+09,9E+09,9E+09,9E+09]],vmax,z30,t_pinza;
            MoveL [[2349.02,243.76,945.56],[0.978405,0.0656814,0.0631564,-0.185529],[0,0,-1,0],[9E+09,9E+09,9E+09,9E+09,9E+09,9E+09]],vmax,z5,t_pinza;
            MoveL [[2353.26,243.78,965.26],[0.980342,0.0509118,-0.013881,-0.190116],[0,0,-1,0],[9E+09,9E+09,9E+09,9E+09,9E+09,9E+09]],vmax,z5,t_pinza;
            !
            ! Punto nº 15
            SetGO go_Progr_soldad,15;
            MoveL [[2349.62,229.16,984.42],[0.97888,0.0428319,-0.0552952,-0.192096],[0,0,-1,0],[9E+09,9E+09,9E+09,9E+09,9E+09,9E+09]],v2500,fine,t_pinza;
            !CloseHighLift gun1;
            Soldar\Aproximado;
            !
            ! Punto nº 16
            SetGO go_Progr_soldad,16;
            MoveL [[2346.91,210.11,981.46],[0.978881,0.0428342,-0.0552852,-0.192094],[0,0,-1,0],[9E+09,9E+09,9E+09,9E+09,9E+09,9E+09]],v2500,fine,t_pinza;
            Soldar\Aproximado;
            !
            MoveL [[2346.92,210.10,974.80],[0.972398,0.0445474,-0.053935,-0.222597],[0,0,-1,0],[9E+09,9E+09,9E+09,9E+09,9E+09,9E+09]],vmax,z5,t_pinza;
            !
            !rAnticol acA3_R1, aaActivate;
            ! Punto nº 17
            SetGO go_Progr_soldad,17;
            MoveL [[2340.30,200.74,982.65],[0.968806,0.0454111,-0.0532441,-0.237734],[0,0,-1,0],[9E+09,9E+09,9E+09,9E+09,9E+09,9E+09]],v2500,fine,t_pinza;
            Soldar\AbrirTotal;
            !OpenHighLift gun1;
            !
            MoveL [[2338.64,208.48,972.74],[0.968806,0.0454103,-0.0532263,-0.237741],[0,0,-1,0],[9E+09,9E+09,9E+09,9E+09,9E+09,9E+09]],vmax,z5,t_pinza;
            MoveL [[2307.07,227.21,971.29],[0.975845,0.0436989,-0.0546368,-0.206956],[0,0,-1,0],[9E+09,9E+09,9E+09,9E+09,9E+09,9E+09]],vmax,z20,t_pinza;
            !
            !rAnticol acA3_R1, aaDeactivate;
            !
            MoveL [[2262.82,272.65,971.29],[0.987043,0.0401312,-0.0573073,-0.144401],[0,0,-1,0],[9E+09,9E+09,9E+09,9E+09,9E+09,9E+09]],vmax,z20,t_pinza;
            MoveL [[2166.81,311.30,965.08],[0.995658,0.0277851,-0.0608228,-0.0647629],[0,0,-1,0],[9E+09,9E+09,9E+09,9E+09,9E+09,9E+09]],vmax,z20,t_pinza;
            MoveL [[2069.47,351.36,965.09],[0.997675,0.0229465,-0.0628092,0.0131345],[0,0,-1,0],[9E+09,9E+09,9E+09,9E+09,9E+09,9E+09]],vmax,z20,t_pinza;
            MoveL [[1833.03,351.34,1066.92],[0.993495,0.0178999,-0.064428,0.0921711],[0,0,-2,0],[9E+09,9E+09,9E+09,9E+09,9E+09,9E+09]],vmax,z50,t_pinza;
            !
        ENDIF
        !
        !Abrir Bridas
        Set do_Move_Fix1;
        !
        IF di_Util1_Fase1=1 THEN
            !
            MoveL [[1816.20,-270.45,939.95],[0.997949,-0.045345,-0.00399439,0.0450048],[-1,-1,-2,0],[9E+09,9E+09,9E+09,9E+09,9E+09,9E+09]],vmax,fine,t_Pinza;
            MoveL [[1880.41,-270.45,939.95],[0.997949,-0.045342,-0.00399436,0.0450018],[-1,-1,-2,0],[9E+09,9E+09,9E+09,9E+09,9E+09,9E+09]],vmax,z30,t_pinza;
            MoveL [[1879.48,-250.10,965.02],[0.997954,-0.0456413,0.00287003,0.0446793],[-1,-1,-2,0],[9E+09,9E+09,9E+09,9E+09,9E+09,9E+09]],vmax,fine,t_pinza;
            !
            !CloseHighLift gun1;
            ! Punto nº 1
            SetGO go_Progr_soldad,1;
            MoveL [[1880.79,-243.61,979.28],[0.997952,-0.0453769,-0.0033127,0.0449747],[-1,-1,-2,0],[9E+09,9E+09,9E+09,9E+09,9E+09,9E+09]],v2500,fine,t_pinza;
            Soldar\AbrirTotal;
            !OpenHighLift gun1;
            !
            MoveL [[1886.52,-256.78,919.78],[0.997953,-0.0456478,0.00286248,0.0446903],[-1,-1,-2,0],[9E+09,9E+09,9E+09,9E+09,9E+09,9E+09]],vmax,z30,t_pinza;
            MoveL [[1913.56,-205.22,919.73],[0.997953,-0.045648,0.00287374,0.0446919],[-1,-1,-2,0],[9E+09,9E+09,9E+09,9E+09,9E+09,9E+09]],vmax,z30,t_pinza;
            MoveL [[1913.57,-201.47,962.17],[0.997824,-0.0447751,-0.0163587,0.0455574],[-1,-1,-2,0],[9E+09,9E+09,9E+09,9E+09,9E+09,9E+09]],vmax,fine,t_pinza;
            !
            !CloseHighLift gun1;
            ! Punto nº 2
            SetGO go_Progr_soldad,2;
            MoveL [[1905.33,-195.94,975.14],[0.99626,-0.049851,-0.0523852,0.0472928],[-1,-1,-2,0],[9E+09,9E+09,9E+09,9E+09,9E+09,9E+09]],v2500,fine,t_pinza;
            Soldar\AbrirTotal;
            !OpenHighLift gun1;
            !
            MoveL [[1905.18,-201.34,916.50],[0.997859,-0.0445315,-0.0149463,0.0455097],[-1,-1,-2,0],[9E+09,9E+09,9E+09,9E+09,9E+09,9E+09]],vmax,fine,t_pinza;
            MoveL [[1672.80,-201.49,925.56],[0.997825,-0.0447696,-0.0163368,0.0455493],[-1,-1,-2,0],[9E+09,9E+09,9E+09,9E+09,9E+09,9E+09]],vmax,z30,t_pinza;
            !
        ENDIF
        MoveJ [[1360.72,0.85,1358.61],[0.99991,-0.000629581,0.0129562,-0.00333958],[0,-1,-1,0],[9E+09,9E+09,9E+09,9E+09,9E+09,9E+09]],vmax,fine,t_pinza;
        !
        !WHILE di_FixMoved1=0 DO
        !TPWrite"Esperando bridas retrocedidas en útil";
        !ENDWHILE
        TPErase;
        !
        ! Posisción reposo 
        MoveAbsJ home_pos_rob,v3000,fine,t_pinza;
        Set do_Mesa_Free;
        !
        rAnticol acA4_R3,aaDeactivate;
        !
        home_robot;
        !
        RETURN ;
    ENDPROC

    PROC SE380_M1_NEW()
        TPErase;
        TPWrite "----------------------------------------";
        TPWrite "   [  MB ABRERA ]  -  [Grupo GESTAMP]   ";
        TPWrite "----------------------------------------";
        TPWrite "           [DPTO. de  robotica]         ";
        TPWrite "----------------------------------------";
        TPWrite "                                        ";
        TPWrite "----------------------------------------";
        TPWrite "Soldando util 1 Ref: Revestimiento SE380";
        TPWrite "----------------------------------------";
        TPWrite "                                        ";
        TPWrite "----------------------------------------";
        !
        SetDO do_Abrir_Agua,1;
        WaitUntil di_flow1_ok=1 AND di_flow2_ok=1;
        ! Posisci?n reposo 
        MoveAbsJ home_pos_rob,v3000,fine,t_pinza;
        !
        WHILE di_util1_OK=0 DO
            TPWrite "Esperando ?til en condiciones para soldar";
        ENDWHILE
        TPErase;
        !
        rAnticol acA4_R3,aaActivate;
        !
        OpenHighLift gun1;
        !
        ! Mesa en posicion
        Reset do_Mesa_Free;
        !
        !MoveJ [[1653.73,-201.29,918.55],[0.999125,-4.3884E-06,-0.00399353,0.041644],[-1,0,-2,0],[9E+09,9E+09,9E+09,9E+09,9E+09,9E+09]], vmax, fine, t_Pinza;
        !
        !
        IF di_Util1_Fase2=1 THEN
            !
            !MoveJ [[1979.43,615.06,1417.10],[0.635267,-0.199494,-0.208583,0.716331],[-1,0,-3,0],[9E+09,9E+09,9E+09,9E+09,9E+09,9E+09]], vmax, z30, t_pinza;
            MoveJ [[2366.42,293.99,1317.00],[0.11258,-0.738466,-0.0935771,0.658208],[0,0,-3,1],[9E+09,9E+09,9E+09,9E+09,9E+09,9E+09]],vmax,z30,t_pinza;
            MoveJ [[2265.64,366.38,1109.36],[0.100907,-0.701776,-0.0966033,0.698567],[0,0,-3,1],[9E+09,9E+09,9E+09,9E+09,9E+09,9E+09]],vmax,z10,t_pinza;
            !
            ! Punto n? 7
            SetGO go_Progr_soldad,21;
            MoveL [[2235.23,362.20,1049.79],[0.100897,-0.691058,-0.0935323,0.709585],[0,0,-3,1],[9E+09,9E+09,9E+09,9E+09,9E+09,9E+09]],v2500,fine,t_pinza;
            !CloseHighLift gun1;
            Soldar\Aproximado;
            !
            MoveL [[2249.10,362.20,1049.78],[0.100893,-0.691057,-0.0935317,0.709586],[0,0,-3,1],[9E+09,9E+09,9E+09,9E+09,9E+09,9E+09]],vmax,z5,t_pinza;
            !
            ! Punto n? 3
            SetGO go_Progr_soldad,22;
            MoveL [[2247.54,359.27,1071.18],[0.0999048,-0.510484,-0.177826,0.835346],[0,-2,-2,1],[9E+09,9E+09,9E+09,9E+09,9E+09,9E+09]],v2500,fine,t_pinza;
            Soldar\AbrirTotal;
            !OpenHighLift gun1;
            !
            MoveL [[2259.67,362.20,1085.83],[0.100894,-0.691058,-0.0935318,0.709585],[0,0,-4,1],[9E+09,9E+09,9E+09,9E+09,9E+09,9E+09]],vmax,z5,t_pinza;
            MoveL [[2259.67,362.20,1085.82],[0.200841,-0.820522,-0.233956,0.481322],[0,0,-3,1],[9E+09,9E+09,9E+09,9E+09,9E+09,9E+09]],vmax,z5,t_pinza;
            !
            ! Punto n? 8
            SetGO go_Progr_soldad,23;
            MoveL [[2236.72,362.47,1089.81],[0.241047,-0.835778,-0.19433,0.45344],[0,0,-3,1],[9E+09,9E+09,9E+09,9E+09,9E+09,9E+09]],v2500,fine,t_pinza;
            !CloseHighLift gun1;
            Soldar\AbrirTotal;
            !OpenHighLift gun1;
            !
            MoveL [[2259.67,362.20,1085.82],[0.200842,-0.820522,-0.233956,0.481322],[0,0,-3,1],[9E+09,9E+09,9E+09,9E+09,9E+09,9E+09]],vmax,z10,t_pinza;
            MoveL [[2259.68,362.20,1233.98],[0.11445,-0.779777,-0.179928,0.588621],[0,0,-3,1],[9E+09,9E+09,9E+09,9E+09,9E+09,9E+09]],vmax,fine,t_pinza;
            !
            !
            MoveJ [[2314.64,632.24,1332.98],[0.258024,-0.507656,-0.213456,0.793817],[0,-1,-3,0],[9E+09,9E+09,9E+09,9E+09,9E+09,9E+09]],vmax,z30,t_pinza;
            rAnticol acA1_R1,aaActivate;
            MoveL [[2257.09,640.44,1114.29],[0.0851627,-0.541203,-0.101832,0.830347],[0,-1,-3,0],[9E+09,9E+09,9E+09,9E+09,9E+09,9E+09]],vmax,fine,t_pinza;
            !
            !
            !CloseHighLift gun1;
            ! Punto n? 4
            SetGO go_Progr_soldad,24;
            MoveL [[2252.37,639.90,1115.92],[0.0804485,-0.450576,-0.114582,0.881692],[0,-1,-3,0],[9E+09,9E+09,9E+09,9E+09,9E+09,9E+09]],v2500,fine,t_pinza;
            Soldar\AbrirTotal;
            !OpenHighLift gun1;
            !
            MoveL [[2262.34,639.91,1111.66],[0.074617,-0.555203,-0.0931449,0.823108],[0,-1,-3,0],[9E+09,9E+09,9E+09,9E+09,9E+09,9E+09]],vmax,z10,t_pinza;
            MoveL [[2262.34,639.92,1111.66],[0.0823872,-0.624309,-0.0863418,0.772007],[0,-2,-2,0],[9E+09,9E+09,9E+09,9E+09,9E+09,9E+09]],vmax,fine,t_pinza;
            !
            !CloseHighLift gun1;
            ! Punto n? 5
            SetGO go_Progr_soldad,25;
            MoveL [[2242.78,645.90,1073.34],[0.0819133,-0.652369,-0.080084,0.749194],[0,-2,-2,0],[9E+09,9E+09,9E+09,9E+09,9E+09,9E+09]],v2500,fine,t_pinza;
            Soldar\Aproximado;
            !
            ! Punto n? 6
            SetGO go_Progr_soldad,26;
            MoveL [[2242.83,645.94,1092.28],[0.0959087,-0.651528,-0.0930604,0.746761],[0,-2,-2,0],[9E+09,9E+09,9E+09,9E+09,9E+09,9E+09]],v2500,fine,t_pinza;
            Soldar\AbrirTotal;
            !OpenHighLift gun1;
            !
            MoveL [[2262.34,639.92,1111.66],[0.0823854,-0.62431,-0.0863415,0.772007],[0,-2,-2,0],[9E+09,9E+09,9E+09,9E+09,9E+09,9E+09]],vmax,z30,t_pinza;
            MoveL [[2276.32,624.12,1253.14],[0.128914,-0.663163,-0.119205,0.727589],[0,-2,-2,0],[9E+09,9E+09,9E+09,9E+09,9E+09,9E+09]],vmax,z30,t_pinza;
            !
            rAnticol acA1_R1,aaDeactivate;
            !
            MoveL [[1973.25,209.54,1144.00],[0.731338,-0.45678,-0.0874922,0.498841],[0,-1,-2,0],[9E+09,9E+09,9E+09,9E+09,9E+09,9E+09]],vmax,z30,t_pinza;
            !
            !
            MoveL [[1968.50,397.33,993.31],[0.999978,-0.00270977,-0.00291401,0.00537957],[0,-1,-1,0],[9E+09,9E+09,9E+09,9E+09,9E+09,9E+09]],vmax,z30,t_pinza;
            !
            !
            MoveL [[2090.25,397.45,973.71],[0.998031,-0.00251087,-0.00309492,-0.0626029],[0,-1,-1,0],[9E+09,9E+09,9E+09,9E+09,9E+09,9E+09]],vmax,z30,t_pinza;
            MoveL [[2252.15,367.75,997.61],[0.995736,0.0836806,-0.000305963,-0.0388198],[0,0,-1,0],[9E+09,9E+09,9E+09,9E+09,9E+09,9E+09]],vmax,fine,t_pinza;
            !
            !CloseHighLift gun1;
            ! Punto n? 9
            SetGO go_Progr_soldad,27;
            MoveL [[2255.67,367.75,1004.83],[0.995737,0.0836762,-0.000283113,-0.0388156],[0,0,-1,0],[9E+09,9E+09,9E+09,9E+09,9E+09,9E+09]],v2500,fine,t_pinza;
            Soldar\AbrirTotal;
            !OpenHighLift gun1;
            !
            MoveL [[2323.41,347.51,947.18],[0.99308,0.0509803,0.00881673,-0.105429],[0,0,-1,0],[9E+09,9E+09,9E+09,9E+09,9E+09,9E+09]],vmax,z5,t_pinza;
            !
            ! Punto n? 10
            SetGO go_Progr_soldad, 28;
            MoveL [[2307.18,368.35,1006.26],[0.99333,0.0821927,-0.0125177,-0.079899],[0,0,-1,0],[9E+09,9E+09,9E+09,9E+09,9E+09,9E+09]], v2500, fine, t_pinza;
            !CloseHighLift gun1;
            Soldar\AbrirTotal;
            !OpenHighLift gun1;
            !
            MoveL [[2313.95,365.11,947.18],[0.993429,0.0836454,0.00302671,-0.0780558],[0,0,-1,0],[9E+09,9E+09,9E+09,9E+09,9E+09,9E+09]],vmax,z30,t_pinza;
            MoveL [[2338.19,343.95,997.01],[0.989735,0.0460721,-0.0441282,-0.127887],[0,0,-1,0],[9E+09,9E+09,9E+09,9E+09,9E+09,9E+09]], vmax, fine, t_pinza;
            !
            !CloseHighLift gun1;
            !Punto n? 11
            SetGO go_Progr_soldad, 29;
            MoveL [[2341.18,342.87,1001.29],[0.990315,0.0462949,-0.0439216,-0.123307],[0,0,-1,0],[9E+09,9E+09,9E+09,9E+09,9E+09,9E+09]], v2500, fine, t_pinza;
            Soldar\AbrirTotal;
            !OpenHighLift gun1;
            !
            MoveL [[2337.28,342.15,950.75],[0.986726,0.0655107,-0.0154868,-0.147785],[0,0,-1,0],[9E+09,9E+09,9E+09,9E+09,9E+09,9E+09]],vmax,z30,t_pinza;
            MoveL [[2337.28,304.79,950.75],[0.986726,0.0655092,-0.015487,-0.147784],[0,0,-1,0],[9E+09,9E+09,9E+09,9E+09,9E+09,9E+09]],vmax,z30,t_pinza;
            !
            ! Punto n? 12
            SetGO go_Progr_soldad,30;
            MoveL [[2338.09,287.85,991.61],[0.985592,0.0585502,-0.0318934,-0.155446],[0,0,-1,0],[9E+09,9E+09,9E+09,9E+09,9E+09,9E+09]],v2500,fine,t_pinza;
            !CloseHighLift gun1;
            Soldar\Aproximado;
            !OpenHighLift gun1;
            !
            MoveL [[2331.52,272.27,981.06],[0.980288,0.0502382,-0.017321,-0.190293],[0,0,-1,0],[9E+09,9E+09,9E+09,9E+09,9E+09,9E+09]],vmax,z30,t_pinza;
            !
            ! Punto n? 13
            SetGO go_Progr_soldad,34;
            MoveL [[2323.74,256.09,985.49],[0.98044,0.0535063,-0.00045919,-0.189403],[0,0,-1,0],[9E+09,9E+09,9E+09,9E+09,9E+09,9E+09]],v2500,fine,t_pinza;
            !CloseHighLift gun1;
            Soldar\Aproximado;
            !
            ! Punto n? 14
            SetGO go_Progr_soldad,35;
            MoveL [[2323.75,243.78,983.47],[0.980441,0.0535076,-0.000465159,-0.1894],[0,0,-1,0],[9E+09,9E+09,9E+09,9E+09,9E+09,9E+09]],v2500,fine,t_pinza;
            Soldar\AbrirTotal;
            !OpenHighLift gun1;
            !
            MoveL [[2323.75,243.78,945.55],[0.978405,0.0656845,0.063161,-0.185528],[0,0,-1,0],[9E+09,9E+09,9E+09,9E+09,9E+09,9E+09]],vmax,z30,t_pinza;
            MoveL [[2349.02,243.76,945.56],[0.978405,0.0656814,0.0631564,-0.185529],[0,0,-1,0],[9E+09,9E+09,9E+09,9E+09,9E+09,9E+09]],vmax,z5,t_pinza;
            MoveL [[2353.26,243.78,965.26],[0.980342,0.0509118,-0.013881,-0.190116],[0,0,-1,0],[9E+09,9E+09,9E+09,9E+09,9E+09,9E+09]],vmax,z5,t_pinza;
            !
            ! Punto n? 15
            SetGO go_Progr_soldad,36;
            MoveL [[2349.62,229.16,984.42],[0.97888,0.0428319,-0.0552952,-0.192096],[0,0,-1,0],[9E+09,9E+09,9E+09,9E+09,9E+09,9E+09]],v2500,fine,t_pinza;
            !CloseHighLift gun1;
            Soldar\Aproximado;
            !
            ! Punto n? 16
            SetGO go_Progr_soldad,37;
            MoveL [[2346.91,210.11,981.46],[0.978881,0.0428342,-0.0552852,-0.192094],[0,0,-1,0],[9E+09,9E+09,9E+09,9E+09,9E+09,9E+09]],v2500,fine,t_pinza;
            Soldar\Aproximado;
            !
            MoveL [[2346.92,210.10,974.80],[0.972398,0.0445474,-0.053935,-0.222597],[0,0,-1,0],[9E+09,9E+09,9E+09,9E+09,9E+09,9E+09]],vmax,z5,t_pinza;
            !
            !rAnticol acA3_R1, aaActivate;
            ! Punto n? 17
            SetGO go_Progr_soldad,31;
            MoveL [[2340.30,200.74,982.65],[0.968806,0.0454111,-0.0532441,-0.237734],[0,0,-1,0],[9E+09,9E+09,9E+09,9E+09,9E+09,9E+09]],v2500,fine,t_pinza;
            Soldar\AbrirTotal;
            !OpenHighLift gun1;
            !
            MoveL [[2338.64,208.48,972.74],[0.968806,0.0454103,-0.0532263,-0.237741],[0,0,-1,0],[9E+09,9E+09,9E+09,9E+09,9E+09,9E+09]],vmax,z5,t_pinza;
            MoveL [[2307.07,227.21,971.29],[0.975845,0.0436989,-0.0546368,-0.206956],[0,0,-1,0],[9E+09,9E+09,9E+09,9E+09,9E+09,9E+09]],vmax,z20,t_pinza;
            !
            !
            !
            MoveL [[2262.82,272.65,971.29],[0.987043,0.0401312,-0.0573073,-0.144401],[0,0,-1,0],[9E+09,9E+09,9E+09,9E+09,9E+09,9E+09]],vmax,z20,t_pinza;
            MoveL [[2166.81,311.30,965.08],[0.995658,0.0277851,-0.0608228,-0.0647629],[0,0,-1,0],[9E+09,9E+09,9E+09,9E+09,9E+09,9E+09]],vmax,z20,t_pinza;
            MoveL [[2069.47,351.36,965.09],[0.997675,0.0229465,-0.0628092,0.0131345],[0,0,-1,0],[9E+09,9E+09,9E+09,9E+09,9E+09,9E+09]],vmax,z20,t_pinza;
            !
            rAnticol acA2_R1,aaActivate;
            !
            MoveL [[2092.30,685.90,974.14],[0.991118,0.0122771,-0.0634409,0.116232],[0,-1,-1,0],[9E+09,9E+09,9E+09,9E+09,9E+09,9E+09]],vmax,z30,t_pinza;
            MoveL [[2265.73,655.15,1047.18],[0.998007,-0.00420454,-0.0550941,-0.0304825],[0,-1,-1,0],[9E+09,9E+09,9E+09,9E+09,9E+09,9E+09]],vmax,fine,t_pinza;
            !
            !
            !CloseHighLift gun1;
            ! Punto n? 18
            SetGO go_Progr_soldad,32;
            MoveL [[2277.66,659.78,1053.92],[0.999172,-0.00365364,-0.0325158,-0.0241828],[0,-1,-1,0],[9E+09,9E+09,9E+09,9E+09,9E+09,9E+09]],v2500,fine,t_pinza;
            Soldar\Aproximado;
            !
            ! Punto n? 19
            SetGO go_Progr_soldad,33;
            MoveL [[2308.30,668.53,1054.03],[0.999621,0.0256906,-0.00778409,-0.00617546],[0,0,-1,0],[9E+09,9E+09,9E+09,9E+09,9E+09,9E+09]],v2500,fine,t_pinza;
            Soldar\AbrirTotal;
            !OpenHighLift gun1;
            !
            MoveL [[2265.73,655.13,1047.17],[0.998301,-0.00403022,-0.0494742,-0.0305112],[0,-1,-1,0],[9E+09,9E+09,9E+09,9E+09,9E+09,9E+09]],vmax,z30,t_pinza;
            MoveL [[2207.93,663.43,1036.86],[0.999369,-0.00262027,-0.0354119,0.000376814],[0,-1,-1,0],[9E+09,9E+09,9E+09,9E+09,9E+09,9E+09]],vmax,z30,t_pinza;
            MoveL [[1968.50,657.16,993.31],[0.992005,-0.00304271,-0.00256524,0.126133],[0,-1,-1,0],[9E+09,9E+09,9E+09,9E+09,9E+09,9E+09]],vmax,z30,t_pinza;
            !MoveJ [[1968.50,403.91,1167.45],[0.972932,-0.00329954,-0.00222737,0.231058],[0,-1,-2,0],[9E+09,9E+09,9E+09,9E+09,9E+09,9E+09]], vmax, fine, t_pinza;
            !
            !rAnticol acA3_R1,aaDeactivate;
            !
            !MoveL [[2279.33,429.17,1288.18],[0.128913,-0.663161,-0.119205,0.727591],[0,-2,-2,0],[9E+09,9E+09,9E+09,9E+09,9E+09,9E+09]], vmax, fine, t_pinza;
            !
            rAnticol acA2_R1,aaDeactivate;
            !
            !MoveL [[1778.73,363.05,1417.11],[0.635267,-0.199497,-0.208584,0.71633],[-1,0,-3,0],[9E+09,9E+09,9E+09,9E+09,9E+09,9E+09]], vmax, z30, t_pinza;
            !MoveL [[1757.30,299.73,1167.45],[0.972932,-0.00330079,-0.00222888,0.231056],[0,-1,-2,0],[9E+09,9E+09,9E+09,9E+09,9E+09,9E+09]], vmax, z30, t_pinza;
            !
            !Abrir Brida I
            !Set do_Move_Fix1;
            !WHILE di_FixMoved1=0 DO
            !TPWrite"Esperando centradores retrocedidos en ?til";
            !ENDWHILE
            !TPErase;
            !WaitTime 1;
            !Reset do_Move_Fix1;
            !
            !
            !rAnticol acA3_R1, aaDeactivate;
            !
            MoveL [[1867.76,351.35,1064.96],[0.995043,0.0190928,-0.0640823,0.0736045],[0,0,-1,0],[9E+09,9E+09,9E+09,9E+09,9E+09,9E+09]],vmax,z50,t_pinza;
            MoveL [[1773.43,-270.45,939.95],[0.997949,-0.0453442,-0.00399343,0.0450021],[-1,-1,-2,0],[9E+09,9E+09,9E+09,9E+09,9E+09,9E+09]],vmax,fine,t_Pinza;
            !
        ENDIF
        !
        !Abrir Bridas
        Set do_Move_Fix1;
        rAnticol acA4_R3,aaDeactivate;
        !
        IF di_Util1_Fase1=1 THEN
            !
            MoveL [[1773.43,-270.45,939.95],[0.997949,-0.0453442,-0.00399343,0.0450021],[-1,-1,-2,0],[9E+09,9E+09,9E+09,9E+09,9E+09,9E+09]],v3000,fine,t_Pinza;
            MoveL [[1880.41,-270.45,939.95],[0.997949,-0.045342,-0.00399436,0.0450018],[-1,-1,-2,0],[9E+09,9E+09,9E+09,9E+09,9E+09,9E+09]],vmax,z30,t_pinza;
            MoveL [[1879.48,-250.10,965.02],[0.997954,-0.0456413,0.00287003,0.0446793],[-1,-1,-2,0],[9E+09,9E+09,9E+09,9E+09,9E+09,9E+09]],vmax,fine,t_pinza;
            !
            !CloseHighLift gun1;
            ! Punto n? 1
            SetGO go_Progr_soldad,38;
            MoveL [[1880.79,-243.61,979.28],[0.997952,-0.0453769,-0.0033127,0.0449747],[-1,-1,-2,0],[9E+09,9E+09,9E+09,9E+09,9E+09,9E+09]],v2500,fine,t_pinza;
            Soldar\AbrirTotal;
            !OpenHighLift gun1;
            !
            MoveL [[1886.52,-256.78,919.78],[0.997953,-0.0456478,0.00286248,0.0446903],[-1,-1,-2,0],[9E+09,9E+09,9E+09,9E+09,9E+09,9E+09]],vmax,z30,t_pinza;
            MoveL [[1913.55,-205.23,910.14],[0.997953,-0.0456512,0.00288289,0.0446916],[-1,-1,-2,0],[9E+09,9E+09,9E+09,9E+09,9E+09,9E+09]],vmax,z30,t_pinza;
            MoveL [[1913.57,-201.47,962.17],[0.997824,-0.0447751,-0.0163587,0.0455574],[-1,-1,-2,0],[9E+09,9E+09,9E+09,9E+09,9E+09,9E+09]],vmax,fine,t_pinza;
            !
            !CloseHighLift gun1;
            ! Punto n? 2
            SetGO go_Progr_soldad,39;
            MoveL [[1905.33,-195.94,975.14],[0.99626,-0.049851,-0.0523852,0.0472928],[-1,-1,-2,0],[9E+09,9E+09,9E+09,9E+09,9E+09,9E+09]],v2500,fine,t_pinza;
            Soldar\AbrirTotal;
            !OpenHighLift gun1;
            !
            MoveL [[1905.18,-201.34,916.50],[0.997859,-0.0445315,-0.0149463,0.0455097],[-1,-1,-2,0],[9E+09,9E+09,9E+09,9E+09,9E+09,9E+09]],vmax,fine,t_pinza;
            MoveL [[1672.80,-201.49,925.56],[0.997825,-0.0447696,-0.0163368,0.0455493],[-1,-1,-2,0],[9E+09,9E+09,9E+09,9E+09,9E+09,9E+09]],vmax,z30,t_pinza;
            !
        ENDIF
        !
        MoveJ [[1360.72,0.85,1358.61],[0.99991,-0.000629581,0.0129562,-0.00333958],[0,-1,-1,0],[9E+09,9E+09,9E+09,9E+09,9E+09,9E+09]],vmax,fine,t_pinza;
        !
        !WHILE di_FixMoved1=0 DO
        !TPWrite"Esperando bridas retrocedidas en ?til";
        !ENDWHILE
        TPErase;
        !
        ! Posisci?n reposo 
        MoveAbsJ home_pos_rob,v3000,fine,t_pinza;
        Set do_Mesa_Free;
        !
        !
        home_robot;
        !
        RETURN ;
    ENDPROC
    PROC SE380_M3_NEW()
        TPErase;
        TPWrite "----------------------------------------";
        TPWrite "   [  MB ABRERA ]  -  [Grupo GESTAMP]   ";
        TPWrite "----------------------------------------";
        TPWrite "           [DPTO. de  robotica]         ";
        TPWrite "----------------------------------------";
        TPWrite "                                        ";
        TPWrite "----------------------------------------";
        TPWrite "Soldando util 1 Ref: Revestimiento SE380";
        TPWrite "----------------------------------------";
        TPWrite "                                        ";
        TPWrite "----------------------------------------";
        !
        SetDO do_Abrir_Agua,1;
        WaitUntil di_flow1_ok=1 AND di_flow2_ok=1;
        ! Posisci?n reposo 
        MoveAbsJ home_pos_rob,v3000,fine,t_pinza;
        !
        WHILE di_Util3_OK = 0 DO
            TPWrite "Esperando ?til en condiciones para soldar";
        ENDWHILE
        TPErase;
        !
        rAnticol acA4_R3,aaActivate;
        !
        OpenHighLift gun1;
        !
        ! Mesa en posicion
        Reset do_Mesa_Free;
        !
        !MoveJ [[1653.73,-201.29,918.55],[0.999125,-4.3884E-06,-0.00399353,0.041644],[-1,0,-2,0],[9E+09,9E+09,9E+09,9E+09,9E+09,9E+09]], vmax, fine, t_Pinza;
        !
        !
        IF di_Util3_Fase2 = 1 THEN
            !
            !MoveJ [[1979.43,615.06,1417.10],[0.635267,-0.199494,-0.208583,0.716331],[-1,0,-3,0],[9E+09,9E+09,9E+09,9E+09,9E+09,9E+09]], vmax, z30, t_pinza;
            MoveJ [[2366.42,293.99,1317.00],[0.11258,-0.738466,-0.0935771,0.658208],[0,0,-3,1],[9E+09,9E+09,9E+09,9E+09,9E+09,9E+09]],vmax,z30,t_pinza;
            MoveJ [[2285.15,349.67,1119.72],[0.100903,-0.701783,-0.0966009,0.698561],[0,0,-3,1],[9E+09,9E+09,9E+09,9E+09,9E+09,9E+09]],vmax,z10,t_pinza;
            !
            ! Punto n? 7
            SetGO go_Progr_soldad,21;
            MoveL [[2231.51,354.88,1050.20],[0.100897,-0.69106,-0.0935344,0.709582],[0,0,-3,1],[9E+09,9E+09,9E+09,9E+09,9E+09,9E+09]],v2500,fine,t_pinza;
            !CloseHighLift gun1;
            Soldar\Aproximado;
            !
            MoveL [[2239.49,354.88,1058.71],[0.100898,-0.69106,-0.0935345,0.709582],[0,0,-3,1],[9E+09,9E+09,9E+09,9E+09,9E+09,9E+09]],vmax,z5,t_pinza;
            !
            ! Punto n? 3
            SetGO go_Progr_soldad,22;
            MoveL [[2238.75,354.77,1074.92],[0.0999051,-0.510482,-0.177826,0.835347],[-1,-2,-2,1],[9E+09,9E+09,9E+09,9E+09,9E+09,9E+09]],v2500,fine,t_pinza;
            Soldar\AbrirTotal;
            !OpenHighLift gun1;
            !
            MoveL [[2278.65,361.72,1085.06],[0.100999,-0.680587,-0.0991185,0.718871],[0,0,-3,1],[9E+09,9E+09,9E+09,9E+09,9E+09,9E+09]],vmax,z5,t_pinza;
            MoveL [[2270.83,362.19,1085.82],[0.200841,-0.820522,-0.233954,0.481322],[0,0,-3,1],[9E+09,9E+09,9E+09,9E+09,9E+09,9E+09]],vmax,z5,t_pinza;
            !
            ! Punto n? 8
            SetGO go_Progr_soldad,23;
            MoveL [[2232.44,357.87,1090.41],[0.235212,-0.83376,-0.200192,0.457649],[0,0,-3,1],[9E+09,9E+09,9E+09,9E+09,9E+09,9E+09]],v2500,fine,t_pinza;
            !CloseHighLift gun1;
            Soldar\AbrirTotal;
            !OpenHighLift gun1;
            !
            MoveL [[2268.56,349.27,1115.48],[0.200845,-0.820523,-0.233954,0.481321],[0,0,-3,1],[9E+09,9E+09,9E+09,9E+09,9E+09,9E+09]],vmax,z10,t_pinza;
            MoveL [[2259.68,362.21,1270.42],[0.114444,-0.779779,-0.17993,0.588619],[0,0,-3,1],[9E+09,9E+09,9E+09,9E+09,9E+09,9E+09]],vmax,fine,t_pinza;
            !
            !
            MoveJ [[2314.64,632.24,1332.98],[0.258024,-0.507656,-0.213456,0.793817],[0,-1,-3,0],[9E+09,9E+09,9E+09,9E+09,9E+09,9E+09]],vmax,z30,t_pinza;
            rAnticol acA1_R1,aaActivate;
            MoveL [[2272.03,639.71,1112.63],[0.101586,-0.539074,-0.112534,0.828502],[0,-1,-3,0],[9E+09,9E+09,9E+09,9E+09,9E+09,9E+09]],vmax,fine,t_pinza;
            !
            !
            !CloseHighLift gun1;
            ! Punto n? 4
            SetGO go_Progr_soldad,24;
            MoveL [[2246.89,637.23,1119.52],[0.0908113,-0.451727,-0.0957342,0.882344],[0,-1,-3,0],[9E+09,9E+09,9E+09,9E+09,9E+09,9E+09]],v2500,fine,t_pinza;
            Soldar\AbrirTotal;
            !OpenHighLift gun1;
            !
            MoveL [[2257.96,639.91,1111.65],[0.0820883,-0.554146,-0.0820485,0.824289],[0,-1,-3,0],[9E+09,9E+09,9E+09,9E+09,9E+09,9E+09]],vmax,z10,t_pinza;
            MoveL [[2256.83,639.93,1114.41],[0.0823886,-0.624297,-0.0863428,0.772017],[0,-2,-2,0],[9E+09,9E+09,9E+09,9E+09,9E+09,9E+09]],vmax,fine,t_pinza;
            !
            !CloseHighLift gun1;
            ! Punto n? 5
            SetGO go_Progr_soldad,25;
            MoveL [[2236.36,639.66,1084.38],[0.0848295,-0.679179,-0.0769683,0.72498],[0,-2,-2,0],[9E+09,9E+09,9E+09,9E+09,9E+09,9E+09]],v2500,fine,t_pinza;
            Soldar\Aproximado;
            !
            ! Punto n? 6
            SetGO go_Progr_soldad,26;
            MoveL [[2233.04,638.43,1101.92],[0.0850824,-0.679554,-0.0767014,0.724627],[0,-2,-2,0],[9E+09,9E+09,9E+09,9E+09,9E+09,9E+09]],v2500,fine,t_pinza;
            Soldar\AbrirTotal;
            !OpenHighLift gun1;
            !
            MoveL [[2279.72,639.91,1111.66],[0.0823918,-0.624309,-0.086341,0.772007],[0,-2,-2,0],[9E+09,9E+09,9E+09,9E+09,9E+09,9E+09]],vmax,z30,t_pinza;
            MoveL [[2289.89,624.10,1253.17],[0.128912,-0.66317,-0.119203,0.727584],[0,-2,-2,0],[9E+09,9E+09,9E+09,9E+09,9E+09,9E+09]],vmax,z30,t_pinza;
            !
            rAnticol acA1_R1,aaDeactivate;
            !
            MoveL [[1973.25,209.54,1144.00],[0.731338,-0.45678,-0.0874922,0.498841],[0,-1,-2,0],[9E+09,9E+09,9E+09,9E+09,9E+09,9E+09]],vmax,z30,t_pinza;
            !
            !
            MoveL [[1968.50,397.33,993.31],[0.999978,-0.00270977,-0.00291401,0.00537957],[0,-1,-1,0],[9E+09,9E+09,9E+09,9E+09,9E+09,9E+09]],vmax,z30,t_pinza;
            !
            !
            MoveL [[2090.25,397.45,973.71],[0.998031,-0.00251087,-0.00309492,-0.0626029],[0,-1,-1,0],[9E+09,9E+09,9E+09,9E+09,9E+09,9E+09]],vmax,z30,t_pinza;
            MoveL [[2240.28,367.76,968.10],[0.995736,0.0836842,-0.000301293,-0.0388183],[0,0,-1,0],[9E+09,9E+09,9E+09,9E+09,9E+09,9E+09]],vmax,fine,t_pinza;
            !
            !CloseHighLift gun1;
            ! Punto n? 9
            SetGO go_Progr_soldad,27;
            MoveL [[2252.63,364.28,1006.43],[0.995736,0.0836805,-0.000323319,-0.0388156],[0,0,-1,0],[9E+09,9E+09,9E+09,9E+09,9E+09,9E+09]],v2500,fine,t_pinza;
            Soldar\AbrirTotal;
            !OpenHighLift gun1;
            !
            MoveL [[2272.71,361.73,946.30],[0.995386,0.0713373,0.00314995,-0.0640948],[0,0,-1,0],[9E+09,9E+09,9E+09,9E+09,9E+09,9E+09]], vmax, z5, t_Pinza;
            MoveL [[2323.41,347.51,937.16],[0.99308,0.0509839,0.00882256,-0.105431],[0,0,-1,0],[9E+09,9E+09,9E+09,9E+09,9E+09,9E+09]],vmax,z5,t_pinza;
            !
            ! Punto n? 10
            SetGO go_Progr_soldad, 28;
            MoveL [[2304.77,372.61,1009.81],[0.993466,0.073766,-0.0067401,-0.0868223],[0,0,-1,0],[9E+09,9E+09,9E+09,9E+09,9E+09,9E+09]], v2500, fine, t_pinza;
            !CloseHighLift gun1;
            Soldar\AbrirTotal;
            !OpenHighLift gun1;
            !
            MoveL [[2295.23,372.59,946.94],[0.994937,0.0736204,-0.0081331,-0.0679304],[0,0,-1,0],[9E+09,9E+09,9E+09,9E+09,9E+09,9E+09]],vmax,z30,t_pinza;
            MoveL [[2325.41,348.37,953.68],[0.990692,0.0602994,-0.0114855,-0.121496],[0,0,-1,0],[9E+09,9E+09,9E+09,9E+09,9E+09,9E+09]], vmax, fine, t_pinza;
            !
            !CloseHighLift gun1;
            !Punto n? 11
            SetGO go_Progr_soldad, 29;
            MoveL [[2336.43,342.31,1004.33],[0.990692,0.0603,-0.0114909,-0.121494],[0,0,-1,0],[9E+09,9E+09,9E+09,9E+09,9E+09,9E+09]], v2500, fine, t_pinza;
            Soldar\AbrirTotal;
            !OpenHighLift gun1;
            !
            MoveL [[2325.42,348.37,926.79],[0.989383,0.0604187,-0.0108714,-0.131728],[0,0,-1,0],[9E+09,9E+09,9E+09,9E+09,9E+09,9E+09]],vmax,z30,t_pinza;
            MoveL [[2337.29,287.52,955.48],[0.986726,0.0655168,-0.0155032,-0.147778],[0,0,-1,0],[9E+09,9E+09,9E+09,9E+09,9E+09,9E+09]],vmax,z30,t_pinza;
            !
            ! Punto n? 12
            SetGO go_Progr_soldad,30;
            MoveL [[2332.99,289.20,994.26],[0.985616,0.0586791,-0.0316018,-0.155303],[0,0,-1,0],[9E+09,9E+09,9E+09,9E+09,9E+09,9E+09]],v2500,fine,t_pinza;
            !CloseHighLift gun1;
            Soldar\Aproximado;
            !OpenHighLift gun1;
            !
            MoveL [[2331.53,272.27,980.58],[0.980289,0.0502342,-0.0173205,-0.190291],[0,0,-1,0],[9E+09,9E+09,9E+09,9E+09,9E+09,9E+09]],vmax,z30,t_pinza;
            !
            ! Punto n? 13
            SetGO go_Progr_soldad,34;
            MoveL [[2321.64,254.25,986.91],[0.98044,0.0535112,-0.000462838,-0.189402],[0,0,-1,0],[9E+09,9E+09,9E+09,9E+09,9E+09,9E+09]],v2500,fine,t_pinza;
            !CloseHighLift gun1;
            Soldar\Aproximado;
            !
            ! Punto n? 14
            SetGO go_Progr_soldad,35;
            MoveL [[2320.42,239.64,984.23],[0.980117,0.0584409,0.0251534,-0.187941],[0,0,-1,0],[9E+09,9E+09,9E+09,9E+09,9E+09,9E+09]],v2500,fine,t_pinza;
            Soldar\AbrirTotal;
            !OpenHighLift gun1;
            !
            MoveL [[2309.51,243.99,955.05],[0.978576,0.0651749,0.0604429,-0.185708],[0,0,-1,0],[9E+09,9E+09,9E+09,9E+09,9E+09,9E+09]],vmax,z30,t_pinza;
            MoveL [[2340.08,243.78,947.48],[0.978406,0.0656783,0.0631592,-0.185523],[0,0,-1,0],[9E+09,9E+09,9E+09,9E+09,9E+09,9E+09]],vmax,z5,t_pinza;
            MoveL [[2351.34,233.78,965.11],[0.977837,0.0488996,-0.0266711,-0.201822],[0,0,-1,0],[9E+09,9E+09,9E+09,9E+09,9E+09,9E+09]],vmax,z5,t_pinza;
            !
            ! Punto n? 15
            SetGO go_Progr_soldad,36;
            MoveL [[2343.47,222.03,984.82],[0.974726,0.0397357,-0.0728201,-0.20743],[0,0,-1,0],[9E+09,9E+09,9E+09,9E+09,9E+09,9E+09]],v2500,fine,t_pinza;
            !CloseHighLift gun1;
            Soldar\Aproximado;
            !
            ! Punto n? 16
            SetGO go_Progr_soldad,37;
            MoveL [[2343.47,209.64,984.15],[0.963327,0.0432748,-0.0707761,-0.255183],[0,0,-1,0],[9E+09,9E+09,9E+09,9E+09,9E+09,9E+09]],v2500,fine,t_pinza;
            Soldar\Aproximado;
            !
            MoveL [[2335.01,202.89,977.60],[0.962364,0.0467423,-0.0520423,-0.262607],[0,0,-1,0],[9E+09,9E+09,9E+09,9E+09,9E+09,9E+09]],vmax,z5,t_pinza;
            !
            !rAnticol acA3_R1, aaActivate;
            ! Punto n? 17
            SetGO go_Progr_soldad,31;
            MoveL [[2337.29,193.32,984.00],[0.962364,0.0467433,-0.0520478,-0.262605],[0,0,-1,0],[9E+09,9E+09,9E+09,9E+09,9E+09,9E+09]],v2500,fine,t_pinza;
            Soldar\AbrirTotal;
            !OpenHighLift gun1;
            !
            MoveL [[2342.53,200.49,974.73],[0.968805,0.045415,-0.0532297,-0.237742],[0,0,-1,0],[9E+09,9E+09,9E+09,9E+09,9E+09,9E+09]],vmax,z5,t_pinza;
            MoveL [[2361.87,273.20,959.59],[0.970095,0.0539533,-0.0182071,-0.235954],[0,0,-1,0],[9E+09,9E+09,9E+09,9E+09,9E+09,9E+09]],vmax,z20,t_pinza;
            !
            !
            !
            MoveL [[2319.19,295.53,918.75],[0.976,0.0500427,-0.029474,-0.209884],[0,0,-1,0],[9E+09,9E+09,9E+09,9E+09,9E+09,9E+09]],vmax,z20,t_pinza;
            MoveL [[2166.81,355.25,947.04],[0.995658,0.0277881,-0.0608084,-0.0647683],[0,0,-1,0],[9E+09,9E+09,9E+09,9E+09,9E+09,9E+09]],vmax,z20,t_pinza;
            MoveL [[2069.47,351.36,965.09],[0.997675,0.0229465,-0.0628092,0.0131345],[0,0,-1,0],[9E+09,9E+09,9E+09,9E+09,9E+09,9E+09]],vmax,z20,t_pinza;
            !
            rAnticol acA2_R1,aaActivate;
            !
            MoveL [[2083.39,665.02,974.14],[0.991118,0.0122741,-0.0634417,0.116231],[0,-1,-1,0],[9E+09,9E+09,9E+09,9E+09,9E+09,9E+09]],vmax,z30,t_pinza;
            MoveL [[2266.21,657.83,1012.93],[0.998007,-0.00421479,-0.055089,-0.0304777],[0,-1,-1,0],[9E+09,9E+09,9E+09,9E+09,9E+09,9E+09]],vmax,fine,t_pinza;
            !
            !
            !CloseHighLift gun1;
            ! Punto n? 18
            SetGO go_Progr_soldad,32;
            MoveL [[2265.36,648.37,1054.58],[0.999171,-0.00363907,-0.0325298,-0.0241893],[0,-1,-1,0],[9E+09,9E+09,9E+09,9E+09,9E+09,9E+09]],v2500,fine,t_pinza;
            Soldar\Aproximado;
            !
            ! Punto n? 19
            SetGO go_Progr_soldad,33;
            MoveL [[2291.84,660.51,1060.29],[0.999631,0.0254932,-0.0069505,-0.00623121],[0,0,-1,0],[9E+09,9E+09,9E+09,9E+09,9E+09,9E+09]],v2500,fine,t_pinza;
            Soldar\AbrirTotal;
            !OpenHighLift gun1;
            !
            MoveL [[2265.72,655.12,1013.21],[0.998301,-0.0040371,-0.0494697,-0.0305084],[0,-1,-1,0],[9E+09,9E+09,9E+09,9E+09,9E+09,9E+09]],vmax,z30,t_pinza;
            MoveL [[2207.92,663.42,1016.76],[0.99937,-0.00262733,-0.0353999,0.000377744],[0,-1,-1,0],[9E+09,9E+09,9E+09,9E+09,9E+09,9E+09]],vmax,z30,t_pinza;
            MoveL [[1968.50,657.16,993.31],[0.992005,-0.00304271,-0.00256524,0.126133],[0,-1,-1,0],[9E+09,9E+09,9E+09,9E+09,9E+09,9E+09]],vmax,z30,t_pinza;
            !MoveJ [[1968.50,403.91,1167.45],[0.972932,-0.00329954,-0.00222737,0.231058],[0,-1,-2,0],[9E+09,9E+09,9E+09,9E+09,9E+09,9E+09]], vmax, fine, t_pinza;
            !
            !rAnticol acA3_R1,aaDeactivate;
            !
            !MoveL [[2279.33,429.17,1288.18],[0.128913,-0.663161,-0.119205,0.727591],[0,-2,-2,0],[9E+09,9E+09,9E+09,9E+09,9E+09,9E+09]], vmax, fine, t_pinza;
            !
            rAnticol acA2_R1,aaDeactivate;
            !
            !MoveL [[1778.73,363.05,1417.11],[0.635267,-0.199497,-0.208584,0.71633],[-1,0,-3,0],[9E+09,9E+09,9E+09,9E+09,9E+09,9E+09]], vmax, z30, t_pinza;
            !MoveL [[1757.30,299.73,1167.45],[0.972932,-0.00330079,-0.00222888,0.231056],[0,-1,-2,0],[9E+09,9E+09,9E+09,9E+09,9E+09,9E+09]], vmax, z30, t_pinza;
            !
            !Abrir Brida I
            !Set do_Move_Fix1;
            !WHILE di_FixMoved1=0 DO
            !TPWrite"Esperando centradores retrocedidos en ?til";
            !ENDWHILE
            !TPErase;
            !WaitTime 1;
            !Reset do_Move_Fix1;
            !
            !
            !rAnticol acA3_R1, aaDeactivate;
            !
            MoveL [[1867.76,351.35,1064.96],[0.995043,0.0190928,-0.0640823,0.0736045],[0,0,-1,0],[9E+09,9E+09,9E+09,9E+09,9E+09,9E+09]],vmax,z50,t_pinza;
            MoveL [[1773.43,-270.45,939.95],[0.997949,-0.0453442,-0.00399343,0.0450021],[-1,-1,-2,0],[9E+09,9E+09,9E+09,9E+09,9E+09,9E+09]],vmax,fine,t_Pinza;
            !
        ENDIF
        !
        !Abrir Bridas
        Set do_Move_Fix1;
        rAnticol acA4_R3,aaDeactivate;
        !
        IF di_Util3_Fase1 = 1 THEN
            !
            MoveL [[1773.43,-270.45,939.95],[0.997949,-0.0453442,-0.00399343,0.0450021],[-1,-1,-2,0],[9E+09,9E+09,9E+09,9E+09,9E+09,9E+09]],v3000,fine,t_Pinza;
            MoveL [[1860.79,-270.45,939.96],[0.997949,-0.045348,-0.00399668,0.045005],[-1,-1,-2,0],[9E+09,9E+09,9E+09,9E+09,9E+09,9E+09]],vmax,z30,t_pinza;
            MoveL [[1860.74,-253.08,939.74],[0.997954,-0.0456425,0.00286901,0.0446749],[-1,-1,-2,0],[9E+09,9E+09,9E+09,9E+09,9E+09,9E+09]],vmax,fine,t_pinza;
            !
            !CloseHighLift gun1;
            ! Punto n? 1
            SetGO go_Progr_soldad,38;
            MoveL [[1878.14,-249.57,981.36],[0.997951,-0.0453811,-0.00331164,0.0449765],[-1,-1,-2,0],[9E+09,9E+09,9E+09,9E+09,9E+09,9E+09]],v2500,fine,t_pinza;
            Soldar\AbrirTotal;
            !OpenHighLift gun1;
            !
            MoveL [[1867.24,-250.99,930.28],[0.997952,-0.0453719,-0.00331776,0.0449725],[-1,-1,-2,0],[9E+09,9E+09,9E+09,9E+09,9E+09,9E+09]],vmax,z30,t_pinza;
            MoveL [[1887.15,-212.68,907.51],[0.997951,-0.0453796,-0.00331305,0.0449751],[-1,-1,-2,0],[9E+09,9E+09,9E+09,9E+09,9E+09,9E+09]],vmax,z30,t_pinza;
            MoveL [[1901.57,-207.02,938.79],[0.997951,-0.0453835,-0.00331233,0.0449751],[-1,-1,-2,0],[9E+09,9E+09,9E+09,9E+09,9E+09,9E+09]],vmax,fine,t_pinza;
            !
            !CloseHighLift gun1;
            ! Punto n? 2
            SetGO go_Progr_soldad,39;
            MoveL [[1903.83,-204.49,977.02],[0.997952,-0.0453712,-0.00332565,0.0449667],[-1,-1,-2,0],[9E+09,9E+09,9E+09,9E+09,9E+09,9E+09]],v2500,fine,t_pinza;
            Soldar\AbrirTotal;
            !OpenHighLift gun1;
            !
            MoveL [[1893.60,-204.48,902.78],[0.997952,-0.0453759,-0.00331344,0.0449744],[-1,-1,-2,0],[9E+09,9E+09,9E+09,9E+09,9E+09,9E+09]],vmax,fine,t_pinza;
            MoveL [[1630.48,-204.48,902.77],[0.997951,-0.0453792,-0.00331267,0.0449765],[-1,-1,-2,0],[9E+09,9E+09,9E+09,9E+09,9E+09,9E+09]],vmax,z30,t_pinza;
            !
        ENDIF
        !
        MoveJ [[1360.72,0.85,1358.61],[0.99991,-0.000629581,0.0129562,-0.00333958],[0,-1,-1,0],[9E+09,9E+09,9E+09,9E+09,9E+09,9E+09]],vmax,fine,t_pinza;
        !
        !WHILE di_FixMoved1=0 DO
        !TPWrite"Esperando bridas retrocedidas en ?til";
        !ENDWHILE
        TPErase;
        !
        ! Posisci?n reposo 
        MoveAbsJ home_pos_rob,v3000,fine,t_pinza;
        Set do_Mesa_Free;
        !
        !
        home_robot;
        !
        RETURN ;
    ENDPROC

    PROC SE380_M3_NEW_old()
        TPErase;
        TPWrite "----------------------------------------";
        TPWrite "   [  MB ABRERA ]  -  [Grupo GESTAMP]   ";
        TPWrite "----------------------------------------";
        TPWrite "           [DPTO. de  robotica]         ";
        TPWrite "----------------------------------------";
        TPWrite "                                        ";
        TPWrite "----------------------------------------";
        TPWrite "Soldando util 3 Ref: Revestimiento SE380";
        TPWrite "----------------------------------------";
        TPWrite "                                        ";
        TPWrite "----------------------------------------";
        !
        SetDO do_Abrir_Agua,1;
        WaitUntil di_flow1_ok=1 AND di_flow2_ok=1;
        ! Posisción reposo 
        MoveAbsJ home_pos_rob,v3000,fine,t_pinza;
        !
        WHILE di_Util3_OK=0 DO
            TPWrite "Esperando Útil en condiciones para soldar";
        ENDWHILE
        TPErase;
        !
        rAnticol acA4_R3,aaActivate;
        !
        OpenHighLift gun1;
        !
        ! Mesa en posicion
        Reset do_Mesa_Free;
        !
        !MoveJ [[1653.73,-201.29,918.55],[0.999125,-4.3884E-06,-0.00399353,0.041644],[-1,0,-2,0],[9E+09,9E+09,9E+09,9E+09,9E+09,9E+09]],vmax,fine,t_Pinza;
        !
        !
        IF di_Util3_Fase2=1 THEN
            !
            rAnticol acA3_R1,aaActivate;
            !
            MoveL [[1672.80,-201.49,925.56],[0.997825,-0.0447696,-0.0163368,0.0455493],[-1,-1,-2,0],[9E+09,9E+09,9E+09,9E+09,9E+09,9E+09]],vmax,z30,t_pinza;
            MoveL [[1968.50,657.16,993.31],[0.992005,-0.00304266,-0.00256541,0.126132],[0,-1,-1,0],[9E+09,9E+09,9E+09,9E+09,9E+09,9E+09]],vmax,z30,t_pinza;
            MoveL [[2262.84,665.21,1025.74],[0.999892,-0.0026462,-0.00297419,-0.014127],[0,-1,-1,0],[9E+09,9E+09,9E+09,9E+09,9E+09,9E+09]],vmax,z30,t_pinza;
            MoveL [[2265.73,655.14,1047.18],[0.999522,-0.00260438,-0.00300919,-0.0306638],[0,-1,-1,0],[9E+09,9E+09,9E+09,9E+09,9E+09,9E+09]],vmax,fine,t_pinza;
            !
            !CloseHighLift gun1;
            ! Punto nº 18
            SetGO go_Progr_soldad,18;
            MoveL [[2277.66,659.77,1056.21],[0.999172,-0.00365257,-0.0325206,-0.0241853],[0,-1,-1,0],[9E+09,9E+09,9E+09,9E+09,9E+09,9E+09]],v2500,fine,t_pinza;
            Soldar\Aproximado;
            !
            ! Punto nº 19
            SetGO go_Progr_soldad,19;
            MoveL [[2303.75,667.09,1056.81],[0.99962,0.0256979,-0.0077958,-0.00617812],[0,0,-1,0],[9E+09,9E+09,9E+09,9E+09,9E+09,9E+09]],v2500,fine,t_pinza;
            Soldar\AbrirTotal;
            !OpenHighLift gun1;
            !
            MoveL [[2265.73,655.14,1047.18],[0.999522,-0.00260438,-0.00300919,-0.0306638],[0,-1,-1,0],[9E+09,9E+09,9E+09,9E+09,9E+09,9E+09]],vmax,z30,t_pinza;
            MoveL [[2207.93,663.42,1036.86],[0.999993,-0.00262807,-0.00279896,0.000287169],[0,-1,-1,0],[9E+09,9E+09,9E+09,9E+09,9E+09,9E+09]],vmax,z30,t_pinza;
            MoveL [[1968.50,657.16,993.31],[0.992005,-0.00304271,-0.00256524,0.126133],[0,-1,-1,0],[9E+09,9E+09,9E+09,9E+09,9E+09,9E+09]],vmax,z30,t_pinza;
            MoveJ [[1968.50,403.91,1167.45],[0.972932,-0.00329954,-0.00222737,0.231058],[0,-1,-2,0],[9E+09,9E+09,9E+09,9E+09,9E+09,9E+09]],vmax,fine,t_pinza;
            !
            rAnticol acA3_R1,aaDeactivate;
            !
            MoveJ [[1979.43,615.06,1417.10],[0.635267,-0.199494,-0.208583,0.716331],[-1,0,-3,0],[9E+09,9E+09,9E+09,9E+09,9E+09,9E+09]],vmax,z30,t_pinza;
            MoveJ [[2279.61,373.45,1333.27],[0.0968186,-0.538752,-0.108532,0.829815],[0,0,-3,0],[9E+09,9E+09,9E+09,9E+09,9E+09,9E+09]],vmax,z30,t_pinza;
            MoveJ [[2265.50,359.28,1101.88],[0.130785,-0.654846,-0.156527,0.727717],[0,-1,-3,1],[9E+09,9E+09,9E+09,9E+09,9E+09,9E+09]],vmax,z10,t_pinza;
            !
            ! Punto nº 7
            SetGO go_Progr_soldad,7;
            MoveL [[2231.75,358.10,1044.88],[0.100899,-0.691063,-0.0935283,0.70958],[0,0,-3,1],[9E+09,9E+09,9E+09,9E+09,9E+09,9E+09]],v2500,fine,t_pinza;
            !CloseHighLift gun1;
            Soldar\Aproximado;
            !
            MoveL [[2246.81,360.35,1049.79],[0.100896,-0.691057,-0.0935323,0.709586],[0,0,-3,1],[9E+09,9E+09,9E+09,9E+09,9E+09,9E+09]],vmax,fine,t_pinza;
            !
            ! Punto nº 3
            SetGO go_Progr_soldad,3;
            MoveL [[2242.10,352.96,1073.11],[0.142071,-0.475775,-0.166765,0.851847],[0,-2,-2,1],[9E+09,9E+09,9E+09,9E+09,9E+09,9E+09]],v2500,fine,t_pinza;
            Soldar\AbrirTotal;
            !OpenHighLift gun1;
            !
            MoveL [[2259.67,362.20,1085.83],[0.100894,-0.691058,-0.0935318,0.709585],[0,0,-4,1],[9E+09,9E+09,9E+09,9E+09,9E+09,9E+09]],vmax,fine,t_pinza;
            MoveL [[2259.67,362.20,1085.82],[0.200841,-0.820522,-0.233956,0.481322],[0,0,-3,1],[9E+09,9E+09,9E+09,9E+09,9E+09,9E+09]],vmax,fine,t_pinza;
            !
            ! Punto nº 8
            SetGO go_Progr_soldad,8;
            MoveL [[2233.31,357.85,1090.95],[0.197876,-0.846153,-0.21539,0.445508],[0,0,-3,1],[9E+09,9E+09,9E+09,9E+09,9E+09,9E+09]],v2500,fine,t_pinza;
            !CloseHighLift gun1;
            Soldar\AbrirTotal;
            !OpenHighLift gun1;
            !
            MoveL [[2259.67,362.20,1085.82],[0.200842,-0.820522,-0.233956,0.481322],[0,0,-3,1],[9E+09,9E+09,9E+09,9E+09,9E+09,9E+09]],vmax,z10,t_pinza;
            MoveL [[2259.68,362.20,1233.98],[0.11445,-0.779777,-0.179928,0.588621],[0,0,-3,1],[9E+09,9E+09,9E+09,9E+09,9E+09,9E+09]],vmax,fine,t_pinza;
            !
            rAnticol acA2_R1,aaActivate;
            !
            MoveJ [[2314.64,632.24,1332.98],[0.258024,-0.507656,-0.213456,0.793817],[0,-1,-3,0],[9E+09,9E+09,9E+09,9E+09,9E+09,9E+09]],vmax,z30,t_pinza;
            MoveL [[2257.09,640.44,1114.29],[0.0851627,-0.541203,-0.101832,0.830347],[0,-1,-3,0],[9E+09,9E+09,9E+09,9E+09,9E+09,9E+09]],vmax,fine,t_pinza;
            !
            !CloseHighLift gun1;
            ! Punto nº 4
            SetGO go_Progr_soldad,4;
            MoveL [[2248.97,638.56,1120.90],[0.0900685,-0.454252,-0.0968362,0.881002],[0,-1,-3,0],[9E+09,9E+09,9E+09,9E+09,9E+09,9E+09]],v2500,fine,t_pinza;
            Soldar\AbrirTotal;
            !OpenHighLift gun1;
            !
            MoveL [[2262.34,639.91,1111.66],[0.074617,-0.555203,-0.0931449,0.823108],[0,-1,-3,0],[9E+09,9E+09,9E+09,9E+09,9E+09,9E+09]],vmax,z10,t_pinza;
            MoveL [[2253.27,639.94,1111.67],[0.101495,-0.621339,-0.106869,0.769556],[0,-2,-2,0],[9E+09,9E+09,9E+09,9E+09,9E+09,9E+09]],vmax,fine,t_pinza;
            !
            !CloseHighLift gun1;
            ! Punto nº 5
            SetGO go_Progr_soldad,5;
            MoveL [[2238.26,642.33,1077.95],[0.0857738,-0.653534,-0.0832292,0.747401],[0,-2,-2,0],[9E+09,9E+09,9E+09,9E+09,9E+09,9E+09]],v2500,fine,t_pinza;
            Soldar\Aproximado;
            !
            ! Punto nº 6
            SetGO go_Progr_soldad,6;
            MoveL [[2237.98,641.23,1100.56],[0.0960133,-0.650153,-0.0934924,0.747891],[0,-2,-2,0],[9E+09,9E+09,9E+09,9E+09,9E+09,9E+09]],v2500,fine,t_pinza;
            Soldar\AbrirTotal;
            !OpenHighLift gun1;
            !
