%%%
  VERSION:1
  LANGUAGE:ENGLISH
%%%

MODULE TRABAJO
    ! POSICION PUNTOS SOLDADURA M1_PIEZA IZQUIERDA


    PROC SE380_M1()
        TPErase;
        TPWrite "----------------------------------------";
        TPWrite "   [  MB ABRERA ]  -  [Grupo GESTAMP]   ";
        TPWrite "----------------------------------------";
        TPWrite "           [DPTO. de  robotica]         ";
        TPWrite "----------------------------------------";
        TPWrite "                                        ";
        TPWrite "----------------------------------------";
        TPWrite "Soldando util 1 Ref:  Revestimiento 380 ";
        TPWrite "----------------------------------------";
        TPWrite "                                        ";
        TPWrite "----------------------------------------";
        !
        SetDO do_Abrir_Agua,1;
        WaitUntil di_flow1_ok=1 AND di_flow2_ok=1;
        ! Posición reposo
        MoveAbsJ home_pos_rob,v3000,fine,t_pinza;
        !
        rAnticol acA1_R2,aaActivate;
        rAnticol acA3_R2,aaActivate;
        rAnticol acA4_R3,aaActivate;
        !
        WHILE di_util1_OK=0 DO
            TPWrite "Esperando Útil en condiciones para soldar";
        ENDWHILE
        TPErase;
        !
        OpenHighLift gun1;
        !
        ! Mesa en posicion
        Reset do_mesa_free;
        !
        MoveJ [[1374.18,-3.83,1533.82],[0.99991,-0.000625717,0.0129629,-0.0033479],[-1,-1,-1,0],[9E+09,9E+09,9E+09,9E+09,9E+09,9E+09]],vmax,fine,t_pinza;
        IF di_Util1_Fase1=1 THEN
            MoveJ [[1828.76,275.93,959.10],[0.998007,0.0630151,-0.00146049,-0.00302759],[0,0,-1,0],[9E+09,9E+09,9E+09,9E+09,9E+09,9E+09]],vmax,z30,t_pinza;
            MoveL [[1910.34,268.79,952.85],[0.998005,0.0630469,-0.00133608,-0.00308947],[0,0,-1,0],[9E+09,9E+09,9E+09,9E+09,9E+09,9E+09]],v2500,fine,t_pinza;
            !
            CloseHighLift gun1;
            ! Punto nº 1
            SetGO go_Progr_soldad,1;
            MoveL [[1913.05,271.77,969.48],[0.998005,0.06305,-0.00132133,-0.0031034],[0,0,-1,0],[9E+09,9E+09,9E+09,9E+09,9E+09,9E+09]],v2500,fine,t_pinza;
            Soldar\Aproximado;
            OpenHighLift gun1;
            !
            MoveL [[1903.53,269.75,910.57],[0.998006,0.0630341,-0.0014147,-0.00304133],[0,0,-1,0],[9E+09,9E+09,9E+09,9E+09,9E+09,9E+09]],vmax,z30,t_pinza;
            MoveL [[1904.86,209.13,921.10],[0.998007,0.0630159,-0.00145661,-0.00306415],[0,0,-1,0],[9E+09,9E+09,9E+09,9E+09,9E+09,9E+09]],v1000,z30,t_pinza;
            MoveL [[1941.81,209.10,921.07],[0.998007,0.0630166,-0.00144972,-0.00306586],[0,0,-1,0],[9E+09,9E+09,9E+09,9E+09,9E+09,9E+09]],v1000,z30,t_pinza;
            MoveL [[1936.04,215.18,952.71],[0.997943,0.0629927,-0.0113345,-0.00367777],[0,0,-1,0],[9E+09,9E+09,9E+09,9E+09,9E+09,9E+09]],v1000,fine,t_pinza;
            !
            CloseHighLift gun1;
            ! Punto nº 2
            SetGO go_Progr_soldad,2;
            MoveL [[1937.10,225.65,966.50],[0.997645,0.0629353,-0.0268773,-0.00466089],[0,0,-1,0],[9E+09,9E+09,9E+09,9E+09,9E+09,9E+09]],v2500,fine,t_pinza;
            Soldar\Aproximado;
            OpenHighLift gun1;
            !
            MoveL [[1941.81,209.10,921.07],[0.998007,0.0630149,-0.001451,-0.00306444],[0,0,-1,0],[9E+09,9E+09,9E+09,9E+09,9E+09,9E+09]],v1500,z30,t_pinza;
            !
            !
            MoveL [[1814.69,209.14,912.70],[0.998007,0.0630102,-0.00143081,-0.0030535],[0,0,-1,0],[9E+09,9E+09,9E+09,9E+09,9E+09,9E+09]],v1500,z30,t_pinza;
            MoveL [[1814.66,327.08,1503.28],[0.998009,0.0629858,-0.00139661,-0.0030575],[0,0,-1,0],[9E+09,9E+09,9E+09,9E+09,9E+09,9E+09]],v1500,fine,t_pinza;
        ENDIF
        !
        IF di_Util1_Fase2=1 THEN
            MoveL [[1814.66,327.08,1503.28],[0.998009,0.0629858,-0.00139661,-0.0030575],[0,0,-1,0],[9E+09,9E+09,9E+09,9E+09,9E+09,9E+09]],v1500,z30,t_pinza;
            MoveJ [[1926.84,-222.82,1357.13],[0.0357303,0.573164,-0.0366895,-0.817839],[-1,0,0,0],[9E+09,9E+09,9E+09,9E+09,9E+09,9E+09]],v1500,z30,t_pinza;
            MoveL [[2278.31,-639.00,1287.18],[0.147308,0.545613,-0.1343,-0.813984],[-1,0,0,0],[9E+09,9E+09,9E+09,9E+09,9E+09,9E+09]],v800,z50,t_pinza;
            MoveL [[2269.12,-638.92,1106.21],[0.0792099,0.554912,-0.0885122,-0.823386],[-1,0,0,0],[9E+09,9E+09,9E+09,9E+09,9E+09,9E+09]],v800,fine,t_pinza;
            !
            CloseHighLift gun1;
            ! Punto nº 4
            SetGO go_Progr_soldad,4;
            MoveL [[2256.12,-642.20,1105.77],[0.0905358,0.503542,-0.0947345,-0.853975],[-1,0,0,0],[9E+09,9E+09,9E+09,9E+09,9E+09,9E+09]],v2500,fine,t_pinza;
            Soldar\Aproximado;
            !
            MoveL [[2269.11,-640.60,1100.90],[0.10048,0.695905,-0.0902256,-0.705323],[-1,1,-1,0],[9E+09,9E+09,9E+09,9E+09,9E+09,9E+09]],v800,z50,t_pinza;
            !
            ! Punto nº 5
            SetGO go_Progr_soldad,5;
            MoveL [[2250.53,-637.73,1061.04],[0.0965984,0.708138,-0.0871564,-0.693984],[-1,1,-1,0],[9E+09,9E+09,9E+09,9E+09,9E+09,9E+09]],v2500,fine,t_pinza;
            Soldar\Aproximado;
            !
            ! Punto nº 6
            SetGO go_Progr_soldad,6;
            MoveL [[2249.42,-640.46,1087.53],[0.115801,0.706865,-0.0916573,-0.691759],[-1,1,-1,0],[9E+09,9E+09,9E+09,9E+09,9E+09,9E+09]],v2500,fine,t_pinza;
            Soldar\Aproximado;
            OpenHighLift gun1;
            !
            MoveL [[2275.27,-653.99,1087.51],[0.130984,0.703731,-0.115715,-0.688634],[-1,1,-1,0],[9E+09,9E+09,9E+09,9E+09,9E+09,9E+09]],v1500,z30,t_pinza;
            MoveL [[2287.10,-637.69,1273.96],[0.17041,0.695872,-0.156006,-0.679988],[-1,1,-1,0],[9E+09,9E+09,9E+09,9E+09,9E+09,9E+09]],v1500,z30,t_pinza;
            MoveJ [[1849.46,-212.21,1515.26],[0.798094,0.363946,-0.0793532,-0.473595],[-1,0,-1,0],[9E+09,9E+09,9E+09,9E+09,9E+09,9E+09]],v1500,fine,t_pinza;
            rAnticol acA1_R2,aaDeactivate;
            rAnticol acA2_R2,aaActivate;
            MoveJ [[1696.19,-355.49,1025.68],[0.935949,0.00543103,0.0265842,-0.351089],[0,0,-1,0],[9E+09,9E+09,9E+09,9E+09,9E+09,9E+09]],v1500,z30,t_pinza;
            MoveL [[2061.31,-636.82,976.05],[0.999093,-0.025395,-0.0329222,-0.00913413],[-1,-1,-2,0],[9E+09,9E+09,9E+09,9E+09,9E+09,9E+09]],v1500,z30,t_pinza;
            MoveL [[2274.99,-647.72,1022.58],[0.999094,-0.0253783,-0.0329363,-0.00910991],[-1,-1,-2,0],[9E+09,9E+09,9E+09,9E+09,9E+09,9E+09]],v1500,fine,t_pinza;
            !
            CloseHighLift gun1;
            ! Punto nº 18
            SetGO go_Progr_soldad,18;
            MoveL [[2273.10,-635.81,1037.76],[0.999297,-0.0256333,-0.0273327,0.00117129],[-1,-1,-2,0],[9E+09,9E+09,9E+09,9E+09,9E+09,9E+09]],v2500,fine,t_pinza;
            Soldar\Aproximado;
            !
            ! Punto nº 19
            SetGO go_Progr_soldad,19;
            MoveL [[2310.64,-649.58,1039.73],[0.998672,-0.0246134,-0.0286693,-0.035014],[-1,-1,-2,0],[9E+09,9E+09,9E+09,9E+09,9E+09,9E+09]],v2500,fine,t_pinza;
            Soldar\Aproximado;
            OpenHighLift gun1;
            !
            MoveL [[2274.99,-647.72,1022.58],[0.999094,-0.0253783,-0.0329363,-0.00910991],[-1,-1,-2,0],[9E+09,9E+09,9E+09,9E+09,9E+09,9E+09]],v1500,z30,t_pinza;
            MoveL [[2061.31,-636.82,976.05],[0.999093,-0.025395,-0.0329222,-0.00913413],[-1,-1,-2,0],[9E+09,9E+09,9E+09,9E+09,9E+09,9E+09]],v1500,z30,t_pinza;
            MoveJ [[1696.19,-355.49,1025.68],[0.935949,0.00543103,0.0265842,-0.351089],[0,0,-1,0],[9E+09,9E+09,9E+09,9E+09,9E+09,9E+09]],v1500,fine,t_pinza;
            rAnticol acA2_R2,aaDeactivate;
            rAnticol acA3_R2,aaDeactivate;
            !Abrimos Brida I
            Set do_Move_Fix1;
            WHILE di_FixMoved1=0 DO
                TPWrite " Esperando centradores útil retrocedidos";
            ENDWHILE
            TPErase;
            Reset do_Move_Fix1;
            rAnticol acA3_R2,aaActivate;
            !
            MoveL [[2050.58,-662.38,982.37],[0.96796,-0.0107932,-0.0316751,-0.248866],[-1,-1,-1,0],[9E+09,9E+09,9E+09,9E+09,9E+09,9E+09]],v1500,z30,t_pinza;
            MoveL [[2157.98,-705.41,987.65],[0.968,-0.0061674,-0.0328657,-0.248714],[-1,-1,-1,0],[9E+09,9E+09,9E+09,9E+09,9E+09,9E+09]],v1500,z30,t_pinza;
            MoveL [[2335.93,-705.92,1026.28],[0.98851,-0.00952796,-0.0320804,-0.147405],[-1,-1,-1,0],[9E+09,9E+09,9E+09,9E+09,9E+09,9E+09]],v1500,fine,t_pinza;
            !
            CloseHighLift gun1;
            ! Punto nº 20
            SetGO go_Progr_soldad,20;
            MoveL [[2335.94,-705.92,1043.38],[0.988509,-0.00953173,-0.0320958,-0.147406],[-1,-1,-1,0],[9E+09,9E+09,9E+09,9E+09,9E+09,9E+09]],v2500,fine,t_pinza;
            Soldar\Aproximado;
            !
            ! Punto nº 21
            SetGO go_Progr_soldad,21;
            MoveL [[2335.81,-751.55,1045.77],[0.969498,-0.00968209,-0.0411049,-0.241434],[-1,-1,-1,0],[9E+09,9E+09,9E+09,9E+09,9E+09,9E+09]],v2500,fine,t_pinza;
            Soldar\Aproximado;
            OpenHighLift gun1;
            !
            MoveL [[2333.69,-755.96,1007.60],[0.969499,-0.00969321,-0.0410273,-0.241443],[-1,-1,-1,0],[9E+09,9E+09,9E+09,9E+09,9E+09,9E+09]],v1500,z30,t_pinza;
            MoveL [[2257.90,-705.26,996.18],[0.972511,-0.00826331,-0.0362426,-0.229872],[-1,-1,-1,0],[9E+09,9E+09,9E+09,9E+09,9E+09,9E+09]],v1500,z30,t_pinza;
            MoveL [[2157.99,-705.41,987.66],[0.968,-0.00616948,-0.0328693,-0.248712],[-1,-1,-1,0],[9E+09,9E+09,9E+09,9E+09,9E+09,9E+09]],v1500,z30,t_pinza;
            MoveL [[2050.60,-662.39,982.37],[0.96796,-0.0107934,-0.0316754,-0.248865],[-1,-1,-1,0],[9E+09,9E+09,9E+09,9E+09,9E+09,9E+09]],v1500,z30,t_pinza;
            MoveJ [[2089.36,-356.19,943.24],[0.999081,-0.0195948,-0.0373278,0.0077693],[-1,-1,-2,0],[9E+09,9E+09,9E+09,9E+09,9E+09,9E+09]],v1500,fine,t_pinza;
            !
            rAnticol acA3_R2,aaDeactivate;
            !
            MoveL [[2343.00,-338.55,937.73],[0.99811,-0.0501011,-0.0152292,0.0321519],[-1,-1,-2,0],[9E+09,9E+09,9E+09,9E+09,9E+09,9E+09]],v1500,z50,t_pinza;
            MoveL [[2346.24,-290.75,942.94],[0.99401,-0.0509691,-0.0120081,0.0959295],[-1,-1,-2,0],[9E+09,9E+09,9E+09,9E+09,9E+09,9E+09]],v1500,z50,t_pinza;
            MoveL [[2357.64,-289.29,963.37],[0.994718,-0.0618447,-0.00592021,0.0817125],[-1,-1,-2,0],[9E+09,9E+09,9E+09,9E+09,9E+09,9E+09]],v1500,fine,t_pinza;
            !
            CloseHighLift gun1;
            ! Punto nº 12
            SetGO go_Progr_soldad,12;
            MoveL [[2353.28,-282.74,978.83],[0.995393,-0.0596878,-0.0169626,0.0730883],[-1,-1,-2,0],[9E+09,9E+09,9E+09,9E+09,9E+09,9E+09]],v2500,fine,t_pinza;
            Soldar\Aproximado;
            OpenHighLift gun1;
            !
            MoveL [[2353.29,-282.74,944.48],[0.995393,-0.0596887,-0.016976,0.0730878],[-1,-1,-2,0],[9E+09,9E+09,9E+09,9E+09,9E+09,9E+09]],v1500,z30,t_pinza;
            MoveL [[2319.22,-339.41,941.85],[0.998073,-0.0582999,-0.0212392,0.000793147],[-1,-1,-2,0],[9E+09,9E+09,9E+09,9E+09,9E+09,9E+09]],v1500,z30,t_pinza;
            MoveL [[2323.65,-356.62,980.63],[0.994178,-0.0970506,-0.00413773,-0.0466221],[-1,-1,-1,0],[9E+09,9E+09,9E+09,9E+09,9E+09,9E+09]],v1500,fine,t_pinza;
            !
            CloseHighLift gun1;
            ! Punto nº 10
            SetGO go_Progr_soldad,10;
            MoveL [[2322.05,-350.92,990.82],[0.993605,-0.0984026,-0.0339861,-0.0437082],[-1,-1,-1,0],[9E+09,9E+09,9E+09,9E+09,9E+09,9E+09]],v2500,fine,t_pinza;
            Soldar\Aproximado;
            OpenHighLift gun1;
            !
            MoveL [[2323.39,-355.23,940.60],[0.994176,-0.0970693,-0.00408612,-0.046633],[-1,-1,-1,0],[9E+09,9E+09,9E+09,9E+09,9E+09,9E+09]],v1500,z30,t_pinza;
            MoveL [[2346.67,-334.22,968.16],[0.997262,-0.0615377,-0.00831789,0.0401671],[-1,-1,-2,0],[9E+09,9E+09,9E+09,9E+09,9E+09,9E+09]],v1500,fine,t_pinza;
            !
            CloseHighLift gun1;
            ! Punto nº 11
            SetGO go_Progr_soldad,11;
            MoveL [[2353.74,-328.05,987.71],[0.997261,-0.0615337,-0.00836417,0.0401828],[-1,-1,-2,0],[9E+09,9E+09,9E+09,9E+09,9E+09,9E+09]],v2500,fine,t_pinza;
            Soldar\Aproximado;
            OpenHighLift gun1;
            !
            MoveL [[2353.70,-334.57,937.87],[0.997261,-0.0615331,-0.00831187,0.0401818],[-1,-1,-2,0],[9E+09,9E+09,9E+09,9E+09,9E+09,9E+09]],v1500,z30,t_pinza;
            MoveL [[2352.94,-295.46,937.86],[0.989021,-0.0620615,-0.00245506,0.134086],[-1,-1,-2,0],[9E+09,9E+09,9E+09,9E+09,9E+09,9E+09]],v1500,z30,t_pinza;
            MoveL [[2282.99,-320.48,942.72],[0.99342,-0.0708907,-0.00274561,0.089905],[-1,-1,-2,0],[9E+09,9E+09,9E+09,9E+09,9E+09,9E+09]],v1500,z30,t_pinza;
            MoveL [[2277.51,-358.34,977.83],[0.994176,-0.0970683,-0.00408705,-0.0466387],[-1,-1,-1,0],[9E+09,9E+09,9E+09,9E+09,9E+09,9E+09]],v1500,fine,t_pinza;
            !
            CloseHighLift gun1;
            ! Punto nº 9
            SetGO go_Progr_soldad,9;
            MoveL [[2280.75,-350.65,990.47],[0.994063,-0.0975932,-0.0155319,-0.0455216],[-1,-1,-1,0],[9E+09,9E+09,9E+09,9E+09,9E+09,9E+09]],v2500,fine,t_pinza;
            Soldar\Aproximado;
            OpenHighLift gun1;
            !
            MoveL [[2281.05,-359.28,937.58],[0.994176,-0.0970739,-0.00404374,-0.0466377],[-1,-1,-1,0],[9E+09,9E+09,9E+09,9E+09,9E+09,9E+09]],v1500,z30,t_pinza;
            MoveL [[2363.70,-253.31,942.85],[0.987339,-0.0523102,-0.000726747,0.149747],[-1,-1,-2,0],[9E+09,9E+09,9E+09,9E+09,9E+09,9E+09]],v1500,z30,t_pinza;
            MoveL [[2366.64,-222.66,953.23],[0.984164,-0.0226402,-0.00661756,0.175685],[-1,-1,-2,0],[9E+09,9E+09,9E+09,9E+09,9E+09,9E+09]],v1500,z30,t_pinza;
            !
            MoveL [[2352.31,-179.85,962.92],[0.968906,-0.0536527,-0.0488045,0.236558],[-1,-1,-2,0],[9E+09,9E+09,9E+09,9E+09,9E+09,9E+09]],v1500,fine,t_pinza;
            !
            CloseHighLift gun1;
            ! Punto nº 17
            SetGO go_Progr_soldad,17;
            MoveL [[2355.02,-179.88,968.55],[0.969851,-0.0323733,-0.0436098,0.237569],[-1,-1,-2,0],[9E+09,9E+09,9E+09,9E+09,9E+09,9E+09]],v2500,fine,t_pinza;
            Soldar\Aproximado;
            OpenHighLift gun1;
            !
            MoveL [[2364.43,-194.17,950.50],[0.976753,-0.0228384,-0.00574096,0.21307],[-1,-1,-2,0],[9E+09,9E+09,9E+09,9E+09,9E+09,9E+09]],v1500,z30,t_pinza;
            MoveL [[2366.64,-222.66,953.23],[0.984164,-0.0226402,-0.00661756,0.175685],[-1,-1,-2,0],[9E+09,9E+09,9E+09,9E+09,9E+09,9E+09]],v1500,z30,t_pinza;
            MoveL [[2363.70,-253.31,942.85],[0.987339,-0.0523102,-0.000726747,0.149747],[-1,-1,-2,0],[9E+09,9E+09,9E+09,9E+09,9E+09,9E+09]],v1500,z30,t_pinza;
            MoveL [[2281.05,-359.28,937.58],[0.994176,-0.0970739,-0.00404374,-0.0466377],[-1,-1,-1,0],[9E+09,9E+09,9E+09,9E+09,9E+09,9E+09]],v1500,z30,t_pinza;
            MoveL [[2151.42,-359.24,939.61],[0.994285,-0.0911777,-0.00444513,-0.0553638],[-1,-1,-1,0],[9E+09,9E+09,9E+09,9E+09,9E+09,9E+09]],v1500,z100,t_pinza;
            MoveL [[2151.42,-359.24,1333.06],[0.994284,-0.0911821,-0.00444938,-0.055363],[-1,-1,-1,0],[9E+09,9E+09,9E+09,9E+09,9E+09,9E+09]],v1500,z100,t_pinza;
            MoveJ [[2146.06,-594.62,1624.57],[0.66995,0.302796,-0.222769,-0.6402],[-1,0,-1,0],[9E+09,9E+09,9E+09,9E+09,9E+09,9E+09]],v1500,z30,t_pinza;
            MoveJ [[2307.05,-362.17,1367.87],[0.01773,0.559908,-0.0470001,-0.827031],[-1,0,0,0],[9E+09,9E+09,9E+09,9E+09,9E+09,9E+09]],v1500,z30,t_pinza;
            MoveL [[2270.48,-359.46,1063.13],[0.056043,0.562852,0.00161465,-0.824654],[-1,0,0,0],[9E+09,9E+09,9E+09,9E+09,9E+09,9E+09]],v1500,fine,t_pinza;
            !
            CloseHighLift gun1;
            ! Punto nº 3
            SetGO go_Progr_soldad,3;
            MoveL [[2256.69,-359.39,1066.29],[0.0125643,0.482035,-0.0671883,-0.873482],[-1,-1,0,0],[9E+09,9E+09,9E+09,9E+09,9E+09,9E+09]],v2500,fine,t_pinza;
            Soldar\Aproximado;
            OpenHighLift gun1;
            !
            MoveL [[2270.48,-359.46,1063.13],[0.056043,0.562852,0.00161465,-0.824654],[-1,0,0,0],[9E+09,9E+09,9E+09,9E+09,9E+09,9E+09]],v800,z10,t_pinza;
            MoveL [[2270.84,-355.85,1038.49],[0.0297153,0.713286,-0.0386417,-0.699176],[-1,1,-1,0],[9E+09,9E+09,9E+09,9E+09,9E+09,9E+09]],v1500,fine,t_pinza;
            !
            CloseHighLift gun1;
            ! Punto nº 7
            SetGO go_Progr_soldad,7;
            !MoveL [[2251.23,-358.17,1033.00],[0.0308035,0.711129,-0.0375693,-0.70138],[-1,1,-1,0],[9E+09,9E+09,9E+09,9E+09,9E+09,9E+09]],v2500,fine,t_pinza;
            MoveL [[2248.03,-358.17,1024.94],[0.0308018,0.71113,-0.0375689,-0.70138],[-1,1,-1,0],[9E+09,9E+09,9E+09,9E+09,9E+09,9E+09]],v2500,fine,t_pinza;
            Soldar\Aproximado;
            !OpenHighLift gun1;
            !
            MoveL [[2267.06,-355.89,1038.47],[0.0297117,0.713281,-0.0386464,-0.699181],[-1,1,-1,0],[9E+09,9E+09,9E+09,9E+09,9E+09,9E+09]],v1500,z30,t_pinza;
            MoveL [[2268.43,-355.90,1083.52],[0.0342505,0.794279,-0.0346737,-0.605596],[-1,1,-1,0],[9E+09,9E+09,9E+09,9E+09,9E+09,9E+09]],v1500,z30,t_pinza;
            MoveL [[2257.16,-355.01,1095.15],[0.0794434,0.919021,-0.00916775,-0.386012],[-1,1,-1,0],[9E+09,9E+09,9E+09,9E+09,9E+09,9E+09]],v1500,fine,t_pinza;
            !
            ! Punto nº 8
            SetGO go_Progr_soldad,8;
            MoveL [[2254.53,-355.80,1085.79],[0.085228,0.916477,-0.00897754,-0.390801],[-1,1,-1,0],[9E+09,9E+09,9E+09,9E+09,9E+09,9E+09]],v2500,fine,t_pinza;
            Soldar\Aproximado;
            OpenHighLift gun1;
            !
            MoveL [[2279.93,-355.84,1367.40],[0.0418963,0.921514,-0.0248865,-0.385277],[-1,1,-1,0],[9E+09,9E+09,9E+09,9E+09,9E+09,9E+09]],v1500,z30,t_pinza;
            MoveJ [[2015.03,259.07,1284.59],[0.740826,0.617454,0.136717,-0.226353],[-1,0,-1,0],[9E+09,9E+09,9E+09,9E+09,9E+09,9E+09]],v1500,fine,t_pinza;
            !
            !GOTO salto;
            !
            MoveJ [[1903.68,-320.93,1377.83],[0.972844,0.0146777,0.00747815,-0.230873],[-1,0,-1,0],[9E+09,9E+09,9E+09,9E+09,9E+09,9E+09]],v1500,z30,t_pinza;
            MoveL [[2210.90,-359.31,937.58],[0.994175,-0.0970751,-0.0040422,-0.0466438],[-1,-1,-1,0],[9E+09,9E+09,9E+09,9E+09,9E+09,9E+09]],v1500,z30,t_pinza;
            MoveL [[2301.46,-359.32,937.51],[0.994175,-0.0970744,-0.00402235,-0.0466429],[-1,-1,-1,0],[9E+09,9E+09,9E+09,9E+09,9E+09,9E+09]],v1500,z30,t_pinza;
            MoveL [[2355.83,-266.86,942.20],[0.990456,-0.0581598,-0.00116783,0.124956],[-1,-1,-2,0],[9E+09,9E+09,9E+09,9E+09,9E+09,9E+09]],v1500,z30,t_pinza;
            MoveL [[2328.75,-253.31,942.84],[0.987339,-0.0523083,-0.000723574,0.149747],[-1,-1,-2,0],[9E+09,9E+09,9E+09,9E+09,9E+09,9E+09]],v1500,z30,t_pinza;
            MoveL [[2335.62,-247.59,966.61],[0.984339,-0.0376439,-0.0122973,0.17178],[-1,-1,-2,0],[9E+09,9E+09,9E+09,9E+09,9E+09,9E+09]],v1500,fine,t_pinza;
            !
            CloseHighLift gun1;
            ! Punto nº 13
            SetGO go_Progr_soldad,13;
            MoveL [[2339.10,-242.71,971.73],[0.98434,-0.0376436,-0.0122857,0.171775],[-1,-1,-2,0],[9E+09,9E+09,9E+09,9E+09,9E+09,9E+09]],v2500,fine,t_pinza;
            Soldar\Aproximado;
            !
            MoveL [[2335.97,-234.31,952.71],[0.984824,-0.0256198,0.00303786,0.171628],[-1,-1,-2,0],[9E+09,9E+09,9E+09,9E+09,9E+09,9E+09]],v1500,z5,t_pinza;
            !
            ! Punto nº 14
            SetGO go_Progr_soldad,14;
            MoveL [[2335.30,-210.15,969.40],[0.983067,-0.0282473,0.020726,0.179865],[-1,-1,-2,0],[9E+09,9E+09,9E+09,9E+09,9E+09,9E+09]],v2500,fine,t_pinza;
            Soldar\Aproximado;
            OpenHighLift gun1;
            !
            MoveL [[2322.90,-218.13,927.20],[0.971878,-0.0409677,0.0928571,0.212491],[-1,-1,-2,0],[9E+09,9E+09,9E+09,9E+09,9E+09,9E+09]],v1500,z30,t_pinza;
            MoveL [[2370.76,-217.96,921.25],[0.975659,-0.0413426,0.0875275,0.196772],[-1,-1,-2,0],[9E+09,9E+09,9E+09,9E+09,9E+09,9E+09]],v1500,z30,t_pinza;
            MoveL [[2374.78,-217.87,949.52],[0.985119,-0.0290756,-0.00426818,0.169341],[-1,-1,-2,0],[9E+09,9E+09,9E+09,9E+09,9E+09,9E+09]],v1500,z30,t_pinza;
            MoveL [[2356.91,-234.04,955.39],[0.98129,-0.0200095,-0.0528427,0.184055],[-1,0,-2,0],[9E+09,9E+09,9E+09,9E+09,9E+09,9E+09]],v1500,fine,t_pinza;
            !
            CloseHighLift gun1;
            ! Punto nº 15
            SetGO go_Progr_soldad,15;
            MoveL [[2361.19,-226.67,970.07],[0.981431,-0.0205391,-0.0501733,0.183995],[-1,0,-2,0],[9E+09,9E+09,9E+09,9E+09,9E+09,9E+09]],v2500,fine,t_pinza;
            Soldar\Aproximado;
            !
            MoveL [[2361.35,-225.64,952.77],[0.979408,-0.0183424,-0.0362142,0.197766],[-1,-1,-2,0],[9E+09,9E+09,9E+09,9E+09,9E+09,9E+09]],v1500,z5,t_pinza;
            !
            ! Punto nº 16
            SetGO go_Progr_soldad,16;
            MoveL [[2361.36,-195.53,968.49],[0.976681,-0.0189261,-0.0238283,0.212526],[-1,-1,-2,0],[9E+09,9E+09,9E+09,9E+09,9E+09,9E+09]],v2500,fine,t_pinza;
            Soldar\Aproximado;
            OpenHighLift gun1;
            !
            MoveL [[2374.76,-217.87,949.50],[0.986297,-0.0290411,-0.00446862,0.162339],[-1,-1,-2,0],[9E+09,9E+09,9E+09,9E+09,9E+09,9E+09]],v1500,z30,t_pinza;
            MoveL [[2370.72,-217.88,917.43],[0.978727,-0.0384689,0.0781136,0.185775],[-1,-1,-2,0],[9E+09,9E+09,9E+09,9E+09,9E+09,9E+09]],v1500,z30,t_pinza;
            MoveL [[2303.99,-261.81,933.61],[0.988105,-0.0481197,0.0840221,0.119468],[-1,-1,-2,0],[9E+09,9E+09,9E+09,9E+09,9E+09,9E+09]],v1500,z30,t_pinza;
            MoveL [[2225.02,-339.48,941.75],[0.996584,-0.0429549,0.048753,-0.050982],[-1,-1,-1,0],[9E+09,9E+09,9E+09,9E+09,9E+09,9E+09]],v1500,z30,t_pinza;
            MoveL [[2108.33,-372.40,941.71],[0.994996,-0.0441591,0.0476758,-0.0758929],[-1,-1,-1,0],[9E+09,9E+09,9E+09,9E+09,9E+09,9E+09]],v1500,z30,t_pinza;
            !
            !salto:
            !
            MoveJ [[1404.99,1.92,1401.91],[0.99991,-0.000630796,0.012958,-0.0033434],[-1,-1,-1,0],[9E+09,9E+09,9E+09,9E+09,9E+09,9E+09]],v1500,z30,t_pinza;
        ENDIF
        MoveJ [[1404.99,1.92,1401.91],[0.99991,-0.000630796,0.012958,-0.0033434],[-1,-1,-1,0],[9E+09,9E+09,9E+09,9E+09,9E+09,9E+09]],v1500,z30,t_pinza;
        !
        ! Posición reposo
        MoveAbsJ home_pos_rob,v3000,fine,t_pinza;
        Set do_mesa_free;
        rAnticol acA1_R2,aaDeactivate;
        rAnticol acA3_R2,aaDeactivate;
        rAnticol acA4_R3,aaDeactivate;
        !
        !Fin_ciclo
        End_of_cycle;
        home_robot;
    ENDPROC

    PROC SE380_M1_5FA_813_303_A()
        TPErase;
        TPWrite "----------------------------------------";
        TPWrite "   [  MB ABRERA ]  -  [Grupo GESTAMP]   ";
        TPWrite "----------------------------------------";
        TPWrite "           [DPTO. de  robotica]         ";
        TPWrite "----------------------------------------";
        TPWrite "                                        ";
        TPWrite "----------------------------------------";
        TPWrite "Soldando util 1 Ref:  Revestimiento 380 ";
        TPWrite "----------------------------------------";
        TPWrite "                                        ";
        TPWrite "----------------------------------------";
        !
        SetDO do_Abrir_Agua,1;
        WaitUntil di_flow1_ok=1 AND di_flow2_ok=1;
        ! Posición reposo
        MoveAbsJ home_pos_rob,v3000,fine,t_pinza;
        !
        rAnticol acA1_R2,aaActivate;
        rAnticol acA3_R2,aaActivate;
        rAnticol acA4_R3,aaActivate;
        !
        WHILE di_util1_OK=0 DO
            TPWrite "Esperando Útil en condiciones para soldar";
        ENDWHILE
        TPErase;
        !
        OpenHighLift gun1;
        !
        ! Mesa en posicion
        Reset do_mesa_free;
        !
        MoveJ [[1374.18,-3.83,1533.82],[0.99991,-0.000625717,0.0129629,-0.0033479],[-1,-1,-1,0],[9E+09,9E+09,9E+09,9E+09,9E+09,9E+09]],vmax,fine,t_pinza;
        !
        IF di_Util1_Fase1=1 THEN
            !
            MoveJ [[1828.76,275.93,959.10],[0.998007,0.0630151,-0.00146049,-0.00302759],[0,0,-1,0],[9E+09,9E+09,9E+09,9E+09,9E+09,9E+09]],vmax,z30,t_pinza;
            MoveL [[1910.34,268.79,952.85],[0.998005,0.0630469,-0.00133608,-0.00308947],[0,0,-1,0],[9E+09,9E+09,9E+09,9E+09,9E+09,9E+09]],vmax,fine,t_pinza;
            !
            CloseHighLift gun1;
            ! Punto nº 1
            SetGO go_Progr_soldad,1;
            MoveL [[1912.65,264.92,969.46],[0.998005,0.0630493,-0.00131657,-0.0031038],[0,0,-1,0],[9E+09,9E+09,9E+09,9E+09,9E+09,9E+09]],v2500,fine,t_pinza;
            Soldar\Aproximado;
            OpenHighLift gun1;
            !
            MoveL [[1903.53,269.75,910.57],[0.998006,0.0630341,-0.0014147,-0.00304133],[0,0,-1,0],[9E+09,9E+09,9E+09,9E+09,9E+09,9E+09]],vmax,z30,t_pinza;
            MoveL [[1904.86,209.13,921.10],[0.998007,0.0630159,-0.00145661,-0.00306415],[0,0,-1,0],[9E+09,9E+09,9E+09,9E+09,9E+09,9E+09]],vmax,z30,t_pinza;
            MoveL [[1941.81,209.10,921.07],[0.998007,0.0630166,-0.00144972,-0.00306586],[0,0,-1,0],[9E+09,9E+09,9E+09,9E+09,9E+09,9E+09]],vmax,z30,t_pinza;
            MoveL [[1936.04,215.18,952.71],[0.997943,0.0629927,-0.0113345,-0.00367777],[0,0,-1,0],[9E+09,9E+09,9E+09,9E+09,9E+09,9E+09]],vmax,fine,t_pinza;
            !
            CloseHighLift gun1;
            ! Punto nº 2
            SetGO go_Progr_soldad,2;
            MoveL [[1935.25,220.05,963.00],[0.997645,0.0629375,-0.0268612,-0.00466607],[0,0,-1,0],[9E+09,9E+09,9E+09,9E+09,9E+09,9E+09]],v2500,fine,t_pinza;
            Soldar\Aproximado;
            OpenHighLift gun1;
            !
            MoveL [[1941.81,209.10,921.07],[0.998007,0.0630149,-0.001451,-0.00306444],[0,0,-1,0],[9E+09,9E+09,9E+09,9E+09,9E+09,9E+09]],vmax,z30,t_pinza;
            MoveL [[1814.69,209.14,912.70],[0.998007,0.0630102,-0.00143081,-0.0030535],[0,0,-1,0],[9E+09,9E+09,9E+09,9E+09,9E+09,9E+09]],vmax,z30,t_pinza;
            MoveL [[1814.66,327.08,1503.28],[0.998009,0.0629858,-0.00139661,-0.0030575],[0,0,-1,0],[9E+09,9E+09,9E+09,9E+09,9E+09,9E+09]],vmax,fine,t_pinza;
            !
        ENDIF
        !
        IF di_Util1_Fase2=1 THEN
            !
            WaitDI di_Pinza_Abierta,1;
            MoveL [[1814.66,327.08,1503.28],[0.998009,0.0629858,-0.00139661,-0.0030575],[0,0,-1,0],[9E+09,9E+09,9E+09,9E+09,9E+09,9E+09]],vmax,z30,t_pinza;
            MoveJ [[1926.84,-222.82,1357.13],[0.0357303,0.573164,-0.0366895,-0.817839],[-1,0,0,0],[9E+09,9E+09,9E+09,9E+09,9E+09,9E+09]],vmax,z30,t_pinza;
            MoveL [[2278.31,-639.00,1287.18],[0.147308,0.545613,-0.1343,-0.813984],[-1,0,0,0],[9E+09,9E+09,9E+09,9E+09,9E+09,9E+09]],vmax,z30,t_pinza;
            MoveL [[2268.45,-637.80,1116.18],[0.0876805,0.47975,-0.0997893,-0.867291],[-1,0,0,0],[9E+09,9E+09,9E+09,9E+09,9E+09,9E+09]],vmax,fine,t_pinza;
            !
            CloseHighLift gun1;
            ! Punto nº 4
            SetGO go_Progr_soldad,4;
            MoveL [[2256.12,-642.20,1105.83],[0.0836328,0.44209,-0.100881,-0.887347],[-1,0,0,0],[9E+09,9E+09,9E+09,9E+09,9E+09,9E+09]],v2500,fine,t_pinza;
            Soldar\Aproximado;
            OpenHighLift gun1;
            !
            MoveJ [[2281.89,-632.13,1123.97],[0.0627882,0.45894,-0.142509,-0.874713],[-1,-1,0,0],[9E+09,9E+09,9E+09,9E+09,9E+09,9E+09]],vmax,z1,t_pinza;
            MoveJ [[2290.83,-626.06,1120.37],[0.0721143,0.629151,-0.160622,-0.757079],[-1,-1,0,1],[9E+09,9E+09,9E+09,9E+09,9E+09,9E+09]],vmax,z1,t_pinza;
            MoveL [[2290.83,-626.06,1120.37],[0.0721143,0.629151,-0.160622,-0.757079],[-1,-1,0,1],[9E+09,9E+09,9E+09,9E+09,9E+09,9E+09]],vmax,z1,t_pinza;
            !
            ! Punto nº 5
            SetGO go_Progr_soldad,5;
            MoveL [[2250.53,-641.04,1061.04],[0.0831622,0.709691,-0.0734468,-0.695722],[-1,-1,0,1],[9E+09,9E+09,9E+09,9E+09,9E+09,9E+09]],v2500,fine,t_pinza;
            Soldar\Aproximado;
            !
            ! Punto nº 6
            SetGO go_Progr_soldad,6;
            MoveL [[2249.45,-640.43,1087.60],[0.107767,0.707892,-0.0834312,-0.693047],[-1,-1,1,1],[9E+09,9E+09,9E+09,9E+09,9E+09,9E+09]],v2500,fine,t_pinza;
            Soldar\Aproximado;
            OpenHighLift gun1;
            !
            MoveL [[2275.79,-652.17,1087.51],[0.13126,0.703777,-0.115434,-0.688581],[-1,-1,1,1],[9E+09,9E+09,9E+09,9E+09,9E+09,9E+09]],vmax,z30,t_pinza;
            MoveL [[2287.12,-637.68,1274.02],[0.170415,0.695881,-0.15601,-0.679977],[-1,-1,1,1],[9E+09,9E+09,9E+09,9E+09,9E+09,9E+09]],vmax,z30,t_pinza;
            MoveJ [[2279.71,-626.29,1294.92],[0.171815,0.699324,-0.156229,-0.676031],[-1,-1,1,1],[9E+09,9E+09,9E+09,9E+09,9E+09,9E+09]],vmax,fine,t_pinza;
            !
            rAnticol acA1_R2,aaDeactivate;
            !
            MoveJ [[1856.50,-416.47,1350.66],[0.192634,0.488465,-0.163869,-0.83513],[-1,-1,0,0],[9E+09,9E+09,9E+09,9E+09,9E+09,9E+09]],vmax,z30,t_pinza;
            MoveJ [[1614.36,-398.13,1247.16],[0.739727,0.166582,-0.0130361,-0.651832],[0,0,-1,0],[9E+09,9E+09,9E+09,9E+09,9E+09,9E+09]],vmax,z30,t_pinza;
            MoveJ [[1899.52,-512.15,998.04],[0.986463,-0.0119018,-0.00662079,-0.16342],[-1,-1,-1,0],[9E+09,9E+09,9E+09,9E+09,9E+09,9E+09]],vmax,fine,t_pinza;
            !
            rAnticol acA2_R2,aaActivate;
            !
            MoveL [[2061.31,-636.82,976.05],[0.999093,-0.025395,-0.0329222,-0.00913413],[-1,-1,-2,0],[9E+09,9E+09,9E+09,9E+09,9E+09,9E+09]],vmax,z30,t_pinza;
            MoveL [[2274.99,-647.72,1022.58],[0.999094,-0.0253783,-0.0329363,-0.00910991],[-1,-1,-2,0],[9E+09,9E+09,9E+09,9E+09,9E+09,9E+09]],vmax,fine,t_pinza;
            !
            CloseHighLift gun1;
            ! Punto nº 18
            SetGO go_Progr_soldad,18;
            MoveL [[2273.10,-639.19,1037.76],[0.999297,-0.025634,-0.0273316,0.00117413],[-1,-1,-2,0],[9E+09,9E+09,9E+09,9E+09,9E+09,9E+09]],v2500,fine,t_pinza;
            Soldar\Aproximado;
            !
            ! Punto nº 19
            SetGO go_Progr_soldad,19;
            MoveL [[2310.65,-651.06,1039.75],[0.998672,-0.0246126,-0.0286746,-0.0350149],[-1,-1,-2,0],[9E+09,9E+09,9E+09,9E+09,9E+09,9E+09]],v2500,fine,t_pinza;
            Soldar\Aproximado;
            OpenHighLift gun1;
            !
            MoveL [[2274.99,-647.72,1022.58],[0.999094,-0.0253783,-0.0329363,-0.00910991],[-1,-1,-2,0],[9E+09,9E+09,9E+09,9E+09,9E+09,9E+09]],vmax,z30,t_pinza;
            MoveL [[2061.31,-636.82,976.05],[0.999093,-0.025395,-0.0329222,-0.00913413],[-1,-1,-2,0],[9E+09,9E+09,9E+09,9E+09,9E+09,9E+09]],vmax,z30,t_pinza;
            MoveJ [[2001.64,-514.32,984.57],[0.989381,-0.0184783,-0.0241645,-0.142125],[-1,-1,-1,0],[9E+09,9E+09,9E+09,9E+09,9E+09,9E+09]],vmax,fine,t_pinza;
            !
            rAnticol acA2_R2,aaDeactivate;
            rAnticol acA3_R2,aaDeactivate;
            !
            MoveJ [[2089.36,-356.19,943.24],[0.999081,-0.0195948,-0.0373278,0.0077693],[-1,-1,-2,0],[9E+09,9E+09,9E+09,9E+09,9E+09,9E+09]],vmax,fine,t_pinza;
            !
            !Abrimos Brida I
            Set do_Move_Fix1;
            WHILE di_FixMoved1=0 DO
                TPWrite " Esperando centradores útil retrocedidos";
            ENDWHILE
            TPErase;
            Reset do_Move_Fix1;
            !
            MoveJ [[2089.36,-356.19,943.24],[0.999081,-0.0195948,-0.0373278,0.0077693],[-1,-1,-2,0],[9E+09,9E+09,9E+09,9E+09,9E+09,9E+09]],vmax,fine,t_pinza;
            !
            rAnticol acA3_R2,aaDeactivate;
            !
            MoveL [[2343.00,-338.55,937.73],[0.99811,-0.0501011,-0.0152292,0.0321519],[-1,-1,-2,0],[9E+09,9E+09,9E+09,9E+09,9E+09,9E+09]],vmax,z50,t_pinza;
            MoveL [[2346.24,-290.75,942.94],[0.99401,-0.0509691,-0.0120081,0.0959295],[-1,-1,-2,0],[9E+09,9E+09,9E+09,9E+09,9E+09,9E+09]],vmax,z50,t_pinza;
            MoveL [[2357.64,-289.29,963.37],[0.994718,-0.0618447,-0.00592021,0.0817125],[-1,-1,-2,0],[9E+09,9E+09,9E+09,9E+09,9E+09,9E+09]],vmax,fine,t_pinza;
            !
            CloseHighLift gun1;
            ! Punto nº 12
            SetGO go_Progr_soldad,12;
            MoveL [[2355.50,-274.36,978.84],[0.995393,-0.0596869,-0.0169654,0.0730871],[-1,-1,-2,0],[9E+09,9E+09,9E+09,9E+09,9E+09,9E+09]],v2500,fine,t_pinza;
            Soldar\Aproximado;
            OpenHighLift gun1;
            !
            MoveL [[2353.29,-282.74,944.48],[0.995393,-0.0596887,-0.016976,0.0730878],[-1,-1,-2,0],[9E+09,9E+09,9E+09,9E+09,9E+09,9E+09]],vmax,z30,t_pinza;
            MoveL [[2319.22,-339.41,941.85],[0.998073,-0.0582999,-0.0212392,0.000793147],[-1,-1,-2,0],[9E+09,9E+09,9E+09,9E+09,9E+09,9E+09]],vmax,z30,t_pinza;
            MoveL [[2323.65,-356.62,980.63],[0.994178,-0.0970506,-0.00413773,-0.0466221],[-1,-1,-1,0],[9E+09,9E+09,9E+09,9E+09,9E+09,9E+09]],vmax,fine,t_pinza;
            !
            CloseHighLift gun1;
            ! Punto nº 10
            SetGO go_Progr_soldad,10;
            MoveL [[2326.43,-353.26,992.56],[0.993605,-0.0984032,-0.0339865,-0.0437063],[-1,-1,-1,0],[9E+09,9E+09,9E+09,9E+09,9E+09,9E+09]],v2500,fine,t_pinza;
            Soldar\Aproximado;
            OpenHighLift gun1;
            !
            MoveL [[2323.39,-355.23,940.60],[0.994176,-0.0970693,-0.00408612,-0.046633],[-1,-1,-1,0],[9E+09,9E+09,9E+09,9E+09,9E+09,9E+09]],vmax,z30,t_pinza;
            MoveL [[2346.67,-334.22,968.16],[0.997262,-0.0615377,-0.00831789,0.0401671],[-1,-1,-2,0],[9E+09,9E+09,9E+09,9E+09,9E+09,9E+09]],vmax,fine,t_pinza;
            !
            CloseHighLift gun1;
            ! Punto nº 11
            SetGO go_Progr_soldad,11;
            MoveL [[2353.74,-330.15,987.72],[0.997261,-0.0615308,-0.00836684,0.0401791],[-1,-1,-2,0],[9E+09,9E+09,9E+09,9E+09,9E+09,9E+09]],v2500,fine,t_pinza;
            Soldar\Aproximado;
            OpenHighLift gun1;
            !
            MoveL [[2353.70,-334.57,937.87],[0.997261,-0.0615331,-0.00831187,0.0401818],[-1,-1,-2,0],[9E+09,9E+09,9E+09,9E+09,9E+09,9E+09]],vmax,z30,t_pinza;
            MoveL [[2352.94,-295.46,937.86],[0.989021,-0.0620615,-0.00245506,0.134086],[-1,-1,-2,0],[9E+09,9E+09,9E+09,9E+09,9E+09,9E+09]],vmax,z30,t_pinza;
            MoveL [[2282.99,-320.48,942.72],[0.99342,-0.0708907,-0.00274561,0.089905],[-1,-1,-2,0],[9E+09,9E+09,9E+09,9E+09,9E+09,9E+09]],vmax,z30,t_pinza;
            MoveL [[2277.51,-358.34,977.83],[0.994176,-0.0970683,-0.00408705,-0.0466387],[-1,-1,-1,0],[9E+09,9E+09,9E+09,9E+09,9E+09,9E+09]],vmax,fine,t_pinza;
            !
            CloseHighLift gun1;
            ! Punto nº 9
            SetGO go_Progr_soldad,9;
            MoveL [[2267.92,-349.82,989.71],[0.994065,-0.0975832,-0.015518,-0.045515],[-1,-1,-1,0],[9E+09,9E+09,9E+09,9E+09,9E+09,9E+09]],v2500,fine,t_pinza;
            Soldar\Aproximado;
            OpenHighLift gun1;
            !
            MoveL [[2281.05,-359.28,937.58],[0.994176,-0.0970739,-0.00404374,-0.0466377],[-1,-1,-1,0],[9E+09,9E+09,9E+09,9E+09,9E+09,9E+09]],vmax,z30,t_pinza;
            MoveL [[2363.70,-253.31,942.85],[0.987339,-0.0523102,-0.000726747,0.149747],[-1,-1,-2,0],[9E+09,9E+09,9E+09,9E+09,9E+09,9E+09]],vmax,z30,t_pinza;
            MoveL [[2366.64,-222.66,953.23],[0.984164,-0.0226402,-0.00661756,0.175685],[-1,-1,-2,0],[9E+09,9E+09,9E+09,9E+09,9E+09,9E+09]],vmax,z30,t_pinza;
            MoveL [[2352.31,-179.85,962.92],[0.968906,-0.0536527,-0.0488045,0.236558],[-1,-1,-2,0],[9E+09,9E+09,9E+09,9E+09,9E+09,9E+09]],vmax,fine,t_pinza;
            !
            CloseHighLift gun1;
            ! Punto nº 17
            SetGO go_Progr_soldad,17;
            MoveL [[2355.04,-179.81,968.48],[0.970248,-0.0322732,-0.0436492,0.235951],[-1,-1,-2,0],[9E+09,9E+09,9E+09,9E+09,9E+09,9E+09]],v2500,fine,t_pinza;
            Soldar\Aproximado;
            !
            ! Punto nº 16
            SetGO go_Progr_soldad,16;
            MoveL [[2361.33,-197.34,970.32],[0.981157,-0.029957,-0.0444052,0.185638],[-1,-1,-2,0],[9E+09,9E+09,9E+09,9E+09,9E+09,9E+09]],v2500,fine,t_pinza;
            Soldar\Aproximado;
            !
            MoveL [[2365.24,-207.27,959.02],[0.984662,-0.0290746,-0.0450103,0.166042],[-1,-1,-2,0],[9E+09,9E+09,9E+09,9E+09,9E+09,9E+09]],vmax,z10,t_pinza;
            MoveL [[2365.56,-231.42,965.14],[0.9846,-0.0288529,-0.0463525,0.166076],[-1,-1,-2,0],[9E+09,9E+09,9E+09,9E+09,9E+09,9E+09]],vmax,z10,t_pinza;
            !
            ! Punto nº 15
            SetGO go_Progr_soldad,15;
            MoveL [[2363.45,-231.46,973.69],[0.984662,-0.0290858,-0.0450291,0.166034],[-1,-1,-2,0],[9E+09,9E+09,9E+09,9E+09,9E+09,9E+09]],v2500,fine,t_pinza;
            Soldar\Aproximado;
            OpenHighLift gun1;
            !
            MoveL [[2366.48,-231.42,965.13],[0.9846,-0.0288524,-0.0463495,0.166076],[-1,-1,-2,0],[9E+09,9E+09,9E+09,9E+09,9E+09,9E+09]],vmax,z10,t_pinza;
            MoveL [[2359.93,-254.64,966.68],[0.986435,-0.0283645,-0.0462757,0.154918],[-1,-1,-2,0],[9E+09,9E+09,9E+09,9E+09,9E+09,9E+09]],vmax,z10,t_pinza;
            MoveL [[2336.80,-254.04,967.58],[0.987439,-0.0280755,-0.0462282,0.148458],[-1,-1,-2,0],[9E+09,9E+09,9E+09,9E+09,9E+09,9E+09]],vmax,z10,t_pinza;
            !
            ! Punto nº 13
            SetGO go_Progr_soldad,13;
            MoveL [[2340.29,-242.41,971.63],[0.98434,-0.0376317,-0.0122623,0.171779],[-1,-1,-2,0],[9E+09,9E+09,9E+09,9E+09,9E+09,9E+09]],v2500,fine,t_pinza;
            CloseHighLift gun1;
            Soldar\Aproximado;
            !
            MoveL [[2333.87,-220.15,965.01],[0.983669,-0.0291557,-0.0455342,0.171675],[-1,-1,-2,0],[9E+09,9E+09,9E+09,9E+09,9E+09,9E+09]],vmax,z10,t_pinza;
            !
            ! Punto nº 14
            SetGO go_Progr_soldad,14;
            MoveL [[2338.34,-207.78,968.61],[0.979995,-0.0276973,0.00389027,0.197045],[-1,-1,-2,0],[9E+09,9E+09,9E+09,9E+09,9E+09,9E+09]],v2500,fine,t_pinza;
            Soldar\Aproximado;
            OpenHighLift gun1;
            !
            MoveL [[2333.43,-220.15,965.02],[0.983669,-0.0291545,-0.0455351,0.171671],[-1,-1,-2,0],[9E+09,9E+09,9E+09,9E+09,9E+09,9E+09]],vmax,z10,t_pinza;
            MoveL [[2305.06,-245.41,957.01],[0.993326,-0.0295546,-0.0355895,0.10566],[-1,-1,-2,0],[9E+09,9E+09,9E+09,9E+09,9E+09,9E+09]],vmax,z10,t_pinza;
            MoveL [[2281.05,-328.05,959.76],[0.994176,-0.0970738,-0.00404551,-0.0466366],[-1,-1,-1,0],[9E+09,9E+09,9E+09,9E+09,9E+09,9E+09]],vmax,z30,t_pinza;
            MoveL [[2151.42,-359.24,939.61],[0.994285,-0.0911777,-0.00444513,-0.0553638],[-1,-1,-1,0],[9E+09,9E+09,9E+09,9E+09,9E+09,9E+09]],vmax,z100,t_pinza;
            MoveJ [[2151.42,-359.24,1333.06],[0.994284,-0.0911821,-0.00444938,-0.055363],[-1,-1,-1,0],[9E+09,9E+09,9E+09,9E+09,9E+09,9E+09]],vmax,z100,t_pinza;
            MoveJ [[2070.35,-418.84,1544.70],[0.734473,0.248785,-0.293835,-0.558852],[0,-1,-1,0],[9E+09,9E+09,9E+09,9E+09,9E+09,9E+09]],vmax,z30,t_pinza;
            MoveJ [[1943.41,-419.11,1320.72],[0.408083,0.499664,-0.250104,-0.721978],[0,-1,0,0],[9E+09,9E+09,9E+09,9E+09,9E+09,9E+09]],vmax,z30,t_pinza;
            MoveJ [[2276.60,-315.15,1114.43],[0.0388602,0.723845,-0.0342225,-0.688016],[-1,-1,1,1],[9E+09,9E+09,9E+09,9E+09,9E+09,9E+09]],vmax,z10,t_pinza;
            MoveJ [[2270.93,-356.97,1060.04],[0.0327272,0.718006,-0.035665,-0.694352],[-1,-1,1,1],[9E+09,9E+09,9E+09,9E+09,9E+09,9E+09]],vmax,z10,t_pinza;
            !
            ! Punto nº 7
            SetGO go_Progr_soldad,7;
            MoveL [[2252.99,-359.90,1047.35],[0.0308469,0.711021,-0.0375444,-0.70149],[-1,-1,1,1],[9E+09,9E+09,9E+09,9E+09,9E+09,9E+09]],v2500,fine,t_pinza;
            CloseHighLift gun1;
            Soldar\Aproximado;
            OpenHighLift gun1;
            !
            MoveJ [[2270.93,-356.97,1060.04],[0.0327272,0.718006,-0.035665,-0.694352],[-1,-1,1,1],[9E+09,9E+09,9E+09,9E+09,9E+09,9E+09]],vmax,z10,t_pinza;
            MoveJ [[2280.18,-351.60,1078.25],[0.0294158,0.695343,-0.0480195,-0.716468],[-1,-1,1,1],[9E+09,9E+09,9E+09,9E+09,9E+09,9E+09]],vmax,z10,t_pinza;
            MoveJ [[2272.63,-353.50,1107.03],[0.0110068,0.574694,-0.079355,-0.814437],[-1,-1,1,0],[9E+09,9E+09,9E+09,9E+09,9E+09,9E+09]],vmax,z10,t_pinza;
            MoveJ [[2272.72,-359.01,1074.78],[0.00601372,0.465484,-0.0765235,-0.881721],[-1,-1,0,0],[9E+09,9E+09,9E+09,9E+09,9E+09,9E+09]],vmax,z10,t_pinza;
            !
            ! Punto nº 3
            SetGO go_Progr_soldad,3;
            MoveL [[2260.81,-362.35,1066.77],[0.00440354,0.446135,-0.0765757,-0.891673],[-1,-1,1,0],[9E+09,9E+09,9E+09,9E+09,9E+09,9E+09]],v2500,fine,t_pinza;
            CloseHighLift gun1;
            Soldar\Aproximado;
            OpenHighLift gun1;
            !
            MoveJ [[2272.72,-359.01,1074.78],[0.00601372,0.465484,-0.0765235,-0.881721],[-1,-1,0,0],[9E+09,9E+09,9E+09,9E+09,9E+09,9E+09]],vmax,z10,t_pinza;
            MoveJ [[2272.63,-353.50,1107.03],[0.0110068,0.574694,-0.079355,-0.814437],[-1,-1,1,0],[9E+09,9E+09,9E+09,9E+09,9E+09,9E+09]],vmax,z10,t_pinza;
            MoveJ [[2280.18,-351.60,1078.25],[0.0294158,0.695343,-0.0480195,-0.716468],[-1,-1,1,1],[9E+09,9E+09,9E+09,9E+09,9E+09,9E+09]],vmax,z10,t_pinza;
            MoveJ [[2264.28,-353.61,1097.40],[0.0164151,0.78235,-0.0564708,-0.620056],[-1,-1,1,1],[9E+09,9E+09,9E+09,9E+09,9E+09,9E+09]],vmax,z10,t_pinza;
            MoveJ [[2252.69,-353.63,1088.25],[0.0250711,0.869995,-0.0532024,-0.489541],[-1,-1,1,1],[9E+09,9E+09,9E+09,9E+09,9E+09,9E+09]],vmax,z10,t_pinza;
            !
            ! Punto nº 8
            SetGO go_Progr_soldad,8;
            MoveL [[2253.93,-356.93,1084.48],[0.0852273,0.916438,-0.00892657,-0.390893],[-1,-1,1,1],[9E+09,9E+09,9E+09,9E+09,9E+09,9E+09]],v2500,fine,t_pinza;
            CloseHighLift gun1;
            Soldar\Aproximado;
            OpenHighLift gun1;
            !
            MoveJ [[2275.66,-275.65,1286.42],[0.195416,0.805091,-0.172792,-0.532714],[-1,-1,0,1],[9E+09,9E+09,9E+09,9E+09,9E+09,9E+09]],vmax,z30,t_pinza;
            MoveJ [[1807.67,-419.03,1519.70],[0.678695,0.306534,-0.306862,-0.592659],[0,-1,0,0],[9E+09,9E+09,9E+09,9E+09,9E+09,9E+09]],vmax,z30,t_pinza;
            !
            GOTO saltoR1_M1;
            !
            MoveJ [[1903.68,-320.93,1377.83],[0.972844,0.0146777,0.00747815,-0.230873],[-1,0,-1,0],[9E+09,9E+09,9E+09,9E+09,9E+09,9E+09]],vmax,z30,t_pinza;
            MoveL [[2210.90,-359.31,937.58],[0.994175,-0.0970751,-0.0040422,-0.0466438],[-1,-1,-1,0],[9E+09,9E+09,9E+09,9E+09,9E+09,9E+09]],vmax,z30,t_pinza;
            MoveL [[2301.46,-359.32,937.51],[0.994175,-0.0970744,-0.00402235,-0.0466429],[-1,-1,-1,0],[9E+09,9E+09,9E+09,9E+09,9E+09,9E+09]],vmax,z30,t_pinza;
            MoveL [[2355.83,-266.86,942.20],[0.990456,-0.0581598,-0.00116783,0.124956],[-1,-1,-2,0],[9E+09,9E+09,9E+09,9E+09,9E+09,9E+09]],vmax,z30,t_pinza;
            MoveL [[2328.75,-253.31,942.84],[0.987339,-0.0523083,-0.000723574,0.149747],[-1,-1,-2,0],[9E+09,9E+09,9E+09,9E+09,9E+09,9E+09]],vmax,z30,t_pinza;
            MoveL [[2335.62,-247.59,966.61],[0.984339,-0.0376439,-0.0122973,0.17178],[-1,-1,-2,0],[9E+09,9E+09,9E+09,9E+09,9E+09,9E+09]],vmax,fine,t_pinza;
            !
            CloseHighLift gun1;
            ! Punto nº 13
            SetGO go_Progr_soldad,13;
            MoveL [[2339.10,-242.71,971.73],[0.98434,-0.0376436,-0.0122857,0.171775],[-1,-1,-2,0],[9E+09,9E+09,9E+09,9E+09,9E+09,9E+09]],v2500,fine,t_pinza;
            Soldar\Aproximado;
            !
            MoveL [[2335.97,-234.31,952.71],[0.984824,-0.0256198,0.00303786,0.171628],[-1,-1,-2,0],[9E+09,9E+09,9E+09,9E+09,9E+09,9E+09]],vmax,z5,t_pinza;
            !
            ! Punto nº 14
            SetGO go_Progr_soldad,14;
            MoveL [[2335.30,-210.15,969.40],[0.983067,-0.0282473,0.020726,0.179865],[-1,-1,-2,0],[9E+09,9E+09,9E+09,9E+09,9E+09,9E+09]],v2500,fine,t_pinza;
            Soldar\Aproximado;
            OpenHighLift gun1;
            !
            MoveL [[2322.90,-218.13,927.20],[0.971878,-0.0409677,0.0928571,0.212491],[-1,-1,-2,0],[9E+09,9E+09,9E+09,9E+09,9E+09,9E+09]],vmax,z30,t_pinza;
            MoveL [[2370.76,-217.96,921.25],[0.975659,-0.0413426,0.0875275,0.196772],[-1,-1,-2,0],[9E+09,9E+09,9E+09,9E+09,9E+09,9E+09]],vmax,z30,t_pinza;
            MoveL [[2374.78,-217.87,949.52],[0.985119,-0.0290756,-0.00426818,0.169341],[-1,-1,-2,0],[9E+09,9E+09,9E+09,9E+09,9E+09,9E+09]],vmax,z30,t_pinza;
            MoveL [[2356.91,-234.04,955.39],[0.98129,-0.0200095,-0.0528427,0.184055],[-1,0,-2,0],[9E+09,9E+09,9E+09,9E+09,9E+09,9E+09]],vmax,fine,t_pinza;
            !
            CloseHighLift gun1;
            ! Punto nº 15
            SetGO go_Progr_soldad,15;
            MoveL [[2361.19,-226.67,970.07],[0.981431,-0.0205391,-0.0501733,0.183995],[-1,0,-2,0],[9E+09,9E+09,9E+09,9E+09,9E+09,9E+09]],v2500,fine,t_pinza;
            Soldar\Aproximado;
            !
            MoveL [[2361.35,-225.64,952.77],[0.979408,-0.0183424,-0.0362142,0.197766],[-1,-1,-2,0],[9E+09,9E+09,9E+09,9E+09,9E+09,9E+09]],vmax,z5,t_pinza;
            !
            ! Punto nº 16
            SetGO go_Progr_soldad,16;
            MoveL [[2361.36,-195.53,968.49],[0.976681,-0.0189261,-0.0238283,0.212526],[-1,-1,-2,0],[9E+09,9E+09,9E+09,9E+09,9E+09,9E+09]],v2500,fine,t_pinza;
            Soldar\Aproximado;
            OpenHighLift gun1;
            !
            MoveL [[2374.76,-217.87,949.50],[0.986297,-0.0290411,-0.00446862,0.162339],[-1,-1,-2,0],[9E+09,9E+09,9E+09,9E+09,9E+09,9E+09]],vmax,z30,t_pinza;
            MoveL [[2370.72,-217.88,917.43],[0.978727,-0.0384689,0.0781136,0.185775],[-1,-1,-2,0],[9E+09,9E+09,9E+09,9E+09,9E+09,9E+09]],vmax,z30,t_pinza;
            MoveL [[2303.99,-261.81,933.61],[0.988105,-0.0481197,0.0840221,0.119468],[-1,-1,-2,0],[9E+09,9E+09,9E+09,9E+09,9E+09,9E+09]],vmax,z30,t_pinza;
            MoveL [[2225.02,-339.48,941.75],[0.996584,-0.0429549,0.048753,-0.050982],[-1,-1,-1,0],[9E+09,9E+09,9E+09,9E+09,9E+09,9E+09]],vmax,z30,t_pinza;
            MoveL [[2108.33,-372.40,941.71],[0.994996,-0.0441591,0.0476758,-0.0758929],[-1,-1,-1,0],[9E+09,9E+09,9E+09,9E+09,9E+09,9E+09]],vmax,z30,t_pinza;
            !
            saltoR1_M1:
            !
            MoveJ [[1404.99,1.92,1401.91],[0.99991,-0.000630796,0.012958,-0.0033434],[-1,-1,-1,0],[9E+09,9E+09,9E+09,9E+09,9E+09,9E+09]],vmax,z30,t_pinza;
            !
        ENDIF
        !
        MoveJ [[1404.99,1.92,1401.91],[0.99991,-0.000630796,0.012958,-0.0033434],[-1,-1,-1,0],[9E+09,9E+09,9E+09,9E+09,9E+09,9E+09]],vmax,z30,t_pinza;
        !
        ! Posición reposo
        MoveAbsJ home_pos_rob,v3000,fine,t_pinza;
        !
        Set do_mesa_free;
        !
        rAnticol acA1_R2,aaDeactivate;
        rAnticol acA3_R2,aaDeactivate;
        rAnticol acA4_R3,aaDeactivate;
        !
        !Fin_ciclo
        End_of_cycle;
        home_robot;
        !
        RETURN ;
    ENDPROC

    PROC SE380_M1_NEW()
        TPErase;
    TPWrite "----------------------------------------";
    TPWrite "   [  MB ABRERA ]  -  [Grupo GESTAMP]   ";
    TPWrite "----------------------------------------";
    TPWrite "           [DPTO. de  robotica]         ";
    TPWrite "----------------------------------------";
    TPWrite "                                        ";
    TPWrite "----------------------------------------";
    TPWrite "Soldando util 1 Ref:  Revestimiento 380 ";
    TPWrite "----------------------------------------";
    TPWrite "                                        ";
    TPWrite "----------------------------------------";
    !
    SetDO do_Abrir_Agua, 1;
    WaitUntil di_flow1_ok = 1 AND di_flow2_ok = 1;
    ! Posición reposo
    MoveAbsJ home_pos_rob,v3000,fine,t_pinza;
    !
    rAnticol acA4_R3, aaActivate;
    !
    WHILE di_util1_OK=0 DO
        TPWrite"Esperando Útil en condiciones para soldar";
    ENDWHILE
    TPErase;
    !
    OpenHighLift gun1;
    !
    ! Mesa en posicion
    Reset do_mesa_free;
    !
    !MoveJ [[1374.18,-3.83,1533.82],[0.99991,-0.000625717,0.0129629,-0.0033479],[-1,-1,-1,0],[9E+09,9E+09,9E+09,9E+09,9E+09,9E+09]],vmax,fine,t_pinza;
    !
    !
    IF di_Util1_Fase2=1 THEN
        !
        WaitDI di_Pinza_Abierta, 1;
        MoveL [[1950.03,-536.03,1371.26],[0.611764,0.241675,-0.157576,-0.736551],[0,0,0,0],[9E+09,9E+09,9E+09,9E+09,9E+09,9E+09]],vmax,z30,t_pinza;
        MoveJ [[2304.93,-634.71,1357.12],[0.126592,0.565511,-0.100293,-0.808773],[-1,0,0,0],[9E+09,9E+09,9E+09,9E+09,9E+09,9E+09]], vmax, z30, t_pinza;
        !MoveL [[2278.30,-304.11,1287.18],[0.0523811,0.557467,-0.0704301,-0.825546],[-1,0,0,0],[9E+09,9E+09,9E+09,9E+09,9E+09,9E+09]],vmax,z30,t_pinza;
        !
        rAnticol acA1_R2, aaActivate;
        !
        MoveL [[2305.04,-642.77,1119.33],[0.0731285,0.632704,-0.0648974,-0.768197],[-1,1,-1,0],[9E+09,9E+09,9E+09,9E+09,9E+09,9E+09]], vmax, z1, t_pinza;
        !
        ! Punto nº 5
        SetGO go_Progr_soldad,21;
        MoveL [[2250.30,-642.41,1067.68],[0.0731291,0.632705,-0.0648955,-0.768196],[-1,1,-1,0],[9E+09,9E+09,9E+09,9E+09,9E+09,9E+09]],v2500,fine,t_pinza;
        !CloseHighLift gun1;
        Soldar\Aproximado;
        !
        ! Punto nº 6
        SetGO go_Progr_soldad,22;
        MoveL [[2250.32,-642.45,1087.74],[0.0905268,0.617376,-0.0801105,-0.777325],[-1,1,-1,0],[9E+09,9E+09,9E+09,9E+09,9E+09,9E+09]],v2500,fine,t_pinza;
        Soldar\AbrirTotal;
        !OpenHighLift gun1;
        !
        MoveL [[2266.84,-637.76,1106.01],[0.0913577,0.517922,-0.100279,-0.844603],[-1,0,0,0],[9E+09,9E+09,9E+09,9E+09,9E+09,9E+09]], vmax, fine, t_pinza;
        !
        !
        !CloseHighLift gun1;
        ! Punto nº 4
        SetGO go_Progr_soldad,23;
        MoveL [[2255.16,-641.31,1105.96],[0.0867831,0.482834,-0.103688,-0.86521],[-1,0,0,0],[9E+09,9E+09,9E+09,9E+09,9E+09,9E+09]],v2500,fine,t_pinza;
        Soldar\AbrirTotal;
        !OpenHighLift gun1;
        MoveL [[2281.31,-642.44,1084.63],[0.0867514,0.581168,-0.0841597,-0.804758],[-1,0,-1,0],[9E+09,9E+09,9E+09,9E+09,9E+09,9E+09]],vmax,z30,t_pinza;
        MoveL [[2281.31,-642.42,1286.87],[0.180442,0.567294,-0.15165,-0.789063],[-1,0,0,0],[9E+09,9E+09,9E+09,9E+09,9E+09,9E+09]],vmax,z10,t_pinza;
        MoveJ [[2336.70,-261.50,1268.72],[0.101443,0.74953,-0.0681612,-0.65059],[-1,-1,1,1],[9E+09,9E+09,9E+09,9E+09,9E+09,9E+09]],vmax,z10,t_pinza;
        !
        rAnticol acA1_R2, aaDeactivate;
        !
        MoveL [[2302.22,-362.12,1061.93],[0.171666,0.689227,-0.180283,-0.680437],[-1,-1,0,1],[9E+09,9E+09,9E+09,9E+09,9E+09,9E+09]], vmax, z10, t_Pinza;
        !
        ! Punto nº 7
        SetGO go_Progr_soldad,24;
        MoveL [[2250.89,-362.16,1045.72],[0.171666,0.689232,-0.180291,-0.68043],[-1,-1,0,1],[9E+09,9E+09,9E+09,9E+09,9E+09,9E+09]],v2500,fine,t_pinza;
        !CloseHighLift gun1;
        Soldar\AbrirTotal;
        !OpenHighLift gun1;
        !
        MoveL [[2261.56,-361.60,1045.69],[0.171666,0.689231,-0.180286,-0.680433],[-1,-1,0,1],[9E+09,9E+09,9E+09,9E+09,9E+09,9E+09]],vmax,z10,t_pinza;
        MoveL [[2261.26,-361.58,1048.32],[0.0565567,0.557012,-0.132831,-0.81786],[-1,1,-1,1],[9E+09,9E+09,9E+09,9E+09,9E+09,9E+09]], vmax, z10, t_pinza;
        MoveL [[2261.99,-362.54,1064.02],[0.0292679,0.524197,-0.121644,-0.842356],[-1,1,-1,1],[9E+09,9E+09,9E+09,9E+09,9E+09,9E+09]], vmax, z10, t_pinza;
        !
        ! Punto nº 3
        SetGO go_Progr_soldad,25;
        MoveL [[2256.98,-362.53,1064.04],[0.00329854,0.494544,-0.110485,-0.862096],[-1,1,-1,1],[9E+09,9E+09,9E+09,9E+09,9E+09,9E+09]],v2500,fine,t_pinza;
        !CloseHighLift gun1;
        Soldar\AbrirTotal;
        !OpenHighLift gun1;
        !
        MoveL [[2279.30,-361.58,1060.10],[0.0557739,0.557087,-0.133977,-0.817676],[-1,1,-1,1],[9E+09,9E+09,9E+09,9E+09,9E+09,9E+09]], vmax, z10, t_pinza;
        MoveL [[2271.40,-361.57,1045.68],[0.171673,0.68923,-0.180281,-0.680433],[-1,-1,0,1],[9E+09,9E+09,9E+09,9E+09,9E+09,9E+09]], vmax, z10, t_pinza;
        MoveL [[2271.65,-353.61,1097.35],[0.102859,0.766787,-0.165187,-0.611695],[-1,-1,0,1],[9E+09,9E+09,9E+09,9E+09,9E+09,9E+09]],vmax,z10,t_pinza;
        MoveL [[2274.62,-353.62,1088.23],[0.0990273,0.85186,-0.184532,-0.48008],[-1,-1,0,1],[9E+09,9E+09,9E+09,9E+09,9E+09,9E+09]],vmax,z10,t_pinza;
        !
        ! Punto nº 8
        SetGO go_Progr_soldad,26;
        MoveL [[2255.69,-361.25,1086.59],[0.119006,0.909001,-0.0830486,-0.390713],[-1,-1,0,1],[9E+09,9E+09,9E+09,9E+09,9E+09,9E+09]],v2500,fine,t_pinza;
        !CloseHighLift gun1;
        Soldar\AbrirTotal;
        !OpenHighLift gun1;
        !
        !
        MoveL [[2274.62,-353.62,1088.24],[0.0990275,0.851861,-0.184531,-0.480078],[-1,-1,0,1],[9E+09,9E+09,9E+09,9E+09,9E+09,9E+09]],vmax,z30,t_pinza;
        MoveL [[2274.61,-353.61,1227.96],[0.0603736,0.739422,-0.200529,-0.639843],[0,0,0,1],[9E+09,9E+09,9E+09,9E+09,9E+09,9E+09]], vmax, fine, t_pinza;
        MoveJ [[1810.20,-428.43,1222.13],[0.967306,0.0614306,0.0139803,-0.245661],[-1,0,-1,0],[9E+09,9E+09,9E+09,9E+09,9E+09,9E+09]],vmax,z30,t_pinza;
        !MoveJ [[2281.33,-642.45,1345.63],[0.144583,0.573588,-0.125869,-0.796398],[-1,2,-2,1],[9E+09,9E+09,9E+09,9E+09,9E+09,9E+09]],vmax,z30,t_pinza;
        !MoveJ [[1785.59,-469.47,1381.70],[0.179143,0.471254,-0.260946,-0.823246],[0,1,-1,1],[9E+09,9E+09,9E+09,9E+09,9E+09,9E+09]], vmax, fine, t_pinza;
        !MoveJ [[1760.91,-305.11,1659.65],[0.746337,0.20237,-0.393358,-0.497289],[0,-1,0,0],[9E+09,9E+09,9E+09,9E+09,9E+09,9E+09]], vmax, z30, t_pinza;
        !MoveJ [[1748.52,-266.76,1075.42],[0.984695,9.29977E-05,-0.028478,-0.171943],[-1,-1,-1,0],[9E+09,9E+09,9E+09,9E+09,9E+09,9E+09]], vmax, fine, t_pinza;
        !
        !
        MoveJ [[2061.31,-636.82,976.05],[0.984783,-0.0198059,-0.0365593,-0.168739],[-1,-1,-1,0],[9E+09,9E+09,9E+09,9E+09,9E+09,9E+09]], vmax, fine, t_pinza;
        MoveL [[2221.13,-666.70,991.14],[0.984783,-0.0198052,-0.0365587,-0.168739],[-1,-1,-1,0],[9E+09,9E+09,9E+09,9E+09,9E+09,9E+09]], vmax, z30, t_pinza;
        rAnticol acA2_R2, aaActivate;
        MoveL [[2275.00,-647.71,1022.60],[0.998346,-0.0243668,-0.0337016,-0.0396888],[-1,-1,-2,0],[9E+09,9E+09,9E+09,9E+09,9E+09,9E+09]], vmax, fine, t_pinza;
        !
        !CloseHighLift gun1;
        ! Punto nº 18
        SetGO go_Progr_soldad,27;
        MoveL [[2277.37,-636.89,1041.35],[0.999252,-0.025338,-0.0276077,-0.00949749],[-1,-1,-2,0],[9E+09,9E+09,9E+09,9E+09,9E+09,9E+09]],v2500,fine,t_pinza;
        Soldar\Aproximado;
        !
        ! Punto nº 19
        SetGO go_Progr_soldad,28;
        MoveL [[2310.64,-651.07,1039.74],[0.998627,-0.0245663,-0.0287046,-0.0362941],[-1,-1,-2,0],[9E+09,9E+09,9E+09,9E+09,9E+09,9E+09]],v2500,fine,t_pinza;
        Soldar\AbrirTotal;
        !OpenHighLift gun1;
        !
        MoveL [[2274.98,-647.70,1022.57],[0.99827,-0.0243016,-0.0337394,-0.0415607],[-1,-1,-2,0],[9E+09,9E+09,9E+09,9E+09,9E+09,9E+09]], vmax, z30, t_pinza;
        MoveL [[2061.15,-644.58,978.55],[0.99135,-0.0214274,-0.0356359,-0.124487],[-1,-1,-2,0],[9E+09,9E+09,9E+09,9E+09,9E+09,9E+09]], vmax, z30, t_pinza;
        MoveJ [[2001.64,-514.32,984.57],[0.989381,-0.0184783,-0.0241645,-0.142125],[-1,-1,-1,0],[9E+09,9E+09,9E+09,9E+09,9E+09,9E+09]], vmax, fine, t_pinza;
        !
        rAnticol acA2_R2, aaDeactivate;
        !
        !Abrimos Brida I
        !Set do_Move_Fix1;
        !WHILE di_FixMoved1=0 DO
            !TPWrite" Esperando centradores útil retrocedidos";
        !ENDWHILE
        !TPErase;
        !Reset do_Move_Fix1;
        !
        MoveL [[2108.97,-355.52,961.72],[0.997795,-0.018248,-0.0294086,-0.0566329],[-1,-1,-2,0],[9E+09,9E+09,9E+09,9E+09,9E+09,9E+09]], vmax, z30, t_pinza;
        MoveL [[2274.66,-355.52,990.08],[0.997795,-0.0182444,-0.0294182,-0.0566334],[-1,-1,-2,0],[9E+09,9E+09,9E+09,9E+09,9E+09,9E+09]], vmax, fine, t_pinza;
        !
        !CloseHighLift gun1;
        ! Punto nº 9
        SetGO go_Progr_soldad,29;
        MoveL [[2277.82,-349.39,991.84],[0.99359,-0.0933013,-0.0250714,-0.0586878],[-1,-1,-1,0],[9E+09,9E+09,9E+09,9E+09,9E+09,9E+09]],v2500,fine,t_pinza;
        Soldar\AbrirTotal;
        !OpenHighLift gun1;
        !
        MoveL [[2278.21,-351.38,938.77],[0.99359,-0.0933036,-0.0250622,-0.058696],[-1,-1,-1,0],[9E+09,9E+09,9E+09,9E+09,9E+09,9E+09]], vmax, z30, t_pinza;
        !
        MoveL [[2330.21,-349.37,949.09],[0.995308,-0.0945096,-0.0200328,-0.00531662],[-1,-1,-2,0],[9E+09,9E+09,9E+09,9E+09,9E+09,9E+09]], vmax, z30, t_pinza;
        !
        ! Punto nº 10
        SetGO go_Progr_soldad,30;
        MoveL [[2321.01,-348.56,993.79],[0.995308,-0.0945111,-0.0200296,-0.00531716],[-1,-1,-2,0],[9E+09,9E+09,9E+09,9E+09,9E+09,9E+09]],v2500,fine,t_pinza;
        !CloseHighLift gun1;
        Soldar\AbrirTotal;
        !OpenHighLift gun1;
        !
        MoveL [[2330.21,-349.37,949.09],[0.995308,-0.0945096,-0.0200328,-0.00531662],[-1,-1,-2,0],[9E+09,9E+09,9E+09,9E+09,9E+09,9E+09]], vmax, z30, t_pinza;
        !
        ! Punto nº 11
        SetGO go_Progr_soldad,31;
        MoveL [[2355.11,-322.56,987.91],[0.994972,-0.0976657,-0.0140726,0.0171246],[-1,-1,-2,0],[9E+09,9E+09,9E+09,9E+09,9E+09,9E+09]],v2500,fine,t_pinza;
        !CloseHighLift gun1;
        Soldar\AbrirTotal;
        !OpenHighLift gun1;
        !
        MoveL [[2355.10,-332.29,945.91],[0.994972,-0.0976657,-0.0140722,0.0171257],[-1,-1,-2,0],[9E+09,9E+09,9E+09,9E+09,9E+09,9E+09]], vmax, z30, t_pinza;
        MoveL [[2346.24,-290.75,942.94],[0.99401,-0.0509691,-0.0120081,0.0959295],[-1,-1,-2,0],[9E+09,9E+09,9E+09,9E+09,9E+09,9E+09]], vmax, z50, t_pinza;
        MoveL [[2357.64,-289.29,963.37],[0.994718,-0.0618447,-0.00592021,0.0817125],[-1,-1,-2,0],[9E+09,9E+09,9E+09,9E+09,9E+09,9E+09]], vmax, z50, t_pinza;
        !
        ! Punto nº 12
        SetGO go_Progr_soldad,32;
        MoveL [[2355.50,-274.36,979.93],[0.995393,-0.0596873,-0.0169655,0.0730877],[-1,-1,-2,0],[9E+09,9E+09,9E+09,9E+09,9E+09,9E+09]],v2500,fine,t_pinza;
        !CloseHighLift gun1;
        Soldar\Aproximado;
        !OpenHighLift gun1;
        !
        MoveL [[2366.03,-254.70,963.56],[0.992067,-0.0590274,-0.0162736,0.109789],[-1,-1,-2,0],[9E+09,9E+09,9E+09,9E+09,9E+09,9E+09]], vmax, z30, t_pinza;
        !
        ! Punto nº 13
        SetGO go_Progr_soldad,34;
        MoveL [[2365.11,-225.56,970.91],[0.989678,-0.0578323,-0.0237381,0.128953],[-1,-1,-2,0],[9E+09,9E+09,9E+09,9E+09,9E+09,9E+09]],v2500,fine,t_pinza;
        !CloseHighLift gun1;
        Soldar\Aproximado;
        !
        MoveL [[2367.82,-211.09,962.34],[0.9888,-0.0594782,-0.0146825,0.136093],[-1,-1,-2,0],[9E+09,9E+09,9E+09,9E+09,9E+09,9E+09]], vmax, z20, t_pinza;
        !
        ! Punto nº 14
        SetGO go_Progr_soldad,35;
        MoveL [[2365.61,-194.92,970.46],[0.981157,-0.0299579,-0.0444049,0.185639],[-1,-1,-2,0],[9E+09,9E+09,9E+09,9E+09,9E+09,9E+09]],v2500,fine,t_pinza;
        Soldar\AbrirTotal;
        !OpenHighLift gun1;
        !
        MoveL [[2367.60,-219.86,964.45],[0.985141,-0.0289361,-0.0450796,0.163183],[-1,-1,-2,0],[9E+09,9E+09,9E+09,9E+09,9E+09,9E+09]], vmax, z30, t_pinza;
        MoveL [[2376.78,-219.84,946.82],[0.986154,-0.0354061,-0.0058428,0.1619],[-1,-1,-2,0],[9E+09,9E+09,9E+09,9E+09,9E+09,9E+09]], v800, z1, t_pinza;
        MoveL [[2340.35,-226.12,910.16],[0.986329,-0.0469245,0.0546607,0.148209],[-1,-1,-2,0],[9E+09,9E+09,9E+09,9E+09,9E+09,9E+09]], v800, z1, t_pinza;
        MoveL [[2311.22,-229.86,909.95],[0.98633,-0.0469291,0.0546536,0.148203],[-1,-1,-2,0],[9E+09,9E+09,9E+09,9E+09,9E+09,9E+09]], v800, z1, t_pinza;
        !
        rAnticol acA2_R2, aaActivate;
        !
        ! Punto nº 15
        SetGO go_Progr_soldad,36;
        MoveL [[2340.26,-243.19,970.80],[0.988181,-0.0405926,0.0141497,0.147143],[-1,-1,-2,0],[9E+09,9E+09,9E+09,9E+09,9E+09,9E+09]],v2500,fine,t_pinza;
        !CloseHighLift gun1;
        Soldar\Aproximado;
        !
        MoveL [[2340.98,-224.34,963.07],[0.988183,-0.0405982,0.0141269,0.147127],[-1,-1,-2,0],[9E+09,9E+09,9E+09,9E+09,9E+09,9E+09]], vmax, z30, t_pinza;
        !
        ! Punto nº 16
        SetGO go_Progr_soldad,37;
        MoveL [[2340.70,-205.15,970.76],[0.981741,-0.0391036,0.0111212,0.185828],[-1,-1,-2,0],[9E+09,9E+09,9E+09,9E+09,9E+09,9E+09]],v2500,fine,t_pinza;
        Soldar\Aproximado;
        !
        MoveL [[2338.22,-204.64,959.97],[0.981799,-0.0400295,0.0156819,0.184992],[-1,-1,-2,0],[9E+09,9E+09,9E+09,9E+09,9E+09,9E+09]], vmax, fine, t_pinza;
        !
        ! Punto nº 17
        SetGO go_Progr_soldad,33;
        MoveL [[2355.04,-178.76,970.18],[0.970248,-0.0322731,-0.0436478,0.235951],[-1,-1,-2,0],[9E+09,9E+09,9E+09,9E+09,9E+09,9E+09]],v2500,fine,t_pinza;
        Soldar\AbrirTotal;
        !OpenHighLift gun1;
        !
        MoveL [[2338.23,-204.65,959.98],[0.980743,-0.0399374,0.0159041,0.190516],[-1,-1,-2,0],[9E+09,9E+09,9E+09,9E+09,9E+09,9E+09]], vmax, fine, t_pinza;
        rAnticol acA3_R2, aaDeactivate;
        MoveL [[2325.20,-220.97,964.07],[0.983684,-0.0420929,-0.00479657,0.174848],[-1,-1,-2,0],[9E+09,9E+09,9E+09,9E+09,9E+09,9E+09]], vmax, z30, t_pinza;
        MoveL [[2273.68,-257.38,964.08],[0.997228,-0.0412707,-0.00958073,0.061161],[-1,-1,-2,0],[9E+09,9E+09,9E+09,9E+09,9E+09,9E+09]], vmax, z30, t_pinza;
        !
        !
        MoveL [[2221.53,-305.30,951.47],[0.999078,-0.0406851,-0.0118067,0.00690595],[-1,-1,-2,0],[9E+09,9E+09,9E+09,9E+09,9E+09,9E+09]], vmax, z30, t_pinza;
        MoveL [[2067.01,-305.01,994.15],[0.998822,-0.0394357,-0.0110461,0.0260269],[-1,-1,-2,0],[9E+09,9E+09,9E+09,9E+09,9E+09,9E+09]], vmax, z30, t_pinza;
        MoveJ [[1751.52,-305.01,1046.24],[0.998822,-0.0394358,-0.0110451,0.0260265],[-1,-1,-2,0],[9E+09,9E+09,9E+09,9E+09,9E+09,9E+09]], vmax, fine, t_pinza;
        !
        rAnticol acA2_R2, aaDeactivate;
        !
    ENDIF
    !
    !Abrimos Bridas
    Set do_Move_Fix1;
    !WHILE di_FixMoved1=0 DO
        !TPWrite" Esperando bridas útil retrocedidos";
    !ENDWHILE
    TPErase;
    !
    rAnticol acA4_R3, aaDeactivate;
    !
    IF di_Util1_Fase1=1 THEN
        !
        MoveJ [[1828.76,275.93,959.10],[0.998007,0.0630151,-0.00146049,-0.00302759],[0,0,-1,0],[9E+09,9E+09,9E+09,9E+09,9E+09,9E+09]],vmax,z30,t_pinza;
        MoveL [[1910.34,268.79,952.85],[0.998005,0.0630469,-0.00133608,-0.00308947],[0,0,-1,0],[9E+09,9E+09,9E+09,9E+09,9E+09,9E+09]],vmax,fine,t_pinza;
        !
        !CloseHighLift gun1;
        ! Punto nº 1
        SetGO go_Progr_soldad,38;
        MoveL [[1913.76,264.92,971.13],[0.998005,0.063051,-0.00131169,-0.00310327],[0,0,-1,0],[9E+09,9E+09,9E+09,9E+09,9E+09,9E+09]],v2500,fine,t_pinza;
        Soldar\AbrirTotal;
        !OpenHighLift gun1;
        !
        MoveL [[1903.53,269.75,910.57],[0.998006,0.0630341,-0.0014147,-0.00304133],[0,0,-1,0],[9E+09,9E+09,9E+09,9E+09,9E+09,9E+09]],vmax,z30,t_pinza;
        MoveL [[1904.86,209.13,921.10],[0.998007,0.0630159,-0.00145661,-0.00306415],[0,0,-1,0],[9E+09,9E+09,9E+09,9E+09,9E+09,9E+09]],vmax,z30,t_pinza;
        MoveL [[1941.81,209.10,921.07],[0.998007,0.0630166,-0.00144972,-0.00306586],[0,0,-1,0],[9E+09,9E+09,9E+09,9E+09,9E+09,9E+09]], vmax, z30, t_pinza;
        MoveL [[1936.04,215.18,952.71],[0.997943,0.0629927,-0.0113345,-0.00367777],[0,0,-1,0],[9E+09,9E+09,9E+09,9E+09,9E+09,9E+09]], vmax, fine, t_pinza;
        !
        !CloseHighLift gun1;
        ! Punto nº 2
        SetGO go_Progr_soldad,39;
        MoveL [[1936.89,220.05,967.23],[0.997645,0.0629382,-0.0268618,-0.00466692],[0,0,-1,0],[9E+09,9E+09,9E+09,9E+09,9E+09,9E+09]],v2500,fine,t_pinza;
        Soldar\AbrirTotal;
        !OpenHighLift gun1;
        !
        MoveL [[1941.81,209.10,921.07],[0.998007,0.0630149,-0.001451,-0.00306444],[0,0,-1,0],[9E+09,9E+09,9E+09,9E+09,9E+09,9E+09]],vmax,z30,t_pinza;
        MoveL [[1814.69,209.14,912.70],[0.998007,0.0630102,-0.00143081,-0.0030535],[0,0,-1,0],[9E+09,9E+09,9E+09,9E+09,9E+09,9E+09]],vmax,z30,t_pinza;
        MoveL [[1814.66,327.08,1503.28],[0.998009,0.0629858,-0.00139661,-0.0030575],[0,0,-1,0],[9E+09,9E+09,9E+09,9E+09,9E+09,9E+09]],vmax,fine,t_pinza;
        !
    ENDIF
    !
    ! Posición reposo
    MoveAbsJ home_pos_rob,v3000,fine,t_pinza;
    !
    Set do_mesa_free;
    !
    rAnticol acA2_R2, aaDeactivate;
    rAnticol acA3_R2, aaDeactivate;
    rAnticol acA4_R3, aaDeactivate;
    !
    Reset do_Move_Fix1;
    home_robot;
    !
    RETURN;
    ENDPROC

    PROC SE380_M3_NEW()
        TPErase;
        TPWrite "----------------------------------------";
        TPWrite "   [  MB ABRERA ]  -  [Grupo GESTAMP]   ";
        TPWrite "----------------------------------------";
        TPWrite "           [DPTO. de  robotica]         ";
        TPWrite "----------------------------------------";
        TPWrite "                                        ";
        TPWrite "----------------------------------------";
        TPWrite "Soldando util 3 Ref:  Revestimiento 380 ";
        TPWrite "----------------------------------------";
        TPWrite "                                        ";
        TPWrite "----------------------------------------";
        !
        SetDO do_Abrir_Agua,1;
        WaitUntil di_flow1_ok=1 AND di_flow2_ok=1;
        ! Posición reposo
        MoveAbsJ home_pos_rob,v3000,fine,t_pinza;
        !
        rAnticol acA4_R3,aaActivate;
        !
        WHILE di_util3_OK=0 DO
            TPWrite "Esperando Útil en condiciones para soldar";
        ENDWHILE
        TPErase;
        !
        OpenHighLift gun1;
        !
        ! Mesa en posicion
        Reset do_mesa_free;
        !
        MoveJ [[1374.18,-3.83,1533.82],[0.99991,-0.000625717,0.0129629,-0.0033479],[-1,-1,-1,0],[9E+09,9E+09,9E+09,9E+09,9E+09,9E+09]],vmax,fine,t_pinza;
        !
        IF di_Util3_Fase2=1 THEN
            !
            WaitDI di_Pinza_Abierta,1;
            MoveL [[1814.66,327.08,1503.28],[0.998009,0.0629858,-0.00139661,-0.0030575],[0,0,-1,0],[9E+09,9E+09,9E+09,9E+09,9E+09,9E+09]],vmax,z30,t_pinza;
            MoveJ [[1926.84,-222.82,1357.13],[0.0357303,0.573164,-0.0366895,-0.817839],[-1,0,0,0],[9E+09,9E+09,9E+09,9E+09,9E+09,9E+09]],vmax,z30,t_pinza;
            MoveL [[2278.30,-304.11,1287.18],[0.0523811,0.557467,-0.0704301,-0.825546],[-1,0,0,0],[9E+09,9E+09,9E+09,9E+09,9E+09,9E+09]],vmax,z30,t_pinza;
            MoveJ [[2280.26,-359.88,1047.36],[0.171673,0.689232,-0.18028,-0.680431],[-1,-1,0,1],[9E+09,9E+09,9E+09,9E+09,9E+09,9E+09]],vmax,z10,t_pinza;
            !
            ! Punto nº 7
            SetGO go_Progr_soldad,7;
            MoveL [[2246.81,-363.35,1039.36],[0.171667,0.689231,-0.180282,-0.680433],[-1,-1,0,1],[9E+09,9E+09,9E+09,9E+09,9E+09,9E+09]],v2500,fine,t_pinza;
            !CloseHighLift gun1;
            Soldar\Aproximado;
            !
            MoveL [[2261.56,-361.58,1045.69],[0.171674,0.68923,-0.180282,-0.680432],[-1,-1,0,1],[9E+09,9E+09,9E+09,9E+09,9E+09,9E+09]],vmax,z10,t_pinza;
            MoveL [[2259.98,-366.00,1048.31],[0.056561,0.557011,-0.132833,-0.81786],[-1,1,-1,1],[9E+09,9E+09,9E+09,9E+09,9E+09,9E+09]],vmax,z10,t_pinza;
            MoveL [[2261.98,-362.55,1064.02],[0.0292651,0.524195,-0.121644,-0.842358],[-1,1,-1,1],[9E+09,9E+09,9E+09,9E+09,9E+09,9E+09]],vmax,z10,t_pinza;
            !
            ! Punto nº 3
            SetGO go_Progr_soldad,3;
            MoveL [[2255.33,-363.52,1064.04],[0.00217215,0.485752,-0.110515,-0.867079],[-1,1,-1,1],[9E+09,9E+09,9E+09,9E+09,9E+09,9E+09]],v2500,fine,t_pinza;
            Soldar\AbrirTotal;
            !OpenHighLift gun1;
            !
            MoveL [[2279.30,-361.58,1060.10],[0.0557739,0.557087,-0.133977,-0.817676],[-1,1,-1,1],[9E+09,9E+09,9E+09,9E+09,9E+09,9E+09]],vmax,z10,t_pinza;
            MoveL [[2271.40,-361.57,1045.68],[0.171673,0.68923,-0.180281,-0.680433],[-1,-1,0,1],[9E+09,9E+09,9E+09,9E+09,9E+09,9E+09]],vmax,z10,t_pinza;
            MoveL [[2271.65,-353.61,1097.35],[0.102859,0.766787,-0.165187,-0.611695],[-1,-1,0,1],[9E+09,9E+09,9E+09,9E+09,9E+09,9E+09]],vmax,z10,t_pinza;
            MoveL [[2267.74,-353.63,1088.21],[0.0990288,0.851857,-0.184532,-0.480084],[-1,-1,0,1],[9E+09,9E+09,9E+09,9E+09,9E+09,9E+09]],vmax,z10,t_pinza;
            !
            ! Punto nº 8
            SetGO go_Progr_soldad,8;
            MoveL [[2248.94,-363.40,1086.08],[0.11901,0.909001,-0.0830218,-0.39072],[-1,-1,0,1],[9E+09,9E+09,9E+09,9E+09,9E+09,9E+09]],v2500,fine,t_pinza;
            !CloseHighLift gun1;
            Soldar\AbrirTotal;
            !OpenHighLift gun1;
            !
            MoveL [[2274.62,-353.62,1088.24],[0.0990275,0.851861,-0.184531,-0.480078],[-1,-1,0,1],[9E+09,9E+09,9E+09,9E+09,9E+09,9E+09]],vmax,z30,t_pinza;
            MoveL [[2274.61,-353.61,1227.96],[0.0603736,0.739422,-0.200529,-0.639843],[0,0,0,1],[9E+09,9E+09,9E+09,9E+09,9E+09,9E+09]],vmax,fine,t_pinza;
            rAnticol acA2_R2,aaActivate;
            MoveL [[2282.16,-637.77,1271.01],[0.0614725,0.527531,-0.172429,-0.829579],[-1,1,-2,1],[9E+09,9E+09,9E+09,9E+09,9E+09,9E+09]],vmax,z30,t_pinza;
            MoveL [[2266.85,-637.75,1106.03],[0.0718599,0.520102,-0.0883114,-0.846482],[-1,2,-2,1],[9E+09,9E+09,9E+09,9E+09,9E+09,9E+09]],vmax,fine,t_pinza;
            !
            !CloseHighLift gun1;
            ! Punto nº 4
            SetGO go_Progr_soldad,4;
            MoveL [[2250.29,-646.01,1108.72],[0.0783971,0.483813,-0.0990063,-0.866012],[-1,2,-2,1],[9E+09,9E+09,9E+09,9E+09,9E+09,9E+09]],v2500,fine,t_pinza;
            Soldar\AbrirTotal;
            !OpenHighLift gun1;
            !
            MoveL [[2281.34,-644.32,1084.65],[0.0849411,0.58136,-0.0828517,-0.804948],[-1,2,-3,1],[9E+09,9E+09,9E+09,9E+09,9E+09,9E+09]],vmax,z1,t_pinza;
            !
            ! Punto nº 5
            SetGO go_Progr_soldad,5;
            MoveL [[2244.64,-646.74,1070.30],[0.0780664,0.636799,-0.0630068,-0.764476],[-1,3,-3,1],[9E+09,9E+09,9E+09,9E+09,9E+09,9E+09]],v2500,fine,t_pinza;
            !CloseHighLift gun1;
            Soldar\Aproximado;
            !
            ! Punto nº 6
            SetGO go_Progr_soldad,6;
            MoveL [[2244.65,-646.74,1091.04],[0.0780741,0.636798,-0.0630108,-0.764475],[-1,3,-3,1],[9E+09,9E+09,9E+09,9E+09,9E+09,9E+09]],v2500,fine,t_pinza;
            Soldar\AbrirTotal;
            !OpenHighLift gun1;
            !
            MoveL [[2281.34,-642.48,1084.65],[0.0754461,0.582297,-0.0759992,-0.805892],[-1,2,-3,1],[9E+09,9E+09,9E+09,9E+09,9E+09,9E+09]],vmax,z30,t_pinza;
            MoveJ [[2281.33,-642.45,1345.63],[0.144583,0.573588,-0.125869,-0.796398],[-1,2,-2,1],[9E+09,9E+09,9E+09,9E+09,9E+09,9E+09]],vmax,z30,t_pinza;
            MoveJ [[1785.59,-469.47,1381.70],[0.179143,0.471254,-0.260946,-0.823246],[0,1,-1,1],[9E+09,9E+09,9E+09,9E+09,9E+09,9E+09]],vmax,fine,t_pinza;
            rAnticol acA2_R2,aaDeactivate;
            MoveJ [[1760.91,-305.11,1659.65],[0.746337,0.20237,-0.393358,-0.497289],[0,-1,0,0],[9E+09,9E+09,9E+09,9E+09,9E+09,9E+09]],vmax,z30,t_pinza;
            MoveJ [[1748.52,-266.76,1075.42],[0.984695,9.29977E-05,-0.028478,-0.171943],[-1,-1,-1,0],[9E+09,9E+09,9E+09,9E+09,9E+09,9E+09]],vmax,fine,t_pinza;
            !
            rAnticol acA3_R2,aaActivate;
            !
            MoveJ [[2061.31,-636.82,976.05],[0.984783,-0.0198059,-0.0365593,-0.168739],[-1,-1,-1,0],[9E+09,9E+09,9E+09,9E+09,9E+09,9E+09]],vmax,fine,t_pinza;
            MoveL [[2221.14,-670.18,991.15],[0.984672,-0.0203055,-0.0394528,-0.168679],[-1,-1,-1,0],[9E+09,9E+09,9E+09,9E+09,9E+09,9E+09]],vmax,z30,t_pinza;
            MoveL [[2274.99,-649.32,1022.55],[0.998441,-0.0244292,-0.0336305,-0.0372407],[-1,-1,-2,0],[9E+09,9E+09,9E+09,9E+09,9E+09,9E+09]],vmax,fine,t_pinza;
            !
            ! Punto nº 18
            SetGO go_Progr_soldad,18;
            MoveL [[2273.49,-639.17,1043.84],[0.999294,-0.0255307,-0.0274395,-0.00269835],[-1,-1,-2,0],[9E+09,9E+09,9E+09,9E+09,9E+09,9E+09]],v2500,fine,t_pinza;
            !CloseHighLift gun1;
            Soldar\Aproximado;
            !
            ! Punto nº 19
            SetGO go_Progr_soldad,19;
            MoveL [[2309.47,-653.51,1044.17],[0.998665,-0.0246228,-0.0289086,-0.035012],[-1,-1,-2,0],[9E+09,9E+09,9E+09,9E+09,9E+09,9E+09]],v2500,fine,t_pinza;
            Soldar\AbrirTotal;
            !OpenHighLift gun1;
            !
            MoveL [[2274.99,-647.72,1022.58],[0.999094,-0.0253783,-0.0329363,-0.00910991],[-1,-1,-2,0],[9E+09,9E+09,9E+09,9E+09,9E+09,9E+09]],vmax,z30,t_pinza;
            MoveL [[2061.15,-636.68,978.55],[0.99135,-0.0214286,-0.0356362,-0.124486],[-1,-1,-2,0],[9E+09,9E+09,9E+09,9E+09,9E+09,9E+09]],vmax,z30,t_pinza;
            MoveJ [[2001.64,-514.32,984.57],[0.989381,-0.0184783,-0.0241645,-0.142125],[-1,-1,-1,0],[9E+09,9E+09,9E+09,9E+09,9E+09,9E+09]],vmax,fine,t_pinza;
            !
            rAnticol acA3_R2,aaDeactivate;
            !
            !Abrimos Brida I
            !Set do_Move_Fix1;
            !WHILE di_FixMoved1=0 DO
            !TPWrite" Esperando centradores útil retrocedidos";
            !ENDWHILE
            !TPErase;
            !Reset do_Move_Fix1;
            !
            MoveL [[2108.97,-355.52,961.72],[0.997795,-0.018248,-0.0294086,-0.0566329],[-1,-1,-2,0],[9E+09,9E+09,9E+09,9E+09,9E+09,9E+09]],vmax,z30,t_pinza;
            MoveL [[2274.66,-355.52,990.08],[0.997795,-0.0182444,-0.0294182,-0.0566334],[-1,-1,-2,0],[9E+09,9E+09,9E+09,9E+09,9E+09,9E+09]],vmax,fine,t_pinza;
            !
            !CloseHighLift gun1;
            ! Punto nº 9
            SetGO go_Progr_soldad,9;
            MoveL [[2277.82,-349.39,991.84],[0.99359,-0.0933013,-0.0250714,-0.0586878],[-1,-1,-1,0],[9E+09,9E+09,9E+09,9E+09,9E+09,9E+09]],v2500,fine,t_pinza;
            Soldar\AbrirTotal;
            !OpenHighLift gun1;
            !
            MoveL [[2277.83,-349.38,949.10],[0.99359,-0.093298,-0.0250761,-0.0586917],[-1,-1,-1,0],[9E+09,9E+09,9E+09,9E+09,9E+09,9E+09]],vmax,z30,t_pinza;
            MoveL [[2330.21,-349.37,949.09],[0.995308,-0.0945096,-0.0200328,-0.00531662],[-1,-1,-2,0],[9E+09,9E+09,9E+09,9E+09,9E+09,9E+09]],vmax,z30,t_pinza;
            !
            ! Punto nº 10
            SetGO go_Progr_soldad,10;
            MoveL [[2319.80,-352.71,993.76],[0.995308,-0.0945105,-0.0200246,-0.00531498],[-1,-1,-2,0],[9E+09,9E+09,9E+09,9E+09,9E+09,9E+09]],v2500,fine,t_pinza;
            !CloseHighLift gun1;
            Soldar\AbrirTotal;
            !OpenHighLift gun1;
            !
            MoveL [[2330.21,-349.37,949.09],[0.995308,-0.0945096,-0.0200328,-0.00531662],[-1,-1,-2,0],[9E+09,9E+09,9E+09,9E+09,9E+09,9E+09]],vmax,z30,t_pinza;
            !
            ! Punto nº 11
            SetGO go_Progr_soldad,11;
            MoveL [[2350.21,-327.30,988.86],[0.994972,-0.0976684,-0.0140801,0.0171266],[-1,-1,-2,0],[9E+09,9E+09,9E+09,9E+09,9E+09,9E+09]],v2500,fine,t_pinza;
            !CloseHighLift gun1;
            Soldar\AbrirTotal;
            !OpenHighLift gun1;
            !
            MoveL [[2355.10,-332.29,945.91],[0.994972,-0.0976657,-0.0140722,0.0171257],[-1,-1,-2,0],[9E+09,9E+09,9E+09,9E+09,9E+09,9E+09]],vmax,z30,t_pinza;
            MoveL [[2346.24,-290.75,942.94],[0.99401,-0.0509691,-0.0120081,0.0959295],[-1,-1,-2,0],[9E+09,9E+09,9E+09,9E+09,9E+09,9E+09]],vmax,z50,t_pinza;
            MoveL [[2357.64,-289.29,963.37],[0.994718,-0.0618447,-0.00592021,0.0817125],[-1,-1,-2,0],[9E+09,9E+09,9E+09,9E+09,9E+09,9E+09]],vmax,z50,t_pinza;
            !
            ! Punto nº 12
            SetGO go_Progr_soldad,12;
            MoveL [[2351.14,-274.39,978.30],[0.995393,-0.059692,-0.0169677,0.0730883],[-1,-1,-2,0],[9E+09,9E+09,9E+09,9E+09,9E+09,9E+09]],v2500,fine,t_pinza;
            !CloseHighLift gun1;
            Soldar\AbrirTotal;
            !OpenHighLift gun1;
            !
            MoveL [[2366.03,-254.70,963.56],[0.992067,-0.0590274,-0.0162736,0.109789],[-1,-1,-2,0],[9E+09,9E+09,9E+09,9E+09,9E+09,9E+09]],vmax,z30,t_pinza;
            !
            ! Punto nº 13
            SetGO go_Progr_soldad,13;
            MoveL [[2359.86,-227.78,971.36],[0.986354,-0.0583785,-0.0223541,0.152312],[-1,-1,-2,0],[9E+09,9E+09,9E+09,9E+09,9E+09,9E+09]],v2500,fine,t_pinza;
            !CloseHighLift gun1;
            Soldar\Aproximado;
            !
            MoveL [[2367.83,-211.10,962.35],[0.985925,-0.0586562,-0.0208947,0.155159],[-1,-1,-2,0],[9E+09,9E+09,9E+09,9E+09,9E+09,9E+09]],vmax,z30,t_pinza;
            !
            ! Punto nº 14
            SetGO go_Progr_soldad,14;
            MoveL [[2358.09,-196.36,968.88],[0.981158,-0.0299532,-0.0443831,0.185641],[-1,-1,-2,0],[9E+09,9E+09,9E+09,9E+09,9E+09,9E+09]],v2500,fine,t_pinza;
            Soldar\AbrirTotal;
            !OpenHighLift gun1;
            !
            MoveL [[2367.60,-219.86,964.45],[0.985141,-0.0289361,-0.0450796,0.163183],[-1,-1,-2,0],[9E+09,9E+09,9E+09,9E+09,9E+09,9E+09]],vmax,z30,t_pinza;
            MoveL [[2376.78,-219.84,946.82],[0.986154,-0.0354061,-0.0058428,0.1619],[-1,-1,-2,0],[9E+09,9E+09,9E+09,9E+09,9E+09,9E+09]],v800,z1,t_pinza;
            MoveL [[2349.06,-229.23,931.99],[0.986329,-0.0469231,0.0546516,0.148211],[-1,-1,-2,0],[9E+09,9E+09,9E+09,9E+09,9E+09,9E+09]],v800,z1,t_pinza;
            MoveL [[2311.23,-229.85,935.81],[0.986331,-0.0469255,0.0546435,0.148203],[-1,-1,-2,0],[9E+09,9E+09,9E+09,9E+09,9E+09,9E+09]],v800,z1,t_pinza;
            !
            ! Punto nº 15
            SetGO go_Progr_soldad,15;
            MoveL [[2335.04,-240.78,971.67],[0.991576,-0.0409532,0.0131191,0.122175],[-1,-1,-2,0],[9E+09,9E+09,9E+09,9E+09,9E+09,9E+09]],v2500,fine,t_pinza;
            !CloseHighLift gun1;
            Soldar\Aproximado;
            !
            MoveL [[2332.95,-224.33,963.02],[0.988781,-0.0406534,0.0139747,0.143053],[-1,-1,-2,0],[9E+09,9E+09,9E+09,9E+09,9E+09,9E+09]],vmax,z30,t_pinza;
            !
            ! Punto nº 16
            SetGO go_Progr_soldad,16;
            MoveL [[2333.79,-212.57,968.85],[0.983725,-0.00117552,0.0205563,0.178496],[-1,-1,-2,0],[9E+09,9E+09,9E+09,9E+09,9E+09,9E+09]],v2500,fine,t_pinza;
            Soldar\Aproximado;
            !
            MoveL [[2332.79,-204.65,959.99],[0.980742,-0.0399408,0.0159036,0.190518],[-1,-1,-2,0],[9E+09,9E+09,9E+09,9E+09,9E+09,9E+09]],vmax,fine,t_pinza;
            rAnticol acA3_R2,aaActivate;
            !
            ! Punto nº 17
            SetGO go_Progr_soldad,17;
            MoveL [[2355.04,-180.56,968.08],[0.972905,-0.0317689,-0.044015,0.224743],[-1,-1,-2,0],[9E+09,9E+09,9E+09,9E+09,9E+09,9E+09]],v2500,fine,t_pinza;
            Soldar\AbrirTotal;
            !OpenHighLift gun1;
            !
            MoveL [[2333.04,-202.36,959.98],[0.980742,-0.03994,0.0159036,0.190516],[-1,-1,-2,0],[9E+09,9E+09,9E+09,9E+09,9E+09,9E+09]],vmax,fine,t_pinza;
            rAnticol acA3_R2,aaDeactivate;
            MoveL [[2325.20,-220.97,964.07],[0.983684,-0.0420929,-0.00479657,0.174848],[-1,-1,-2,0],[9E+09,9E+09,9E+09,9E+09,9E+09,9E+09]],vmax,z30,t_pinza;
            MoveL [[2273.68,-257.38,964.08],[0.997228,-0.0412707,-0.00958073,0.061161],[-1,-1,-2,0],[9E+09,9E+09,9E+09,9E+09,9E+09,9E+09]],vmax,z30,t_pinza;
            MoveL [[2221.53,-305.30,951.47],[0.999078,-0.0406851,-0.0118067,0.00690595],[-1,-1,-2,0],[9E+09,9E+09,9E+09,9E+09,9E+09,9E+09]],vmax,z30,t_pinza;
            MoveL [[2067.01,-305.01,994.15],[0.998822,-0.0394357,-0.0110461,0.0260269],[-1,-1,-2,0],[9E+09,9E+09,9E+09,9E+09,9E+09,9E+09]],vmax,z30,t_pinza;
            MoveJ [[1751.52,-305.01,1046.24],[0.998822,-0.0394358,-0.0110451,0.0260265],[-1,-1,-2,0],[9E+09,9E+09,9E+09,9E+09,9E+09,9E+09]],vmax,fine,t_pinza;
            !
           
        ENDIF
        
         !Abrimos Bridas
            Set do_Move_Fix1;
            !
        IF di_Util3_Fase1=1 THEN
            !
            MoveJ [[1828.76,275.93,959.10],[0.998007,0.0630151,-0.00146049,-0.00302759],[0,0,-1,0],[9E+09,9E+09,9E+09,9E+09,9E+09,9E+09]],vmax,z30,t_pinza;
            MoveL [[1908.48,268.80,952.84],[0.998005,0.0630435,-0.00133191,-0.00308641],[0,0,-1,0],[9E+09,9E+09,9E+09,9E+09,9E+09,9E+09]],vmax,fine,t_pinza;
            !
            !CloseHighLift gun1;
            ! Punto nº 1
            SetGO go_Progr_soldad,1;
            MoveL [[1908.74,261.64,971.35],[0.998005,0.0630504,-0.00131367,-0.00310423],[0,0,-1,0],[9E+09,9E+09,9E+09,9E+09,9E+09,9E+09]],v2500,fine,t_pinza;
            Soldar\AbrirTotal;
            !OpenHighLift gun1;
            !
            MoveL [[1903.53,269.75,910.57],[0.998006,0.0630341,-0.0014147,-0.00304133],[0,0,-1,0],[9E+09,9E+09,9E+09,9E+09,9E+09,9E+09]],vmax,z30,t_pinza;
            MoveL [[1904.86,209.13,921.10],[0.998007,0.0630159,-0.00145661,-0.00306415],[0,0,-1,0],[9E+09,9E+09,9E+09,9E+09,9E+09,9E+09]],vmax,z30,t_pinza;
            MoveL [[1941.81,209.10,921.07],[0.998007,0.0630166,-0.00144972,-0.00306586],[0,0,-1,0],[9E+09,9E+09,9E+09,9E+09,9E+09,9E+09]],vmax,z30,t_pinza;
            MoveL [[1936.04,215.18,952.71],[0.997943,0.0629927,-0.0113345,-0.00367777],[0,0,-1,0],[9E+09,9E+09,9E+09,9E+09,9E+09,9E+09]],vmax,fine,t_pinza;
            !
            ! Punto nº 2
            SetGO go_Progr_soldad,2;
            MoveL [[1932.67,216.98,967.23],[0.997646,0.0629333,-0.0268221,-0.00469771],[0,0,-1,0],[9E+09,9E+09,9E+09,9E+09,9E+09,9E+09]],v2500,fine,t_pinza;
            !CloseHighLift gun1;
            Soldar\AbrirTotal;
            !OpenHighLift gun1;
            !
            MoveL [[1941.81,209.10,921.07],[0.998007,0.0630149,-0.001451,-0.00306444],[0,0,-1,0],[9E+09,9E+09,9E+09,9E+09,9E+09,9E+09]],vmax,z30,t_pinza;
            MoveL [[1814.69,209.14,912.70],[0.998007,0.0630102,-0.00143081,-0.0030535],[0,0,-1,0],[9E+09,9E+09,9E+09,9E+09,9E+09,9E+09]],vmax,z30,t_pinza;
            MoveL [[1814.66,327.08,1503.28],[0.998009,0.0629858,-0.00139661,-0.0030575],[0,0,-1,0],[9E+09,9E+09,9E+09,9E+09,9E+09,9E+09]],vmax,fine,t_pinza;
            !
        ENDIF
        !
        !

        !WHILE di_FixMoved1=0 DO
        !TPWrite" Esperando bridas útil retrocedidos";
        !ENDWHILE
        TPErase;
        !
        ! Posición reposo
        MoveAbsJ home_pos_rob,v3000,fine,t_pinza;
        !
        Set do_mesa_free;
        !
        rAnticol acA1_R2,aaDeactivate;
        rAnticol acA3_R2,aaDeactivate;
        rAnticol acA4_R3,aaDeactivate;
        !
        !Fin_ciclo
        End_of_cycle;
        Reset do_Move_Fix1;
        home_robot;
        !
        RETURN ;
    ENDPROC
    PROC SE380_M3_NEW_V2()
        TPErase;
    TPWrite "----------------------------------------";
    TPWrite "   [  MB ABRERA ]  -  [Grupo GESTAMP]   ";
    TPWrite "----------------------------------------";
    TPWrite "           [DPTO. de  robotica]         ";
    TPWrite "----------------------------------------";
    TPWrite "                                        ";
    TPWrite "----------------------------------------";
    TPWrite "Soldando util 1 Ref:  Revestimiento 380 ";
    TPWrite "----------------------------------------";
    TPWrite "                                        ";
    TPWrite "----------------------------------------";
    !
    SetDO do_Abrir_Agua, 1;
    WaitUntil di_flow1_ok = 1 AND di_flow2_ok = 1;
    ! Posición reposo
    MoveAbsJ home_pos_rob,v3000,fine,t_pinza;
    !
    rAnticol acA4_R3, aaActivate;
    !
     WHILE di_util3_OK=0 DO
            TPWrite "Esperando Útil en condiciones para soldar";
        ENDWHILE
    TPErase;
    !
    OpenHighLift gun1;
    !
    ! Mesa en posicion
    Reset do_mesa_free;
    !
    !MoveJ [[1374.18,-3.83,1533.82],[0.99991,-0.000625717,0.0129629,-0.0033479],[-1,-1,-1,0],[9E+09,9E+09,9E+09,9E+09,9E+09,9E+09]],vmax,fine,t_pinza;
    !
    !
    IF di_Util3_Fase2=1 THEN
        !
        WaitDI di_Pinza_Abierta, 1;
        MoveL [[1950.03,-536.03,1371.26],[0.611764,0.241675,-0.157576,-0.736551],[0,0,0,0],[9E+09,9E+09,9E+09,9E+09,9E+09,9E+09]],vmax,z30,t_pinza;
        MoveJ [[2304.93,-634.71,1357.12],[0.126592,0.565511,-0.100293,-0.808773],[-1,0,0,0],[9E+09,9E+09,9E+09,9E+09,9E+09,9E+09]], vmax, z30, t_pinza;
        !MoveL [[2278.30,-304.11,1287.18],[0.0523811,0.557467,-0.0704301,-0.825546],[-1,0,0,0],[9E+09,9E+09,9E+09,9E+09,9E+09,9E+09]],vmax,z30,t_pinza;
        !
        rAnticol acA1_R2, aaActivate;
        !
        MoveL [[2305.04,-642.77,1119.33],[0.0731285,0.632704,-0.0648974,-0.768197],[-1,1,-1,0],[9E+09,9E+09,9E+09,9E+09,9E+09,9E+09]], vmax, z1, t_pinza;
        !
        ! Punto nº 5
        SetGO go_Progr_soldad,21;
        MoveL [[2271.02,-644.47,1070.96],[0.0807119,0.655841,-0.0539591,-0.74863],[-1,1,-1,0],[9E+09,9E+09,9E+09,9E+09,9E+09,9E+09]],v2500,fine,t_pinza;
        !CloseHighLift gun1;
        Soldar\Aproximado;
        !
        ! Punto nº 6
        SetGO go_Progr_soldad,22;
        MoveL [[2270.08,-645.22,1090.82],[0.0929999,0.668511,-0.0700555,-0.734532],[-1,1,-1,0],[9E+09,9E+09,9E+09,9E+09,9E+09,9E+09]],v2500,fine,t_pinza;
        Soldar\AbrirTotal;
        !OpenHighLift gun1;
        !
        MoveL [[2287.51,-645.48,1098.71],[0.0801215,0.632953,-0.0854086,-0.765282],[-1,1,-1,0],[9E+09,9E+09,9E+09,9E+09,9E+09,9E+09]], vmax, fine, t_pinza;
        !
        !
        !CloseHighLift gun1;
        ! Punto nº 4
        SetGO go_Progr_soldad,23;
        MoveL [[2278.07,-644.00,1101.05],[0.0769554,0.532671,-0.0969797,-0.837218],[-1,0,0,0],[9E+09,9E+09,9E+09,9E+09,9E+09,9E+09]],v2500,fine,t_pinza;
        Soldar\AbrirTotal;
        !OpenHighLift gun1;
        MoveL [[2280.35,-642.87,1089.59],[0.0454499,0.568835,-0.0713654,-0.818088],[-1,0,0,0],[9E+09,9E+09,9E+09,9E+09,9E+09,9E+09]],vmax,z30,t_pinza;
        MoveL [[2281.31,-642.42,1286.87],[0.180442,0.567294,-0.15165,-0.789063],[-1,0,0,0],[9E+09,9E+09,9E+09,9E+09,9E+09,9E+09]],vmax,z10,t_pinza;
        MoveJ [[2336.70,-261.50,1268.72],[0.101443,0.74953,-0.0681612,-0.65059],[-1,-1,1,1],[9E+09,9E+09,9E+09,9E+09,9E+09,9E+09]],vmax,z10,t_pinza;
        !
        rAnticol acA1_R2, aaDeactivate;
        !
        MoveL [[2302.22,-362.12,1061.93],[0.171666,0.689227,-0.180283,-0.680437],[-1,-1,0,1],[9E+09,9E+09,9E+09,9E+09,9E+09,9E+09]], vmax, z10, t_Pinza;
        !
        ! Punto nº 7
        SetGO go_Progr_soldad,24;
        MoveL [[2245.69,-366.67,1043.53],[0.171772,0.68956,-0.180197,-0.680096],[-1,-1,0,1],[9E+09,9E+09,9E+09,9E+09,9E+09,9E+09]],v2500,fine,t_pinza;
        !CloseHighLift gun1;
        Soldar\AbrirTotal;
        !OpenHighLift gun1;
        !
        MoveL [[2261.56,-361.60,1045.69],[0.171666,0.689231,-0.180286,-0.680433],[-1,-1,0,1],[9E+09,9E+09,9E+09,9E+09,9E+09,9E+09]],vmax,z10,t_pinza;
        MoveL [[2261.37,-361.61,1052.72],[0.0821539,0.588586,-0.143885,-0.791274],[-1,0,0,1],[9E+09,9E+09,9E+09,9E+09,9E+09,9E+09]], vmax, z10, t_pinza;
        MoveL [[2261.99,-362.54,1064.02],[0.0292679,0.524197,-0.121644,-0.842356],[-1,1,-1,1],[9E+09,9E+09,9E+09,9E+09,9E+09,9E+09]], vmax, z10, t_pinza;
        !
        ! Punto nº 3
        SetGO go_Progr_soldad,25;
        MoveL [[2253.93,-364.08,1063.27],[0.0206188,0.493348,-0.0954008,-0.864339],[-1,1,-1,1],[9E+09,9E+09,9E+09,9E+09,9E+09,9E+09]],v2500,fine,t_pinza;
        !CloseHighLift gun1;
        Soldar\AbrirTotal;
        !OpenHighLift gun1;
        !
        MoveL [[2279.30,-361.58,1060.10],[0.0557739,0.557087,-0.133977,-0.817676],[-1,1,-1,1],[9E+09,9E+09,9E+09,9E+09,9E+09,9E+09]], vmax, z10, t_pinza;
        MoveL [[2271.40,-361.57,1045.68],[0.171673,0.68923,-0.180281,-0.680433],[-1,-1,0,1],[9E+09,9E+09,9E+09,9E+09,9E+09,9E+09]], vmax, z10, t_pinza;
        MoveL [[2271.65,-353.61,1097.35],[0.102859,0.766787,-0.165187,-0.611695],[-1,-1,0,1],[9E+09,9E+09,9E+09,9E+09,9E+09,9E+09]],vmax,z10,t_pinza;
        MoveL [[2274.62,-353.62,1088.23],[0.0990273,0.85186,-0.184532,-0.48008],[-1,-1,0,1],[9E+09,9E+09,9E+09,9E+09,9E+09,9E+09]],vmax,z10,t_pinza;
        !
        ! Punto nº 8
        SetGO go_Progr_soldad,26;
        MoveL [[2248.06,-360.78,1085.24],[0.1521,0.904047,-0.0687234,-0.393499],[-1,-1,0,1],[9E+09,9E+09,9E+09,9E+09,9E+09,9E+09]],v2500,fine,t_pinza;
        !CloseHighLift gun1;
        Soldar\AbrirTotal;
        !OpenHighLift gun1;
        !
        !
        MoveL [[2274.62,-353.62,1088.24],[0.0990275,0.851861,-0.184531,-0.480078],[-1,-1,0,1],[9E+09,9E+09,9E+09,9E+09,9E+09,9E+09]],vmax,z30,t_pinza;
        MoveL [[2274.61,-353.61,1227.96],[0.0603736,0.739422,-0.200529,-0.639843],[0,0,0,1],[9E+09,9E+09,9E+09,9E+09,9E+09,9E+09]], vmax, fine, t_pinza;
        MoveJ [[1810.20,-428.43,1222.13],[0.967306,0.0614306,0.0139803,-0.245661],[-1,0,-1,0],[9E+09,9E+09,9E+09,9E+09,9E+09,9E+09]],vmax,z30,t_pinza;
        !MoveJ [[2281.33,-642.45,1345.63],[0.144583,0.573588,-0.125869,-0.796398],[-1,2,-2,1],[9E+09,9E+09,9E+09,9E+09,9E+09,9E+09]],vmax,z30,t_pinza;
        !MoveJ [[1785.59,-469.47,1381.70],[0.179143,0.471254,-0.260946,-0.823246],[0,1,-1,1],[9E+09,9E+09,9E+09,9E+09,9E+09,9E+09]], vmax, fine, t_pinza;
        !MoveJ [[1760.91,-305.11,1659.65],[0.746337,0.20237,-0.393358,-0.497289],[0,-1,0,0],[9E+09,9E+09,9E+09,9E+09,9E+09,9E+09]], vmax, z30, t_pinza;
        !MoveJ [[1748.52,-266.76,1075.42],[0.984695,9.29977E-05,-0.028478,-0.171943],[-1,-1,-1,0],[9E+09,9E+09,9E+09,9E+09,9E+09,9E+09]], vmax, fine, t_pinza;
        !
        !
        MoveJ [[2061.28,-656.27,975.98],[0.984786,-0.0198099,-0.0365393,-0.168729],[-1,-1,-1,0],[9E+09,9E+09,9E+09,9E+09,9E+09,9E+09]], vmax, fine, t_pinza;
        MoveL [[2239.87,-662.42,987.53],[0.994723,-0.0273783,-0.0400457,-0.090404],[-1,-1,-2,0],[9E+09,9E+09,9E+09,9E+09,9E+09,9E+09]], vmax, z30, t_pinza;
        rAnticol acA2_R2, aaActivate;
        MoveL [[2275.01,-647.76,1022.57],[0.998921,-0.0249954,-0.0332255,-0.0207046],[-1,-1,-2,0],[9E+09,9E+09,9E+09,9E+09,9E+09,9E+09]], vmax, fine, t_pinza;
        !
        !CloseHighLift gun1;
        ! Punto nº 18
        SetGO go_Progr_soldad,27;
        MoveL [[2274.03,-640.64,1041.30],[0.999165,-0.0260408,-0.0277749,0.014847],[-1,-1,-2,0],[9E+09,9E+09,9E+09,9E+09,9E+09,9E+09]],v2500,fine,t_pinza;
        Soldar\Aproximado;
        !
        ! Punto nº 19
        SetGO go_Progr_soldad,28;
        MoveL [[2307.02,-655.48,1041.20],[0.998626,-0.0245739,-0.0286689,-0.0363289],[-1,-1,-2,0],[9E+09,9E+09,9E+09,9E+09,9E+09,9E+09]],v2500,fine,t_pinza;
        Soldar\AbrirTotal;
        !OpenHighLift gun1;
        !
        MoveL [[2254.37,-649.25,1026.09],[0.99909,-0.0252569,-0.0320675,-0.0123309],[-1,-1,-2,0],[9E+09,9E+09,9E+09,9E+09,9E+09,9E+09]], vmax, z30, t_pinza;
        MoveL [[2061.15,-644.58,978.55],[0.99135,-0.0214274,-0.0356359,-0.124487],[-1,-1,-2,0],[9E+09,9E+09,9E+09,9E+09,9E+09,9E+09]], vmax, z30, t_pinza;
        MoveJ [[2001.64,-514.32,984.57],[0.989381,-0.0184783,-0.0241645,-0.142125],[-1,-1,-1,0],[9E+09,9E+09,9E+09,9E+09,9E+09,9E+09]], vmax, fine, t_pinza;
        !
        rAnticol acA2_R2, aaDeactivate;
        !
        !Abrimos Brida I
        !Set do_Move_Fix1;
        !WHILE di_FixMoved1=0 DO
            !TPWrite" Esperando centradores útil retrocedidos";
        !ENDWHILE
        !TPErase;
        !Reset do_Move_Fix1;
        !
        MoveL [[2108.97,-355.52,961.72],[0.997795,-0.018248,-0.0294086,-0.0566329],[-1,-1,-2,0],[9E+09,9E+09,9E+09,9E+09,9E+09,9E+09]], vmax, z30, t_pinza;
        MoveL [[2274.66,-355.52,990.08],[0.997795,-0.0182444,-0.0294182,-0.0566334],[-1,-1,-2,0],[9E+09,9E+09,9E+09,9E+09,9E+09,9E+09]], vmax, fine, t_pinza;
        !
        !CloseHighLift gun1;
        ! Punto nº 9
        SetGO go_Progr_soldad,29;
        MoveL [[2274.70,-352.41,991.71],[0.993047,-0.107442,-0.0228795,-0.0423163],[-1,-1,-1,0],[9E+09,9E+09,9E+09,9E+09,9E+09,9E+09]],v2500,fine,t_pinza;
        Soldar\AbrirTotal;
        !OpenHighLift gun1;
        !
        MoveL [[2278.21,-351.38,938.77],[0.99359,-0.0933036,-0.0250622,-0.058696],[-1,-1,-1,0],[9E+09,9E+09,9E+09,9E+09,9E+09,9E+09]], vmax, z30, t_pinza;
        !
        MoveL [[2330.21,-349.37,949.09],[0.995308,-0.0945096,-0.0200328,-0.00531662],[-1,-1,-2,0],[9E+09,9E+09,9E+09,9E+09,9E+09,9E+09]], vmax, z30, t_pinza;
        !
        ! Punto nº 10
        SetGO go_Progr_soldad,30;
        MoveL [[2317.11,-351.19,993.78],[0.995155,-0.0945451,-0.0265751,-0.0046916],[-1,-1,-2,0],[9E+09,9E+09,9E+09,9E+09,9E+09,9E+09]],v2500,fine,t_pinza;
        !CloseHighLift gun1;
        Soldar\AbrirTotal;
        !OpenHighLift gun1;
        !
        MoveL [[2330.21,-349.37,949.09],[0.995308,-0.0945096,-0.0200328,-0.00531662],[-1,-1,-2,0],[9E+09,9E+09,9E+09,9E+09,9E+09,9E+09]], vmax, z30, t_pinza;
        !
        ! Punto nº 11
        SetGO go_Progr_soldad,31;
        MoveL [[2351.82,-326.82,987.95],[0.993589,-0.109562,0.0180848,0.0212296],[-1,-1,-2,0],[9E+09,9E+09,9E+09,9E+09,9E+09,9E+09]],v2500,fine,t_pinza;
        !CloseHighLift gun1;
        Soldar\AbrirTotal;
        !OpenHighLift gun1;
        !
        MoveL [[2355.10,-332.29,945.91],[0.994972,-0.0976657,-0.0140722,0.0171257],[-1,-1,-2,0],[9E+09,9E+09,9E+09,9E+09,9E+09,9E+09]], vmax, z30, t_pinza;
        MoveL [[2346.24,-290.75,942.94],[0.99401,-0.0509691,-0.0120081,0.0959295],[-1,-1,-2,0],[9E+09,9E+09,9E+09,9E+09,9E+09,9E+09]], vmax, z50, t_pinza;
        MoveL [[2357.64,-289.29,963.37],[0.994718,-0.0618447,-0.00592021,0.0817125],[-1,-1,-2,0],[9E+09,9E+09,9E+09,9E+09,9E+09,9E+09]], vmax, z50, t_pinza;
        !
        ! Punto nº 12
        SetGO go_Progr_soldad,32;
        MoveL [[2351.25,-277.90,979.88],[0.99368,-0.0600209,-0.0157224,0.0935385],[-1,-1,-2,0],[9E+09,9E+09,9E+09,9E+09,9E+09,9E+09]],v2500,fine,t_pinza;
        !CloseHighLift gun1;
        Soldar\Aproximado;
        !OpenHighLift gun1;
        !
        MoveL [[2366.03,-254.70,963.56],[0.992067,-0.0590274,-0.0162736,0.109789],[-1,-1,-2,0],[9E+09,9E+09,9E+09,9E+09,9E+09,9E+09]], vmax, z30, t_pinza;
        !
        ! Punto nº 13
        SetGO go_Progr_soldad,34;
        MoveL [[2358.15,-231.29,973.22],[0.985877,-0.0524635,-0.0615422,0.146654],[-1,-1,-2,0],[9E+09,9E+09,9E+09,9E+09,9E+09,9E+09]],v2500,fine,t_pinza;
        !CloseHighLift gun1;
        Soldar\Aproximado;
        !
        MoveL [[2362.99,-217.06,966.39],[0.97584,-0.0595484,-0.018906,0.209362],[-1,-1,-2,0],[9E+09,9E+09,9E+09,9E+09,9E+09,9E+09]], vmax, z20, t_pinza;
        !
        ! Punto nº 14
        SetGO go_Progr_soldad,35;
        MoveL [[2358.17,-201.61,970.42],[0.981161,-0.0299528,-0.0443934,0.18562],[-1,-1,-2,0],[9E+09,9E+09,9E+09,9E+09,9E+09,9E+09]],v2500,fine,t_pinza;
        Soldar\AbrirTotal;
        !OpenHighLift gun1;
        !
        MoveL [[2367.60,-219.86,964.45],[0.985141,-0.0289361,-0.0450796,0.163183],[-1,-1,-2,0],[9E+09,9E+09,9E+09,9E+09,9E+09,9E+09]], vmax, z30, t_pinza;
        MoveL [[2376.78,-219.84,946.82],[0.986154,-0.0354061,-0.0058428,0.1619],[-1,-1,-2,0],[9E+09,9E+09,9E+09,9E+09,9E+09,9E+09]], v800, z1, t_pinza;
        MoveL [[2360.84,-226.13,933.23],[0.986329,-0.0469172,0.0546841,0.148203],[-1,-1,-2,0],[9E+09,9E+09,9E+09,9E+09,9E+09,9E+09]], v800, z1, t_pinza;
        MoveL [[2333.69,-240.25,934.89],[0.981466,-0.0452955,0.056107,0.177551],[-1,-1,-2,0],[9E+09,9E+09,9E+09,9E+09,9E+09,9E+09]], v800, z1, t_pinza;
        !
        rAnticol acA2_R2, aaActivate;
        !
        ! Punto nº 15
        SetGO go_Progr_soldad,36;
        MoveL [[2335.18,-247.30,973.03],[0.981753,-0.0427633,0.0373645,0.181482],[-1,-1,-2,0],[9E+09,9E+09,9E+09,9E+09,9E+09,9E+09]],v2500,fine,t_pinza;
        !CloseHighLift gun1;
        Soldar\Aproximado;
        !
        MoveL [[2325.51,-226.54,961.77],[0.982668,-0.0410019,0.0231931,0.17929],[-1,-1,-2,0],[9E+09,9E+09,9E+09,9E+09,9E+09,9E+09]], vmax, z30, t_pinza;
        !
        ! Punto nº 16
        SetGO go_Progr_soldad,37;
        MoveL [[2335.77,-215.58,972.15],[0.978899,-0.0399562,0.0201559,0.199384],[-1,-1,-2,0],[9E+09,9E+09,9E+09,9E+09,9E+09,9E+09]],v2500,fine,t_pinza;
        Soldar\Aproximado;
        !
        MoveL [[2338.22,-204.64,959.97],[0.981799,-0.0400295,0.0156819,0.184992],[-1,-1,-2,0],[9E+09,9E+09,9E+09,9E+09,9E+09,9E+09]], vmax, fine, t_pinza;
        !
        ! Punto nº 17
        SetGO go_Progr_soldad,33;
        MoveL [[2349.91,-182.45,970.02],[0.970307,-0.0322776,-0.0434211,0.235748],[-1,-1,-2,0],[9E+09,9E+09,9E+09,9E+09,9E+09,9E+09]],v2500,fine,t_pinza;
        Soldar\AbrirTotal;
        !OpenHighLift gun1;
        !
        MoveL [[2338.23,-204.65,959.98],[0.980743,-0.0399374,0.0159041,0.190516],[-1,-1,-2,0],[9E+09,9E+09,9E+09,9E+09,9E+09,9E+09]], vmax, fine, t_pinza;
        rAnticol acA3_R2, aaDeactivate;
        MoveL [[2325.20,-220.97,964.07],[0.983684,-0.0420929,-0.00479657,0.174848],[-1,-1,-2,0],[9E+09,9E+09,9E+09,9E+09,9E+09,9E+09]], vmax, z30, t_pinza;
        MoveL [[2273.68,-257.38,964.08],[0.997228,-0.0412707,-0.00958073,0.061161],[-1,-1,-2,0],[9E+09,9E+09,9E+09,9E+09,9E+09,9E+09]], vmax, z30, t_pinza;
        !
        !
        MoveL [[2221.53,-305.30,951.47],[0.999078,-0.0406851,-0.0118067,0.00690595],[-1,-1,-2,0],[9E+09,9E+09,9E+09,9E+09,9E+09,9E+09]], vmax, z30, t_pinza;
        MoveL [[2067.01,-305.01,994.15],[0.998822,-0.0394357,-0.0110461,0.0260269],[-1,-1,-2,0],[9E+09,9E+09,9E+09,9E+09,9E+09,9E+09]], vmax, z30, t_pinza;
        MoveJ [[1751.52,-305.01,1046.24],[0.998822,-0.0394358,-0.0110451,0.0260265],[-1,-1,-2,0],[9E+09,9E+09,9E+09,9E+09,9E+09,9E+09]], vmax, fine, t_pinza;
        !
        rAnticol acA2_R2, aaDeactivate;
        !
    ENDIF
    !
    !Abrimos Bridas
    Set do_Move_Fix1;
    !WHILE di_FixMoved1=0 DO
        !TPWrite" Esperando bridas útil retrocedidos";
    !ENDWHILE
    TPErase;
    !
    rAnticol acA4_R3, aaDeactivate;
    !
    IF di_Util3_Fase1=1 THEN
        !
        MoveJ [[1828.76,275.93,959.10],[0.998007,0.0630151,-0.00146049,-0.00302759],[0,0,-1,0],[9E+09,9E+09,9E+09,9E+09,9E+09,9E+09]],vmax,z30,t_pinza;
        MoveL [[1910.34,268.79,952.85],[0.998005,0.0630469,-0.00133608,-0.00308947],[0,0,-1,0],[9E+09,9E+09,9E+09,9E+09,9E+09,9E+09]],vmax,fine,t_pinza;
        !
        !CloseHighLift gun1;
        ! Punto nº 1
        SetGO go_Progr_soldad,38;
        MoveL [[1909.55,260.79,969.56],[0.997983,0.0630717,0.00667651,-0.00254216],[0,0,-1,0],[9E+09,9E+09,9E+09,9E+09,9E+09,9E+09]],v2500,fine,t_pinza;
        Soldar\AbrirTotal;
        !OpenHighLift gun1;
        !
        MoveL [[1903.53,269.75,910.57],[0.998006,0.0630341,-0.0014147,-0.00304133],[0,0,-1,0],[9E+09,9E+09,9E+09,9E+09,9E+09,9E+09]],vmax,z30,t_pinza;
        MoveL [[1904.86,209.13,921.10],[0.998007,0.0630159,-0.00145661,-0.00306415],[0,0,-1,0],[9E+09,9E+09,9E+09,9E+09,9E+09,9E+09]],vmax,z30,t_pinza;
        MoveL [[1941.81,209.10,921.07],[0.998007,0.0630166,-0.00144972,-0.00306586],[0,0,-1,0],[9E+09,9E+09,9E+09,9E+09,9E+09,9E+09]], vmax, z30, t_pinza;
        MoveL [[1936.04,215.18,952.71],[0.997943,0.0629927,-0.0113345,-0.00367777],[0,0,-1,0],[9E+09,9E+09,9E+09,9E+09,9E+09,9E+09]], vmax, fine, t_pinza;
        !
        !CloseHighLift gun1;
        ! Punto nº 2
        SetGO go_Progr_soldad,39;
        MoveL [[1933.40,216.18,967.17],[0.997646,0.0629268,-0.0268525,-0.00466119],[0,0,-1,0],[9E+09,9E+09,9E+09,9E+09,9E+09,9E+09]],v2500,fine,t_pinza;
        Soldar\AbrirTotal;
        !OpenHighLift gun1;
        !
        MoveL [[1941.81,209.10,921.07],[0.998007,0.0630149,-0.001451,-0.00306444],[0,0,-1,0],[9E+09,9E+09,9E+09,9E+09,9E+09,9E+09]],vmax,z30,t_pinza;
        MoveL [[1814.69,209.14,912.70],[0.998007,0.0630102,-0.00143081,-0.0030535],[0,0,-1,0],[9E+09,9E+09,9E+09,9E+09,9E+09,9E+09]],vmax,z30,t_pinza;
        MoveL [[1814.66,327.08,1503.28],[0.998009,0.0629858,-0.00139661,-0.0030575],[0,0,-1,0],[9E+09,9E+09,9E+09,9E+09,9E+09,9E+09]],vmax,fine,t_pinza;
        !
    ENDIF
    !
    ! Posición reposo
    MoveAbsJ home_pos_rob,v3000,fine,t_pinza;
    !
    Set do_mesa_free;
    !
    rAnticol acA2_R2, aaDeactivate;
    rAnticol acA3_R2, aaDeactivate;
    rAnticol acA4_R3, aaDeactivate;
    !
    Reset do_Move_Fix1;
    home_robot;
    !
    RETURN;
    ENDPROC
    PROC SE380_M3()
        TPErase;
        TPWrite "----------------------------------------";
        TPWrite "   [  MB ABRERA ]  -  [Grupo GESTAMP]   ";
        TPWrite "----------------------------------------";
        TPWrite "           [DPTO. de  robotica]         ";
        TPWrite "----------------------------------------";
        TPWrite "                                        ";
        TPWrite "----------------------------------------";
        TPWrite "Soldando util 3 Ref:  Revestimiento 380 ";
        TPWrite "----------------------------------------";
        TPWrite "                                        ";
        TPWrite "----------------------------------------";
        !
        SetDO do_Abrir_Agua,1;
        WaitUntil di_flow1_ok=1 AND di_flow2_ok=1;
